; generated by Slic3r 1.2.9 on 2015-08-04 at 18:16:45

; external perimeters extrusion width = 0.50mm
; perimeters extrusion width = 0.72mm
; infill extrusion width = 0.72mm
; solid infill extrusion width = 0.72mm
; top infill extrusion width = 0.72mm

M107
M104 S200 ; set temperature
G28 ; home all axes
G1 Z5 F5000 ; lift nozzle

M109 S200 ; wait for temperature to be reached
G21 ; set units to millimeters
G90 ; use absolute coordinates
M82 ; use absolute distances for extrusion
G92 E0
G1 Z0.350 F7800.000
G1 E-2.00000 F2400.00000
G92 E0
G1 X45.822 Y45.823 F7800.000
G1 E2.00000 F2400.00000
G1 X50.529 Y41.492 E2.19789 F1800.000
G1 X50.972 Y41.121 E2.21577
G1 X55.817 Y37.403 E2.40472
G1 X56.290 Y37.072 E2.42260
G1 X61.440 Y33.791 E2.61155
G1 X61.941 Y33.502 E2.62943
G1 X67.358 Y30.682 E2.81838
G1 X67.881 Y30.438 E2.83626
G1 X73.523 Y28.101 E3.02521
G1 X74.066 Y27.903 E3.04310
G1 X79.891 Y26.067 E3.23205
G1 X80.449 Y25.917 E3.24993
G1 X86.411 Y24.596 E3.43888
G1 X86.980 Y24.495 E3.45676
G1 X93.034 Y23.698 E3.64571
G1 X93.610 Y23.648 E3.66359
G1 X99.711 Y23.381 E3.85254
G1 X100.289 Y23.381 E3.87043
G1 X105.856 Y23.625 E4.04284
G1 X106.966 Y23.698 E4.07725 F1800.000
G1 X113.020 Y24.495 E4.26620
G1 X113.589 Y24.596 E4.28408
G1 X119.551 Y25.917 E4.47303
G1 X120.109 Y26.067 E4.49091
G1 X125.934 Y27.903 E4.67986
G1 X126.477 Y28.101 E4.69775
G1 X132.119 Y30.438 E4.88670
G1 X132.642 Y30.682 E4.90458
G1 X138.059 Y33.502 E5.09353
G1 X138.560 Y33.791 E5.11141
G1 X143.710 Y37.072 E5.30036
G1 X144.183 Y37.403 E5.31824
G1 X149.028 Y41.121 E5.50719
G1 X149.471 Y41.492 E5.52507
G1 X153.973 Y45.618 E5.71402
G1 X154.382 Y46.027 E5.73191
G1 X158.508 Y50.529 E5.92086
G1 X158.879 Y50.972 E5.93874
G1 X162.597 Y55.817 E6.12769
G1 X162.928 Y56.290 E6.14557
G1 X166.209 Y61.440 E6.33452
G1 X166.498 Y61.941 E6.35240
G1 X169.318 Y67.358 E6.54135
G1 X169.562 Y67.881 E6.55923
G1 X171.899 Y73.523 E6.74819
G1 X172.097 Y74.066 E6.76607
G1 X173.933 Y79.891 E6.95502
G1 X174.083 Y80.449 E6.97290
G1 X175.404 Y86.411 E7.16185
G1 X175.505 Y86.980 E7.17973
G1 X176.302 Y93.034 E7.36868
G1 X176.352 Y93.610 E7.38656
G1 X176.540 Y97.909 E7.51971
G1 X176.492 Y99.040 E7.55474
G1 X173.771 Y120.277 E8.21720
G1 X173.518 Y121.427 E8.25363
G1 X172.097 Y125.934 E8.39984
G1 X171.899 Y126.477 E8.41773
G1 X169.562 Y132.119 E8.60668
G1 X169.318 Y132.642 E8.62456
G1 X166.498 Y138.059 E8.81351
G1 X166.209 Y138.560 E8.83139
G1 X162.928 Y143.710 E9.02034
G1 X162.597 Y144.183 E9.03822
G1 X158.879 Y149.028 E9.22717
G1 X158.508 Y149.471 E9.24505
G1 X154.382 Y153.973 E9.43400
G1 X153.973 Y154.382 E9.45189
G1 X149.471 Y158.508 E9.64084
G1 X149.028 Y158.879 E9.65872
G1 X144.183 Y162.597 E9.84767
G1 X143.710 Y162.928 E9.86555
G1 X138.560 Y166.209 E10.05450
G1 X138.059 Y166.498 E10.07238
G1 X132.642 Y169.318 E10.26133
G1 X132.119 Y169.562 E10.27921
G1 X126.477 Y171.899 E10.46817
G1 X125.934 Y172.097 E10.48605
G1 X120.109 Y173.933 E10.67500
G1 X119.551 Y174.083 E10.69288
G1 X113.589 Y175.404 E10.88183
G1 X113.020 Y175.505 E10.89971
G1 X106.966 Y176.302 E11.08866
G1 X106.390 Y176.352 E11.10654
G1 X100.289 Y176.619 E11.29549
G1 X99.711 Y176.619 E11.31338
G1 X93.610 Y176.352 E11.50233
G1 X93.034 Y176.302 E11.52021
G1 X86.980 Y175.505 E11.70916
G1 X86.411 Y175.404 E11.72704
G1 X80.449 Y174.083 E11.91599
G1 X79.891 Y173.933 E11.93387
G1 X74.066 Y172.097 E12.12282
G1 X73.523 Y171.899 E12.14071
G1 X67.881 Y169.562 E12.32966
G1 X67.358 Y169.318 E12.34754
G1 X61.941 Y166.498 E12.53649
G1 X61.440 Y166.209 E12.55437
G1 X56.290 Y162.928 E12.74332
G1 X55.817 Y162.597 E12.76120
G1 X50.972 Y158.879 E12.95015
G1 X50.529 Y158.508 E12.96803
G1 X46.421 Y154.743 E13.14045
G1 X45.618 Y153.973 E13.17486
G1 X41.492 Y149.471 E13.36381
G1 X41.121 Y149.028 E13.38169
G1 X37.403 Y144.183 E13.57064
G1 X37.072 Y143.710 E13.58852
G1 X33.791 Y138.560 E13.77747
G1 X33.502 Y138.059 E13.79536
G1 X30.682 Y132.642 E13.98430
G1 X30.438 Y132.119 E14.00218
G1 X28.101 Y126.477 E14.19113
G1 X27.903 Y125.934 E14.20902
G1 X26.067 Y120.109 E14.39797
G1 X25.917 Y119.551 E14.41585
G1 X24.596 Y113.589 E14.60480
G1 X24.495 Y113.020 E14.62268
G1 X23.698 Y106.966 E14.81163
G1 X23.648 Y106.390 E14.82951
G1 X23.460 Y102.091 E14.96266
G1 X23.508 Y100.960 E14.99769
G1 X26.229 Y79.723 E15.66015
G1 X26.482 Y78.573 E15.69658
G1 X27.903 Y74.066 E15.84279
G1 X28.101 Y73.523 E15.86068
G1 X30.438 Y67.881 E16.04963
G1 X30.682 Y67.358 E16.06751
G1 X33.502 Y61.941 E16.25646
G1 X33.791 Y61.440 E16.27434
G1 X37.072 Y56.290 E16.46329
G1 X37.403 Y55.817 E16.48117
G1 X41.121 Y50.972 E16.67012
G1 X41.492 Y50.529 E16.68800
G1 X45.769 Y45.876 E16.88357
G1 E14.88357 F2400.00000
G92 E0
G1 X98.613 Y155.733 F7800.000
G1 E2.00000 F2400.00000
G1 X99.753 Y155.552 E2.03569 F1800.000
G1 X100.000 Y155.513 E2.04344 F1800.000
G1 X101.387 Y155.733 E2.08687
G1 X102.637 Y156.370 E2.13031
G1 X103.630 Y157.363 E2.17375
G1 X104.267 Y158.613 E2.21718
G1 X104.487 Y160.000 E2.26062
G1 X104.267 Y161.387 E2.30406
G1 X103.630 Y162.637 E2.34750
G1 X102.637 Y163.630 E2.39094
G1 X101.387 Y164.267 E2.43437
G1 X100.000 Y164.487 E2.47781
G1 X98.613 Y164.267 E2.52125
G1 X97.363 Y163.630 E2.56468
G1 X96.370 Y162.637 E2.60812
G1 X95.733 Y161.387 E2.65156
G1 X95.513 Y160.000 E2.69499
G1 X95.733 Y158.613 E2.73843
G1 X96.370 Y157.363 E2.78187
G1 X97.363 Y156.370 E2.82531
G1 X98.547 Y155.767 E2.86642
G1 X98.809 Y156.334 F7800.000
G1 X99.851 Y156.169 E2.89906 F1800.000
G1 X100.000 Y156.146 E2.90374 F1800.000
G1 X101.191 Y156.334 E2.94105
G1 X102.266 Y156.882 E2.97836
G1 X103.118 Y157.734 E3.01567
G1 X103.666 Y158.809 E3.05299
G1 X103.854 Y160.000 E3.09030
G1 X103.666 Y161.191 E3.12761
G1 X103.118 Y162.265 E3.16492
G1 X102.266 Y163.118 E3.20224
G1 X101.191 Y163.666 E3.23955
G1 X100.000 Y163.854 E3.27686
G1 X98.809 Y163.666 E3.31417
G1 X97.734 Y163.118 E3.35149
G1 X96.882 Y162.265 E3.38880
G1 X96.334 Y161.191 E3.42611
G1 X96.146 Y160.000 E3.46342
G1 X96.334 Y158.809 E3.50074
G1 X96.882 Y157.734 E3.53805
G1 X97.734 Y156.882 E3.57536
G1 X98.742 Y156.368 E3.61035
G1 X98.938 Y155.851 F7800.000
G1 X98.675 Y155.000 F7800.000
G1 X96.991 Y155.858 E3.66883 F1800.000
G1 X95.858 Y156.991 E3.71840
G1 X95.000 Y158.675 E3.77688
G1 X94.142 Y156.991 E3.83536
G1 X93.009 Y155.858 E3.88492
G1 X91.325 Y155.000 E3.94340
G1 X93.009 Y154.142 E4.00188
G1 X94.142 Y153.009 E4.05144
G1 X95.000 Y151.325 E4.10992
G1 X95.858 Y153.009 E4.16840
G1 X96.991 Y154.142 E4.21796
G1 X98.608 Y154.966 E4.27412
G1 X93.714 Y157.528 F7800.000
G1 X94.267 Y158.613 E4.31183 F1800.000
G1 X94.487 Y160.000 E4.35527
G1 X94.267 Y161.387 E4.39871
G1 X93.630 Y162.637 E4.44214
G1 X92.637 Y163.630 E4.48558
G1 X91.387 Y164.267 E4.52902
G1 X90.000 Y164.487 E4.57245
G1 X88.613 Y164.267 E4.61589
G1 X87.363 Y163.630 E4.65933
G1 X86.370 Y162.637 E4.70277
G1 X85.733 Y161.387 E4.74620
G1 X85.513 Y160.000 E4.78964
G1 X85.733 Y158.613 E4.83308
G1 X86.370 Y157.363 E4.87652
G1 X87.363 Y156.370 E4.91996
G1 X88.613 Y155.733 E4.96339
G1 X89.753 Y155.552 E4.99908
G1 X90.000 Y155.513 E5.00683 F1800.000
G1 X91.387 Y155.733 E5.05026
G1 X92.637 Y156.370 E5.09370
G1 X93.630 Y157.363 E5.13714
G1 X93.680 Y157.461 E5.14055
G1 X93.157 Y157.811 F7800.000
G1 X93.666 Y158.809 E5.17519 F1800.000
G1 X93.854 Y160.000 E5.21251
G1 X93.666 Y161.191 E5.24982
G1 X93.118 Y162.265 E5.28713
G1 X92.266 Y163.118 E5.32444
G1 X91.191 Y163.666 E5.36176
G1 X90.000 Y163.854 E5.39907
G1 X88.809 Y163.666 E5.43638
G1 X87.735 Y163.118 E5.47369
G1 X86.882 Y162.265 E5.51101
G1 X86.334 Y161.191 E5.54832
G1 X86.146 Y160.000 E5.58563
G1 X86.334 Y158.809 E5.62295
G1 X86.882 Y157.734 E5.66026
G1 X87.735 Y156.882 E5.69757
G1 X88.809 Y156.334 E5.73488
G1 X89.851 Y156.169 E5.76752
G1 X90.000 Y156.146 E5.77220 F1800.000
G1 X91.191 Y156.334 E5.80951
G1 X92.266 Y156.882 E5.84682
G1 X93.123 Y157.744 E5.88446
G1 X93.657 Y157.788 F7800.000
G1 X88.675 Y155.000 F7800.000
G1 X86.991 Y155.858 E5.94294 F1800.000
G1 X85.858 Y156.991 E5.99250
G1 X85.000 Y158.675 E6.05098
G1 X84.142 Y156.991 E6.10946
G1 X83.009 Y155.858 E6.15903
G1 X81.325 Y155.000 E6.21751
G1 X83.009 Y154.142 E6.27599
G1 X84.142 Y153.009 E6.32555
G1 X85.000 Y151.325 E6.38403
G1 X85.858 Y153.009 E6.44251
G1 X86.991 Y154.142 E6.49207
G1 X88.608 Y154.966 E6.54823
G1 X83.714 Y157.527 F7800.000
G1 X84.267 Y158.613 E6.58594 F1800.000
G1 X84.487 Y160.000 E6.62938
G1 X84.267 Y161.387 E6.67282
G1 X83.630 Y162.637 E6.71625
G1 X82.637 Y163.630 E6.75969
G1 X81.387 Y164.267 E6.80313
G1 X80.000 Y164.487 E6.84657
G1 X78.613 Y164.267 E6.89000
G1 X77.363 Y163.630 E6.93344
G1 X76.370 Y162.637 E6.97688
G1 X75.733 Y161.387 E7.02031
G1 X75.513 Y160.000 E7.06375
G1 X75.733 Y158.613 E7.10719
G1 X76.370 Y157.363 E7.15063
G1 X77.363 Y156.370 E7.19407
G1 X78.613 Y155.733 E7.23750
G1 X79.753 Y155.552 E7.27320
G1 X80.000 Y155.513 E7.28094 F1800.000
G1 X81.387 Y155.733 E7.32438
G1 X82.637 Y156.370 E7.36781
G1 X83.630 Y157.363 E7.41125
G1 X83.680 Y157.461 E7.41465
G1 X83.157 Y157.811 F7800.000
G1 X83.666 Y158.809 E7.44931 F1800.000
G1 X83.854 Y160.000 E7.48662
G1 X83.666 Y161.191 E7.52393
G1 X83.118 Y162.265 E7.56124
G1 X82.266 Y163.118 E7.59856
G1 X81.191 Y163.666 E7.63587
G1 X80.000 Y163.854 E7.67318
G1 X78.809 Y163.666 E7.71050
G1 X77.735 Y163.118 E7.74781
G1 X76.882 Y162.265 E7.78512
G1 X76.334 Y161.191 E7.82243
G1 X76.146 Y160.000 E7.85975
G1 X76.334 Y158.809 E7.89706
G1 X76.882 Y157.734 E7.93437
G1 X77.735 Y156.882 E7.97169
G1 X78.809 Y156.334 E8.00900
G1 X79.851 Y156.169 E8.04163
G1 X80.000 Y156.146 E8.04631 F1800.000
G1 X81.191 Y156.334 E8.08362
G1 X82.266 Y156.882 E8.12093
G1 X83.123 Y157.744 E8.15857
G1 X83.657 Y157.788 F7800.000
G1 X78.675 Y155.000 F7800.000
G1 X76.991 Y155.858 E8.21705 F1800.000
G1 X75.858 Y156.991 E8.26661
G1 X75.131 Y158.418 E8.31617
G1 X74.880 Y160.000 E8.36573
G1 X75.131 Y161.582 E8.41530
G1 X75.858 Y163.009 E8.46486
G1 X76.923 Y164.074 E8.51144
G1 X76.770 Y164.325 E8.52054
G1 X76.606 Y164.274 E8.52585
G1 X71.093 Y161.990 E8.71048
G1 X65.801 Y159.235 E8.89511
G1 X60.768 Y156.029 E9.07973
G1 X59.655 Y155.174 E9.12316
G1 X61.582 Y154.869 E9.18355
G1 X63.009 Y154.142 E9.23311
G1 X64.142 Y153.009 E9.28268
G1 X65.000 Y151.325 E9.34115
G1 X65.858 Y153.009 E9.39963
G1 X66.991 Y154.142 E9.44919
G1 X68.418 Y154.869 E9.49875
G1 X70.000 Y155.120 E9.54832
G1 X71.582 Y154.869 E9.59788
G1 X73.009 Y154.142 E9.64744
G1 X74.142 Y153.009 E9.69701
G1 X75.000 Y151.325 E9.75548
G1 X75.858 Y153.009 E9.81396
G1 X76.991 Y154.142 E9.86352
G1 X78.608 Y154.966 E9.91968
G1 X78.786 Y154.295 F7800.000
G1 X78.613 Y154.267 E9.92510 F1800.000
G1 X77.363 Y153.630 E9.96853
G1 X76.370 Y152.637 E10.01197
G1 X75.733 Y151.387 E10.05541
G1 X75.513 Y150.000 E10.09885
G1 X75.733 Y148.613 E10.14228
G1 X76.370 Y147.363 E10.18572
G1 X77.363 Y146.370 E10.22916
G1 X78.613 Y145.733 E10.27259
G1 X79.753 Y145.552 E10.30829
G1 X80.000 Y145.513 E10.31603 F1800.000
G1 X81.387 Y145.733 E10.35947
G1 X82.637 Y146.370 E10.40291
G1 X83.630 Y147.363 E10.44635
G1 X84.267 Y148.613 E10.48978
G1 X84.487 Y150.000 E10.53322
G1 X84.267 Y151.387 E10.57666
G1 X83.630 Y152.637 E10.62009
G1 X82.637 Y153.630 E10.66353
G1 X81.387 Y154.267 E10.70697
G1 X80.000 Y154.487 E10.75041
G1 X78.860 Y154.307 E10.78611
G1 X78.884 Y153.678 F7800.000
G1 X78.809 Y153.666 E10.78846 F1800.000
G1 X77.735 Y153.118 E10.82577
G1 X76.882 Y152.265 E10.86309
G1 X76.334 Y151.191 E10.90040
G1 X76.146 Y150.000 E10.93771
G1 X76.334 Y148.809 E10.97503
G1 X76.882 Y147.734 E11.01234
G1 X77.735 Y146.882 E11.04965
G1 X78.809 Y146.334 E11.08696
G1 X79.851 Y146.169 E11.11959
G1 X80.000 Y146.146 E11.12427 F1800.000
G1 X81.191 Y146.334 E11.16159
G1 X82.266 Y146.882 E11.19890
G1 X83.118 Y147.734 E11.23621
G1 X83.666 Y148.809 E11.27352
G1 X83.854 Y150.000 E11.31084
G1 X83.666 Y151.191 E11.34815
G1 X83.118 Y152.265 E11.38546
G1 X82.266 Y153.118 E11.42278
G1 X81.191 Y153.666 E11.46009
G1 X80.000 Y153.854 E11.49740
G1 X78.958 Y153.689 E11.53004
G1 X78.836 Y153.737 F7800.000
G1 E9.53004 F2400.00000
G92 E0
G1 X75.000 Y148.675 F7800.000
G1 E2.00000 F2400.00000
G1 X74.142 Y146.991 E2.05848 F1800.000
G1 X73.009 Y145.858 E2.10804
G1 X71.325 Y145.000 E2.16652
G1 X73.009 Y144.142 E2.22501
G1 X74.142 Y143.009 E2.27457
G1 X75.000 Y141.325 E2.33305
G1 X75.858 Y143.009 E2.39152
G1 X76.991 Y144.142 E2.44109
G1 X78.675 Y145.000 E2.49956
G1 X76.991 Y145.858 E2.55804
G1 X75.858 Y146.991 E2.60760
G1 X75.034 Y148.608 E2.66377
G1 X74.295 Y148.786 F7800.000
G1 X74.487 Y150.000 E2.70178 F1800.000
G1 X74.267 Y151.387 E2.74522
G1 X73.630 Y152.637 E2.78866
G1 X72.637 Y153.630 E2.83209
G1 X71.387 Y154.267 E2.87553
G1 X70.000 Y154.487 E2.91897
G1 X68.613 Y154.267 E2.96241
G1 X67.363 Y153.630 E3.00584
G1 X66.370 Y152.637 E3.04928
G1 X65.733 Y151.387 E3.09272
G1 X65.513 Y150.000 E3.13616
G1 X65.733 Y148.613 E3.17959
G1 X66.370 Y147.363 E3.22303
G1 X67.363 Y146.370 E3.26647
G1 X68.613 Y145.733 E3.30991
G1 X69.753 Y145.552 E3.34560
G1 X70.000 Y145.513 E3.35334 F1800.000
G1 X71.387 Y145.733 E3.39678
G1 X72.637 Y146.370 E3.44022
G1 X73.630 Y147.363 E3.48366
G1 X74.267 Y148.613 E3.52709
G1 X74.283 Y148.712 E3.53019
G1 X73.678 Y148.884 F7800.000
G1 X73.854 Y150.000 E3.56515 F1800.000
G1 X73.666 Y151.191 E3.60246
G1 X73.118 Y152.265 E3.63977
G1 X72.266 Y153.118 E3.67709
G1 X71.191 Y153.666 E3.71440
G1 X70.000 Y153.854 E3.75171
G1 X68.809 Y153.666 E3.78902
G1 X67.735 Y153.118 E3.82633
G1 X66.882 Y152.265 E3.86365
G1 X66.334 Y151.191 E3.90096
G1 X66.146 Y150.000 E3.93827
G1 X66.334 Y148.809 E3.97559
G1 X66.882 Y147.734 E4.01290
G1 X67.735 Y146.882 E4.05021
G1 X68.809 Y146.334 E4.08752
G1 X69.851 Y146.169 E4.12016
G1 X70.000 Y146.146 E4.12484 F1800.000
G1 X71.191 Y146.334 E4.16215
G1 X72.266 Y146.882 E4.19946
G1 X73.118 Y147.734 E4.23678
G1 X73.666 Y148.810 E4.27412
G1 X74.160 Y149.017 F7800.000
G1 E2.27412 F2400.00000
G92 E0
G1 X68.675 Y145.000 F7800.000
G1 E2.00000 F2400.00000
G1 X66.991 Y145.858 E2.05848 F1800.000
G1 X65.858 Y146.991 E2.10804
G1 X65.000 Y148.675 E2.16652
G1 X64.142 Y146.991 E2.22500
G1 X63.009 Y145.858 E2.27456
G1 X61.325 Y145.000 E2.33304
G1 X63.009 Y144.142 E2.39153
G1 X64.142 Y143.009 E2.44109
G1 X65.000 Y141.325 E2.49957
G1 X65.858 Y143.009 E2.55804
G1 X66.991 Y144.142 E2.60761
G1 X68.608 Y144.966 E2.66376
G1 X63.714 Y147.527 F7800.000
G1 X64.267 Y148.613 E2.70148 F1800.000
G1 X64.487 Y150.000 E2.74492
G1 X64.267 Y151.387 E2.78835
G1 X63.630 Y152.637 E2.83179
G1 X62.637 Y153.630 E2.87523
G1 X61.387 Y154.267 E2.91867
G1 X60.000 Y154.487 E2.96210
G1 X58.613 Y154.267 E3.00554
G1 X57.363 Y153.630 E3.04898
G1 X56.370 Y152.637 E3.09242
G1 X55.733 Y151.387 E3.13585
G1 X55.513 Y150.000 E3.17929
G1 X55.733 Y148.613 E3.22273
G1 X56.370 Y147.363 E3.26616
G1 X57.363 Y146.370 E3.30960
G1 X58.613 Y145.733 E3.35304
G1 X59.753 Y145.552 E3.38873
G1 X60.000 Y145.513 E3.39648 F1800.000
G1 X61.387 Y145.733 E3.43991
G1 X62.637 Y146.370 E3.48335
G1 X63.630 Y147.363 E3.52679
G1 X63.680 Y147.461 E3.53019
G1 X63.157 Y147.811 F7800.000
G1 X63.666 Y148.809 E3.56484 F1800.000
G1 X63.854 Y150.000 E3.60216
G1 X63.666 Y151.191 E3.63947
G1 X63.118 Y152.265 E3.67678
G1 X62.266 Y153.118 E3.71409
G1 X61.191 Y153.666 E3.75141
G1 X60.000 Y153.854 E3.78872
G1 X58.809 Y153.666 E3.82603
G1 X57.735 Y153.118 E3.86334
G1 X56.882 Y152.265 E3.90066
G1 X56.334 Y151.191 E3.93797
G1 X56.146 Y150.000 E3.97528
G1 X56.334 Y148.809 E4.01260
G1 X56.882 Y147.734 E4.04991
G1 X57.735 Y146.882 E4.08722
G1 X58.809 Y146.334 E4.12453
G1 X59.851 Y146.169 E4.15717
G1 X60.000 Y146.146 E4.16185 F1800.000
G1 X61.191 Y146.334 E4.19916
G1 X62.266 Y146.882 E4.23647
G1 X63.123 Y147.744 E4.27411
G1 X63.657 Y147.788 F7800.000
G1 X61.387 Y144.267 F7800.000
G1 X60.000 Y144.487 E4.31755 F1800.000
G1 X58.613 Y144.267 E4.36098
G1 X57.363 Y143.630 E4.40442
G1 X56.370 Y142.637 E4.44786
G1 X55.733 Y141.387 E4.49129
G1 X55.513 Y140.000 E4.53473
G1 X55.733 Y138.613 E4.57817
G1 X56.370 Y137.363 E4.62161
G1 X57.363 Y136.370 E4.66505
G1 X58.613 Y135.733 E4.70848
G1 X59.753 Y135.552 E4.74418
G1 X60.000 Y135.513 E4.75192 F1800.000
G1 X61.387 Y135.733 E4.79536
G1 X62.637 Y136.370 E4.83879
G1 X63.630 Y137.363 E4.88223
