; generated by Slic3r 1.2.9 on 2015-08-04 at 18:17:12

; external perimeters extrusion width = 0.50mm
; perimeters extrusion width = 0.72mm
; infill extrusion width = 0.72mm
; solid infill extrusion width = 0.72mm
; top infill extrusion width = 0.72mm

M107
M104 S200 ; set temperature
G28 ; home all axes
G1 Z5 F5000 ; lift nozzle

M109 S200 ; wait for temperature to be reached
G21 ; set units to millimeters
G90 ; use absolute coordinates
M82 ; use absolute distances for extrusion
G92 E0
G1 Z0.350 F7800.000
G1 E-2.00000 F2400.00000
G92 E0
G1 X43.702 Y43.702 F7800.000
G1 E2.00000 F2400.00000
G1 X43.932 Y43.472 E2.01006 F1800.000
G1 X49.240 Y38.661 E2.23172
G1 X49.743 Y38.249 E2.25183
G1 X55.497 Y33.982 E2.47350
G1 X56.038 Y33.620 E2.49361
G1 X62.182 Y29.937 E2.71527
G1 X62.755 Y29.631 E2.73538
G1 X69.232 Y26.568 E2.95704
G1 X69.832 Y26.319 E2.97716
G1 X76.577 Y23.906 E3.19882
G1 X77.199 Y23.717 E3.21894
G1 X84.149 Y21.976 E3.44060
G1 X84.786 Y21.850 E3.46071
G1 X91.873 Y20.798 E3.68237
G1 X92.520 Y20.735 E3.70249
G1 X99.675 Y20.383 E3.92415
G1 X100.534 Y20.393 E3.95072
G1 X107.480 Y20.735 E4.16592 F1800.000
G1 X108.127 Y20.798 E4.18604
G1 X115.214 Y21.850 E4.40770
G1 X115.851 Y21.976 E4.42781
G1 X122.801 Y23.717 E4.64947
G1 X123.423 Y23.906 E4.66958
G1 X130.168 Y26.319 E4.89125
G1 X130.768 Y26.568 E4.91136
G1 X137.245 Y29.631 E5.13303
G1 X137.818 Y29.937 E5.15314
G1 X143.962 Y33.620 E5.37480
G1 X144.671 Y34.106 E5.40137
G1 X150.257 Y38.249 E5.61657
G1 X150.760 Y38.661 E5.63668
G1 X156.068 Y43.472 E5.85835
G1 X156.528 Y43.932 E5.87846
G1 X161.339 Y49.240 E6.10012
G1 X161.751 Y49.743 E6.12024
G1 X166.018 Y55.497 E6.34190
G1 X166.380 Y56.038 E6.36201
G1 X170.063 Y62.182 E6.58367
G1 X170.369 Y62.755 E6.60379
G1 X173.432 Y69.232 E6.82545
G1 X173.681 Y69.832 E6.84557
G1 X176.094 Y76.578 E7.06723
G1 X176.232 Y77.009 E7.08125
G1 X177.082 Y80.049 E7.17892
G1 X178.119 Y84.592 E7.32310
G1 X178.666 Y87.700 E7.42075
G1 X179.253 Y92.323 E7.56494
G1 X179.493 Y95.470 E7.66260
G1 X179.622 Y99.803 E7.79672
G1 X179.617 Y100.325 E7.81287
G1 X179.265 Y107.480 E8.03453
G1 X179.202 Y108.127 E8.05464
G1 X178.150 Y115.214 E8.27630
G1 X178.024 Y115.851 E8.29642
G1 X176.283 Y122.801 E8.51808
G1 X176.094 Y123.423 E8.53819
G1 X173.681 Y130.168 E8.75985
G1 X173.432 Y130.768 E8.77997
G1 X170.369 Y137.245 E9.00164
G1 X170.063 Y137.818 E9.02175
G1 X166.380 Y143.962 E9.24340
G1 X166.018 Y144.503 E9.26352
G1 X161.751 Y150.257 E9.48518
G1 X161.339 Y150.760 E9.50530
G1 X156.527 Y156.068 E9.72696
G1 X156.068 Y156.527 E9.74707
G1 X150.760 Y161.339 E9.96873
G1 X150.257 Y161.751 E9.98885
G1 X144.503 Y166.018 E10.21051
G1 X143.962 Y166.380 E10.23063
G1 X137.818 Y170.063 E10.45228
G1 X137.245 Y170.369 E10.47239
G1 X130.768 Y173.432 E10.69406
G1 X130.168 Y173.681 E10.71418
G1 X123.423 Y176.094 E10.93584
G1 X122.801 Y176.283 E10.95595
G1 X115.851 Y178.024 E11.17761
G1 X115.214 Y178.150 E11.19773
G1 X108.127 Y179.202 E11.41939
G1 X107.480 Y179.265 E11.43950
G1 X100.325 Y179.617 E11.66117
G1 X99.675 Y179.617 E11.68128
G1 X92.520 Y179.265 E11.90294
G1 X91.666 Y179.171 E11.92951
G1 X84.786 Y178.150 E12.14471
G1 X84.149 Y178.024 E12.16483
G1 X77.199 Y176.283 E12.38649
G1 X76.578 Y176.094 E12.40660
G1 X69.832 Y173.681 E12.62826
G1 X69.232 Y173.432 E12.64838
G1 X62.755 Y170.369 E12.87004
G1 X62.182 Y170.063 E12.89016
G1 X56.038 Y166.380 E13.11181
G1 X55.497 Y166.018 E13.13193
G1 X49.743 Y161.751 E13.35359
G1 X49.240 Y161.339 E13.37370
G1 X43.932 Y156.528 E13.59537
G1 X43.472 Y156.068 E13.61548
G1 X38.661 Y150.760 E13.83714
G1 X38.249 Y150.257 E13.85726
G1 X34.106 Y144.671 E14.07246
G1 X33.620 Y143.962 E14.09903
G1 X29.937 Y137.818 E14.32069
G1 X29.631 Y137.245 E14.34080
G1 X26.568 Y130.768 E14.56246
G1 X26.319 Y130.168 E14.58258
G1 X23.906 Y123.423 E14.80424
G1 X23.768 Y122.991 E14.81827
G1 X22.918 Y119.951 E14.91593
G1 X21.946 Y115.726 E15.05006
G1 X21.383 Y112.621 E15.14771
G1 X20.781 Y108.000 E15.29190
G1 X20.524 Y104.854 E15.38955
G1 X20.378 Y100.197 E15.53374
G1 X20.383 Y99.675 E15.54988
G1 X20.735 Y92.520 E15.77154
G1 X20.798 Y91.873 E15.79166
G1 X21.850 Y84.786 E16.01332
G1 X21.976 Y84.149 E16.03343
G1 X23.717 Y77.199 E16.25510
G1 X23.906 Y76.577 E16.27521
G1 X26.319 Y69.832 E16.49687
G1 X26.568 Y69.232 E16.51699
G1 X29.631 Y62.755 E16.73865
G1 X29.937 Y62.182 E16.75876
G1 X33.513 Y56.217 E16.97395
G1 X33.982 Y55.497 E17.00053
G1 X38.249 Y49.743 E17.22219
G1 X38.661 Y49.240 E17.24231
G1 X43.649 Y43.755 E17.47170
G1 E15.47170 F2400.00000
G92 E0
G1 X28.690 Y99.186 F7800.000
G1 E2.00000 F2400.00000
G1 X28.993 Y93.006 E2.19144 F1800.000
G1 X30.021 Y86.080 E2.40809
G1 X31.722 Y79.288 E2.62474
G1 X34.081 Y72.695 E2.84139
G1 X37.075 Y66.366 E3.05805
G1 X40.674 Y60.360 E3.27470
G1 X44.845 Y54.736 E3.49135
G1 X49.548 Y49.548 E3.70800
G1 X54.736 Y44.845 E3.92465
G1 X60.360 Y40.674 E4.14130
G1 X66.366 Y37.075 E4.35795
G1 X72.695 Y34.081 E4.57460
G1 X79.288 Y31.722 E4.79125
G1 X86.080 Y30.021 E5.00790
G1 X93.006 Y28.993 E5.22455
G1 X100.000 Y28.650 E5.44121
G1 X106.994 Y28.993 E5.65786
G1 X113.920 Y30.021 E5.87451
G1 X120.712 Y31.722 E6.09116
G1 X127.305 Y34.081 E6.30781
G1 X133.634 Y37.075 E6.52446
G1 X139.640 Y40.674 E6.74111
G1 X145.264 Y44.845 E6.95776
G1 X150.452 Y49.548 E7.17441
G1 X155.155 Y54.736 E7.39106
G1 X159.326 Y60.360 E7.60771
G1 X162.925 Y66.366 E7.82437
G1 X165.919 Y72.695 E8.04102
G1 X168.278 Y79.288 E8.25767
G1 X168.861 Y81.616 E8.33192
G1 X168.229 Y81.518 E8.35172
G1 X163.836 Y83.965 E8.50729
G1 X165.836 Y99.515 E8.99236
G1 X171.310 Y100.814 E9.16647
G1 X171.007 Y106.994 E9.35791
G1 X169.979 Y113.920 E9.57456
G1 X168.278 Y120.712 E9.79121
G1 X165.919 Y127.305 E10.00786
G1 X162.925 Y133.634 E10.22451
G1 X159.326 Y139.640 E10.44116
G1 X155.155 Y145.264 E10.65781
G1 X150.452 Y150.452 E10.87446
G1 X145.264 Y155.155 E11.09111
G1 X139.640 Y159.326 E11.30776
G1 X133.634 Y162.925 E11.52441
G1 X127.305 Y165.919 E11.74107
G1 X120.712 Y168.278 E11.95772
G1 X113.920 Y169.979 E12.17437
G1 X106.994 Y171.007 E12.39102
G1 X100.000 Y171.350 E12.60767
G1 X93.006 Y171.007 E12.82432
G1 X86.080 Y169.979 E13.04097
G1 X79.288 Y168.278 E13.25762
G1 X72.695 Y165.919 E13.47428
G1 X66.366 Y162.925 E13.69093
G1 X60.360 Y159.326 E13.90758
G1 X54.736 Y155.155 E14.12423
G1 X49.548 Y150.452 E14.34088
G1 X44.845 Y145.264 E14.55753
G1 X40.674 Y139.640 E14.77418
G1 X37.075 Y133.634 E14.99083
G1 X34.081 Y127.305 E15.20748
G1 X31.722 Y120.712 E15.42414
G1 X31.139 Y118.384 E15.49838
G1 X31.771 Y118.482 E15.51819
G1 X36.164 Y116.035 E15.67376
G1 X34.164 Y100.485 E16.15883
G1 X28.763 Y99.203 E16.33061
G1 X28.193 Y99.131 F7800.000
G1 E14.33061 F2400.00000
G92 E0
G1 X165.184 Y84.645 F7800.000
G1 E2.00000 F2400.00000
G1 X168.462 Y82.819 E2.11611 F1800.000
G1 X169.287 Y82.946 E2.14195
G1 X169.511 Y84.014 E2.17571
G1 X170.026 Y86.071 E2.24131
G1 X170.230 Y87.441 E2.28417
G1 X170.514 Y88.797 E2.32703
G1 X170.743 Y90.904 E2.39263
G1 X171.055 Y93.002 E2.45824
G1 X171.122 Y94.385 E2.50109
G1 X171.272 Y95.762 E2.54395
G1 X171.294 Y97.882 E2.60955
G1 X171.376 Y99.545 E2.66106
G1 X166.965 Y98.498 E2.80133
G1 X165.194 Y84.720 E3.23116
G1 X164.510 Y84.305 F7800.000
G1 X168.345 Y82.168 E3.36700 F1800.000
G1 X169.810 Y82.395 E3.41287
G1 X170.120 Y83.874 E3.45963
G1 X170.640 Y85.949 E3.52581
G1 X170.845 Y87.331 E3.56904
G1 X171.132 Y88.698 E3.61227
G1 X171.363 Y90.825 E3.67845
G1 X171.677 Y92.940 E3.74463
G1 X171.746 Y94.336 E3.78786
G1 X171.897 Y95.725 E3.83109
G1 X171.919 Y97.864 E3.89727
G1 X172.024 Y100.000 E3.96345
G1 X172.007 Y100.337 E3.97389
G1 X166.400 Y99.006 E4.15220
G1 X164.520 Y84.380 E4.60849
G1 E2.60849 F2400.00000
G92 E0
G1 X33.035 Y101.502 F7800.000
G1 E2.00000 F2400.00000
G1 X34.816 Y115.355 E2.43215 F1800.000
G1 X31.538 Y117.181 E2.54826
G1 X30.713 Y117.054 E2.57410
G1 X30.489 Y115.986 E2.60786
G1 X29.974 Y113.929 E2.67346
G1 X29.770 Y112.559 E2.71632
G1 X29.486 Y111.203 E2.75918
G1 X29.257 Y109.096 E2.82478
G1 X28.945 Y106.998 E2.89039
G1 X28.878 Y105.615 E2.93325
G1 X28.728 Y104.238 E2.97610
G1 X28.706 Y102.118 E3.04170
G1 X28.624 Y100.455 E3.09321
G1 X32.962 Y101.485 E3.23116
G1 X33.600 Y100.994 F7800.000
G1 X35.490 Y115.695 E3.68977 F1800.000
G1 X31.655 Y117.832 E3.82561
G1 X30.190 Y117.605 E3.87148
G1 X29.880 Y116.126 E3.91824
G1 X29.360 Y114.051 E3.98442
G1 X29.155 Y112.669 E4.02765
G1 X28.868 Y111.302 E4.07088
G1 X28.637 Y109.175 E4.13706
G1 X28.323 Y107.060 E4.20324
G1 X28.254 Y105.664 E4.24648
G1 X28.103 Y104.275 E4.28971
G1 X28.081 Y102.136 E4.35588
G1 X27.976 Y100.000 E4.42206
G1 X27.993 Y99.663 E4.43250
G1 X33.527 Y100.976 E4.60849
G1 X27.414 Y101.298 F7800.000
G1 X27.350 Y100.000 E4.64869 F1800.000
G1 X27.700 Y92.879 E4.86928
G1 X28.746 Y85.827 E5.08988
G1 X30.479 Y78.911 E5.31048
G1 X32.881 Y72.198 E5.53107
G1 X35.929 Y65.753 E5.75167
G1 X39.594 Y59.638 E5.97226
G1 X43.841 Y53.912 E6.19286
G1 X48.629 Y48.629 E6.41345
G1 X53.912 Y43.841 E6.63405
G1 X59.638 Y39.594 E6.85465
G1 X65.753 Y35.929 E7.07524
G1 X72.198 Y32.881 E7.29584
G1 X78.911 Y30.479 E7.51643
G1 X85.827 Y28.746 E7.73703
G1 X92.879 Y27.700 E7.95762
G1 X100.000 Y27.350 E8.17822
G1 X100.192 Y27.360 E8.18415
G1 X107.121 Y27.700 E8.39882 F1800.000
G1 X114.173 Y28.746 E8.61941
G1 X121.089 Y30.479 E8.84001
G1 X127.802 Y32.881 E9.06060
G1 X134.247 Y35.929 E9.28120
G1 X140.362 Y39.594 E9.50179
G1 X146.088 Y43.841 E9.72239
G1 X151.371 Y48.629 E9.94299
G1 X156.159 Y53.912 E10.16358
G1 X160.406 Y59.638 E10.38418
G1 X164.071 Y65.753 E10.60477
G1 X167.119 Y72.198 E10.82537
G1 X169.521 Y78.911 E11.04596
G1 X170.253 Y81.830 E11.13909
G1 X170.333 Y81.843 E11.14161
G1 X170.729 Y83.734 E11.20139
G1 X171.254 Y85.827 E11.26815
G1 X171.460 Y87.221 E11.31176
G1 X171.750 Y88.600 E11.35536
G1 X171.983 Y90.745 E11.42211
G1 X172.300 Y92.879 E11.48887
G1 X172.369 Y94.287 E11.53248
G1 X172.522 Y95.688 E11.57609
G1 X172.544 Y97.845 E11.64284
G1 X172.650 Y100.000 E11.70959
G1 X172.300 Y107.121 E11.93019
G1 X171.254 Y114.173 E12.15079
G1 X169.521 Y121.089 E12.37138
G1 X167.119 Y127.802 E12.59198
G1 X164.071 Y134.247 E12.81257
G1 X160.406 Y140.362 E13.03317
G1 X156.159 Y146.088 E13.25376
G1 X151.371 Y151.371 E13.47436
G1 X146.088 Y156.159 E13.69496
G1 X140.362 Y160.406 E13.91555
G1 X134.247 Y164.071 E14.13615
G1 X127.802 Y167.119 E14.35674
G1 X121.089 Y169.521 E14.57734
G1 X114.173 Y171.254 E14.79793
G1 X107.121 Y172.300 E15.01853
G1 X100.000 Y172.650 E15.23913
G1 X92.879 Y172.300 E15.45972
G1 X85.827 Y171.254 E15.68032
G1 X78.911 Y169.521 E15.90091
G1 X72.198 Y167.119 E16.12151
G1 X65.753 Y164.071 E16.34211
G1 X59.638 Y160.406 E16.56270
G1 X53.912 Y156.159 E16.78330
G1 X48.629 Y151.371 E17.00389
G1 X43.841 Y146.088 E17.22449
G1 X39.594 Y140.362 E17.44509
G1 X35.929 Y134.247 E17.66568
G1 X32.881 Y127.802 E17.88628
G1 X30.479 Y121.089 E18.10687
G1 X29.747 Y118.170 E18.19999
G1 X29.667 Y118.157 E18.20251
G1 X29.271 Y116.266 E18.26230
G1 X28.746 Y114.173 E18.32905
G1 X28.540 Y112.779 E18.37266
G1 X28.250 Y111.400 E18.41627
G1 X28.017 Y109.255 E18.48302
G1 X27.700 Y107.121 E18.54978
G1 X27.631 Y105.713 E18.59339
G1 X27.479 Y104.312 E18.63699
G1 X27.456 Y102.155 E18.70374
G1 X27.418 Y101.372 E18.72798
G1 X27.834 Y101.027 F7800.000
G1 X28.032 Y99.351 F7800.000
G1 X28.347 Y92.943 E19.14889 F1800.000
G1 X29.384 Y85.954 E19.61242
G1 X31.100 Y79.100 E20.07594
G1 X33.481 Y72.447 E20.53946
G1 X36.502 Y66.059 E21.00299
G1 X40.134 Y59.999 E21.46651
G1 X44.343 Y54.324 E21.93003
G1 X49.077 Y49.101 E22.39247
G1 X54.324 Y44.343 E22.85707
G1 X59.986 Y40.144 E23.31951
G1 X66.074 Y36.495 E23.78519
G1 X72.447 Y33.481 E24.24763
G1 X79.100 Y31.100 E24.71115
G1 X85.954 Y29.384 E25.17468
G1 X92.943 Y28.347 E25.63820
G1 X100.000 Y28.000 E26.10173
G1 X107.041 Y28.346 E26.56417
G1 X114.063 Y29.387 E27.02985
G1 X120.900 Y31.101 E27.49229
G1 X127.553 Y33.481 E27.95581
G1 X133.941 Y36.502 E28.41934
G1 X140.001 Y40.134 E28.88285
G1 X145.676 Y44.343 E29.34638
G1 X150.912 Y49.088 E29.80990
G1 X155.657 Y54.324 E30.27343
G1 X159.866 Y59.999 E30.73695
G1 X163.498 Y66.059 E31.20047
G1 X166.519 Y72.447 E31.66399
G1 X168.900 Y79.100 E32.12751
G1 X169.639 Y82.052 E32.32721
G1 X169.001 Y83.574 F7800.000
G1 X168.686 Y83.259 E32.34111 F1800.000
G1 X167.994 Y83.458 E32.36360
G1 X169.262 Y84.726 E32.41956
G1 X169.560 Y85.915 E32.45784
G1 X167.422 Y83.777 E32.55223
G1 X166.849 Y84.096 E32.57269
G1 X169.762 Y87.009 E32.70127
G1 X169.947 Y88.086 E32.73540
G1 X166.277 Y84.415 E32.89746
G1 X165.704 Y84.734 E32.91792
G1 X170.161 Y89.191 E33.11467
G1 X170.270 Y90.192 E33.14610
G1 X165.711 Y85.633 E33.34737
G1 X165.842 Y86.656 E33.37957
G1 X170.383 Y91.196 E33.58003
G1 X170.538 Y92.243 E33.61307
G1 X165.974 Y87.679 E33.81458
G1 X166.105 Y88.702 E33.84678
G1 X170.682 Y93.279 E34.04885
G1 X170.728 Y94.217 E34.07816
G1 X166.237 Y89.725 E34.27646
G1 X166.368 Y90.748 E34.30866
G1 X170.815 Y95.194 E34.50495
G1 X170.897 Y96.168 E34.53545
G1 X166.500 Y91.771 E34.72955
G1 X166.632 Y92.795 E34.76176
G1 X170.906 Y97.069 E34.95046
G1 X170.915 Y97.970 E34.97859
G1 X166.763 Y93.818 E35.16189
G1 X166.895 Y94.841 E35.19410
G1 X170.959 Y98.905 E35.37352
G1 X169.943 Y98.780 E35.40549
G1 X167.026 Y95.864 E35.53424
G1 X167.158 Y96.887 E35.56644
G1 X168.773 Y98.503 E35.63777
G1 X167.604 Y98.226 E35.67528
G1 X167.289 Y97.910 E35.68920
G1 X171.968 Y100.649 F7800.000
G1 X171.653 Y107.057 E36.11011 F1800.000
G1 X170.616 Y114.046 E36.57363
G1 X168.899 Y120.900 E37.03716
G1 X166.519 Y127.553 E37.50068
G1 X163.498 Y133.941 E37.96420
G1 X159.866 Y140.001 E38.42772
G1 X155.657 Y145.676 E38.89124
G1 X150.923 Y150.899 E39.35369
G1 X145.676 Y155.657 E39.81829
G1 X140.014 Y159.856 E40.28073
G1 X133.926 Y163.505 E40.74641
G1 X127.553 Y166.519 E41.20885
G1 X120.900 Y168.899 E41.67237
G1 X114.046 Y170.616 E42.13589
G1 X107.057 Y171.653 E42.59942
G1 X100.000 Y172.000 E43.06294
G1 X92.959 Y171.654 E43.52538
G1 X85.937 Y170.613 E43.99106
G1 X79.100 Y168.899 E44.45350
G1 X72.447 Y166.519 E44.91703
G1 X66.059 Y163.498 E45.38055
G1 X59.999 Y159.866 E45.84407
G1 X54.324 Y155.657 E46.30759
G1 X49.088 Y150.912 E46.77112
G1 X44.343 Y145.676 E47.23464
G1 X40.134 Y140.001 E47.69817
G1 X36.502 Y133.941 E48.16168
G1 X33.481 Y127.553 E48.62521
G1 X31.100 Y120.900 E49.08873
G1 X30.361 Y117.948 E49.28842
G1 X30.999 Y116.426 F7800.000
G1 X31.314 Y116.741 E49.30232 F1800.000
G1 X32.006 Y116.542 E49.32481
G1 X30.738 Y115.274 E49.38077
G1 X30.440 Y114.085 E49.41905
G1 X32.578 Y116.223 E49.51345
G1 X33.151 Y115.904 E49.53391
G1 X30.238 Y112.991 E49.66249
G1 X30.053 Y111.914 E49.69661
G1 X33.723 Y115.585 E49.85867
G1 X34.296 Y115.266 E49.87913
G1 X29.839 Y110.809 E50.07589
G1 X29.730 Y109.808 E50.10731
G1 X34.289 Y114.368 E50.30858
G1 X34.158 Y113.344 E50.34078
G1 X29.617 Y108.804 E50.54124
G1 X29.462 Y107.757 E50.57428
G1 X34.026 Y112.321 E50.77579
G1 X33.895 Y111.298 E50.80799
G1 X29.318 Y106.721 E51.01006
G1 X29.271 Y105.783 E51.03937
G1 X33.763 Y110.275 E51.23767
G1 X33.632 Y109.252 E51.26987
G1 X29.185 Y104.806 E51.46616
G1 X29.103 Y103.832 E51.49666
G1 X33.500 Y108.229 E51.69077
G1 X33.368 Y107.205 E51.72297
G1 X29.094 Y102.931 E51.91168
G1 X29.085 Y102.030 E51.93980
G1 X33.237 Y106.182 E52.12311
G1 X33.105 Y105.159 E52.15531
G1 X29.041 Y101.095 E52.33474
G1 X30.057 Y101.220 E52.36670
G1 X32.974 Y104.136 E52.49545
G1 X32.842 Y103.113 E52.52765
G1 X31.226 Y101.497 E52.59899
G1 X32.396 Y101.774 E52.63650
G1 X32.711 Y102.090 E52.65041
G1 Z0.650 F7800.000
G1 X28.227 Y99.534 F7800.000
G1 X28.550 Y92.963 E52.83316 F3600.000
G1 X29.583 Y85.993 E53.02887
G1 X31.295 Y79.159 E53.22459
G1 X33.669 Y72.525 E53.42030
G1 X36.682 Y66.156 E53.61602
G1 X40.304 Y60.112 E53.81173
G1 X44.501 Y54.453 E54.00745
G1 X49.233 Y49.233 E54.20316
G1 X54.453 Y44.501 E54.39888
G1 X60.112 Y40.304 E54.59459
G1 X66.156 Y36.682 E54.79031
G1 X72.525 Y33.669 E54.98602
G1 X79.159 Y31.295 E55.18174
G1 X85.993 Y29.583 E55.37745
G1 X92.963 Y28.550 E55.57316
G1 X100.000 Y28.204 E55.76888
G1 X107.037 Y28.550 E55.96459
G1 X114.007 Y29.583 E56.16031
G1 X120.841 Y31.295 E56.35602
G1 X127.475 Y33.669 E56.55174
G1 X133.844 Y36.682 E56.74745
G1 X139.888 Y40.304 E56.94317
