; generated by Slic3r 1.2.9 on 2015-08-04 at 18:16:54

; external perimeters extrusion width = 0.50mm
; perimeters extrusion width = 0.72mm
; infill extrusion width = 0.72mm
; solid infill extrusion width = 0.72mm
; top infill extrusion width = 0.72mm

M107
M104 S200 ; set temperature
G28 ; home all axes
G1 Z5 F5000 ; lift nozzle

M109 S200 ; wait for temperature to be reached
G21 ; set units to millimeters
G90 ; use absolute coordinates
M82 ; use absolute distances for extrusion
G92 E0
G1 Z0.350 F7800.000
G1 E-2.00000 F2400.00000
G92 E0
G1 X21.578 Y58.635 F7800.000
G1 E2.00000 F2400.00000
G1 X22.727 Y58.431 E2.03609 F1800.000
G1 X26.711 Y58.083 E2.15984
G1 X27.288 Y58.058 E2.17771
G1 X172.711 Y58.060 E6.67729
G1 X173.288 Y58.085 E6.69516 F1800.000
G1 X177.273 Y58.433 E6.81893
G1 X179.489 Y59.026 E6.88989
G1 X181.370 Y60.338 E6.96086
G1 X182.690 Y62.213 E7.03182
G1 X183.293 Y64.426 E7.10278
G1 X183.279 Y65.772 E7.14444
G1 X182.857 Y69.528 E7.26138
G1 X182.208 Y73.581 E7.38838
G1 X181.284 Y77.913 E7.52543
G1 X180.225 Y81.878 E7.65242
G1 X179.079 Y85.480 E7.76936
G1 X177.651 Y89.328 E7.89636
G1 X175.900 Y93.396 E8.03341
G1 X174.238 Y96.791 E8.15035
G1 X172.261 Y100.387 E8.27734
G1 X170.110 Y103.883 E8.40434
G1 X167.599 Y107.532 E8.54140
G1 X165.306 Y110.537 E8.65834
G1 X162.666 Y113.679 E8.78533
G1 X159.874 Y116.688 E8.91233
G1 X156.938 Y119.556 E9.03933
G1 X153.865 Y122.276 E9.16632
G1 X150.403 Y125.039 E9.30337
G1 X147.069 Y127.433 E9.43037
G1 X143.621 Y129.660 E9.55737
G1 X140.353 Y131.558 E9.67431
G1 X136.711 Y133.451 E9.80130
G1 X132.980 Y135.162 E9.92829
G1 X129.170 Y136.688 E10.05530
G1 X125.290 Y138.026 E10.18229
G1 X121.348 Y139.171 E10.30929
G1 X117.355 Y140.122 E10.43629
G1 X113.321 Y140.875 E10.56328
G1 X108.931 Y141.466 E10.70033
G1 X104.840 Y141.804 E10.82733
G1 X100.738 Y141.942 E10.95432
G1 X96.634 Y141.878 E11.08132
G1 X92.538 Y141.613 E11.20832
G1 X88.461 Y141.147 E11.33531
G1 X84.410 Y140.481 E11.46231
G1 X80.398 Y139.618 E11.58931
G1 X76.432 Y138.559 E11.71630
G1 X72.524 Y137.306 E11.84330
G1 X68.681 Y135.863 E11.97030
G1 X64.914 Y134.234 E12.09729
G1 X61.232 Y132.421 E12.22428
G1 X57.642 Y130.430 E12.35128
G1 X54.155 Y128.266 E12.47828
G1 X50.779 Y125.933 E12.60528
G1 X47.520 Y123.436 E12.73227
G1 X44.632 Y120.999 E12.84921
G1 X41.623 Y118.208 E12.97621
G1 X38.755 Y115.272 E13.10321
G1 X36.034 Y112.198 E13.23021
G1 X33.468 Y108.995 E13.35720
G1 X30.878 Y105.402 E13.49425
G1 X28.651 Y101.954 E13.62125
G1 X26.752 Y98.686 E13.73819
G1 X24.860 Y95.044 E13.86518
G1 X23.149 Y91.314 E13.99217
G1 X21.622 Y87.503 E14.11918
G1 X20.187 Y83.313 E14.25623
G1 X19.057 Y79.367 E14.38323
G1 X18.122 Y75.371 E14.51022
G1 X17.384 Y71.333 E14.63722
G1 X16.880 Y67.587 E14.75416
G1 X16.703 Y65.591 E14.81618
G1 X16.908 Y63.306 E14.88714
G1 X17.879 Y61.229 E14.95811
G1 X19.501 Y59.607 E15.02907
G1 X21.510 Y58.667 E15.09771
G1 E13.09771 F2400.00000
G92 E0
G1 X53.473 Y116.637 F7800.000
G1 E2.00000 F2400.00000
G1 X56.205 Y118.723 E2.10636 F1800.000
G1 X59.222 Y120.798 E2.21966
G1 X62.337 Y122.723 E2.33295
G1 X65.542 Y124.493 E2.44625
G1 X68.830 Y126.104 E2.55953
G1 X72.194 Y127.551 E2.67283
G1 X75.624 Y128.831 E2.78612
G1 X79.113 Y129.942 E2.89942
G1 X82.653 Y130.880 E3.01271
G1 X86.234 Y131.643 E3.12600
G1 X89.848 Y132.230 E3.23930
G1 X93.487 Y132.638 E3.35259
G1 X97.141 Y132.868 E3.46588
G1 X100.802 Y132.918 E3.57918
G1 X104.462 Y132.788 E3.69247
G1 X108.110 Y132.479 E3.80577
G1 X111.739 Y131.991 E3.91906
G1 X115.340 Y131.326 E4.03235
G1 X118.903 Y130.485 E4.14565
G1 X122.421 Y129.470 E4.25894
G1 X125.885 Y128.283 E4.37223
G1 X129.287 Y126.928 E4.48553
G1 X132.618 Y125.408 E4.59882
G1 X135.870 Y123.726 E4.71211
G1 X139.037 Y121.887 E4.82541
G1 X142.108 Y119.894 E4.93870
G1 X146.554 Y116.690 E5.10827
G1 X143.944 Y113.939 E5.22561
G1 X147.426 Y110.635 E5.37413
G1 X150.182 Y113.539 E5.49802
G1 X153.311 Y110.494 E5.63312
G1 X155.807 Y107.815 E5.74641
G1 X158.168 Y105.016 E5.85970
G1 X160.389 Y102.105 E5.97300
G1 X162.465 Y99.088 E6.08630
G1 X164.390 Y95.974 E6.19958
G1 X166.160 Y92.768 E6.31289
G1 X167.770 Y89.480 E6.42617
G1 X169.218 Y86.117 E6.53946
G1 X170.498 Y82.686 E6.65276
G1 X171.609 Y79.197 E6.76605
G1 X172.547 Y75.658 E6.87934
G1 X173.310 Y72.077 E6.99264
G1 X173.896 Y68.463 E7.10593
G1 X174.126 Y66.414 E7.16971
G1 X174.923 Y66.484 E7.19445
G1 X174.688 Y68.571 E7.25944
G1 X174.096 Y72.224 E7.37395
G1 X173.324 Y75.844 E7.48846
G1 X172.376 Y79.421 E7.60297
G1 X171.254 Y82.948 E7.71747
G1 X170.017 Y86.261 E7.82692
G1 X168.496 Y89.816 E7.94653
G1 X166.869 Y93.138 E8.06099
G1 X165.080 Y96.377 E8.17550
G1 X163.134 Y99.526 E8.29001
G1 X161.037 Y102.574 E8.40451
G1 X158.792 Y105.517 E8.51902
G1 X156.405 Y108.345 E8.63353
G1 X153.883 Y111.053 E8.74804
G1 X151.230 Y113.634 E8.86255
G1 X148.455 Y116.082 E8.97705
G1 X145.562 Y118.390 E9.09156
G1 X142.560 Y120.554 E9.20607
G1 X139.455 Y122.568 E9.32058
G1 X136.255 Y124.427 E9.43508
G1 X132.968 Y126.127 E9.54959
G1 X129.601 Y127.663 E9.66410
G1 X126.163 Y129.033 E9.77861
G1 X122.662 Y130.232 E9.89312
G1 X119.106 Y131.258 E10.00762
G1 X115.504 Y132.108 E10.12213
G1 X111.865 Y132.781 E10.23664
G1 X108.197 Y133.274 E10.35115
G1 X104.510 Y133.586 E10.46565
G1 X100.811 Y133.717 E10.58016
G1 X97.111 Y133.667 E10.69467
G1 X93.417 Y133.435 E10.80918
G1 X89.739 Y133.022 E10.92368
G1 X86.086 Y132.429 E11.03819
G1 X82.467 Y131.658 E11.15270
G1 X78.890 Y130.710 E11.26721
G1 X75.363 Y129.587 E11.38171
G1 X71.896 Y128.293 E11.49622
G1 X68.496 Y126.830 E11.61073
G1 X65.173 Y125.202 E11.72524
G1 X61.933 Y123.414 E11.83975
G1 X58.785 Y121.468 E11.95425
G1 X55.736 Y119.370 E12.06876
G1 X52.794 Y117.125 E12.18327
G1 X49.966 Y114.739 E12.29778
G1 X47.258 Y112.216 E12.41229
G1 X44.677 Y109.564 E12.52679
G1 X42.229 Y106.788 E12.64130
G1 X39.921 Y103.896 E12.75581
G1 X37.757 Y100.893 E12.87032
G1 X35.743 Y97.788 E12.98482
G1 X33.884 Y94.588 E13.09933
G1 X32.184 Y91.301 E13.21384
G1 X30.647 Y87.934 E13.32835
G1 X29.278 Y84.496 E13.44285
G1 X28.079 Y80.995 E13.55736
G1 X27.053 Y77.439 E13.67187
G1 X26.203 Y73.838 E13.78638
G1 X25.530 Y70.198 E13.90089
G1 X25.031 Y66.486 E14.01679
G1 X25.828 Y66.416 E14.04154
G1 X26.320 Y70.073 E14.15570
G1 X26.985 Y73.673 E14.26899
G1 X27.826 Y77.237 E14.38228
G1 X28.841 Y80.755 E14.49557
G1 X30.027 Y84.219 E14.60887
G1 X31.382 Y87.620 E14.72216
G1 X32.903 Y90.951 E14.83545
G1 X34.585 Y94.204 E14.94875
G1 X36.424 Y97.370 E15.06205
G1 X38.417 Y100.442 E15.17534
G1 X40.557 Y103.412 E15.28863
G1 X42.841 Y106.274 E15.40192
G1 X45.263 Y109.020 E15.51522
G1 X47.817 Y111.645 E15.62851
G1 X49.821 Y113.512 E15.71326
G1 X52.551 Y110.635 E15.83598
G1 X56.033 Y113.939 E15.98451
G1 X53.524 Y116.583 E16.09729
G1 X54.405 Y116.563 F7800.000
G1 X56.572 Y118.217 E16.18164 F1800.000
G1 X59.564 Y120.275 E16.29400
G1 X62.652 Y122.184 E16.40633
G1 X65.831 Y123.939 E16.51868
G1 X69.091 Y125.536 E16.63102
G1 X72.427 Y126.971 E16.74337
G1 X75.828 Y128.241 E16.85571
G1 X79.288 Y129.342 E16.96806
G1 X82.798 Y130.272 E17.08040
G1 X86.349 Y131.029 E17.19274
G1 X89.933 Y131.611 E17.30509
G1 X93.541 Y132.016 E17.41743
G1 X97.165 Y132.243 E17.52978
G1 X100.796 Y132.293 E17.64212
G1 X104.424 Y132.164 E17.75447
G1 X108.042 Y131.858 E17.86681
G1 X111.641 Y131.374 E17.97916
G1 X115.211 Y130.714 E18.09150
G1 X118.745 Y129.880 E18.20384
G1 X122.233 Y128.873 E18.31618
G1 X125.668 Y127.697 E18.42853
G1 X129.041 Y126.353 E18.54088
G1 X132.345 Y124.846 E18.65322
G1 X135.570 Y123.178 E18.76556
G1 X138.709 Y121.354 E18.87791
G1 X141.756 Y119.378 E18.99026
G1 X145.609 Y116.601 E19.13721
G1 X143.060 Y113.916 E19.25175
G1 X147.449 Y109.751 E19.43895
G1 X150.200 Y112.650 E19.56259
G1 X152.865 Y110.057 E19.67764
G1 X155.339 Y107.400 E19.78999
G1 X157.681 Y104.625 E19.90233
G1 X159.883 Y101.738 E20.01467
G1 X161.942 Y98.747 E20.12702
G1 X163.850 Y95.659 E20.23936
G1 X165.605 Y92.480 E20.35171
G1 X167.202 Y89.219 E20.46405
G1 X168.637 Y85.884 E20.57639
G1 X169.907 Y82.482 E20.68874
G1 X171.008 Y79.022 E20.80108
G1 X171.939 Y75.513 E20.91342
G1 X172.695 Y71.962 E21.02577
G1 X173.277 Y68.378 E21.13811
G1 X173.573 Y65.739 E21.22028
G1 X175.615 Y65.917 E21.28370
G1 X175.308 Y68.656 E21.36899
G1 X174.710 Y72.340 E21.48444
G1 X173.932 Y75.989 E21.59990
G1 X172.976 Y79.596 E21.71536
G1 X171.844 Y83.152 E21.83081
G1 X170.597 Y86.494 E21.94119
G1 X169.064 Y90.076 E22.06175
G1 X167.423 Y93.426 E22.17718
G1 X165.620 Y96.693 E22.29264
G1 X163.658 Y99.867 E22.40809
G1 X161.543 Y102.941 E22.52355
G1 X159.279 Y105.908 E22.63901
G1 X156.873 Y108.760 E22.75446
G1 X154.329 Y111.490 E22.86992
G1 X151.655 Y114.092 E22.98538
G1 X148.856 Y116.560 E23.10084
G1 X145.940 Y118.888 E23.21629
G1 X142.913 Y121.070 E23.33175
G1 X139.782 Y123.101 E23.44721
G1 X136.556 Y124.975 E23.56266
G1 X133.241 Y126.689 E23.67812
G1 X129.847 Y128.238 E23.79358
G1 X126.380 Y129.619 E23.90904
G1 X122.850 Y130.828 E24.02449
G1 X119.264 Y131.863 E24.13995
G1 X115.633 Y132.720 E24.25541
G1 X111.963 Y133.398 E24.37086
G1 X108.265 Y133.895 E24.48632
G1 X104.547 Y134.210 E24.60178
G1 X100.818 Y134.342 E24.71723
G1 X97.087 Y134.291 E24.83269
G1 X93.363 Y134.058 E24.94815
G1 X89.654 Y133.641 E25.06360
G1 X85.971 Y133.043 E25.17906
G1 X82.322 Y132.266 E25.29452
G1 X78.715 Y131.310 E25.40998
G1 X75.159 Y130.178 E25.52543
G1 X71.663 Y128.873 E25.64089
G1 X68.235 Y127.398 E25.75635
G1 X64.884 Y125.757 E25.87180
G1 X61.618 Y123.953 E25.98726
G1 X58.444 Y121.991 E26.10272
G1 X55.369 Y119.876 E26.21818
G1 X52.403 Y117.613 E26.33363
G1 X49.551 Y115.206 E26.44909
G1 X46.820 Y112.663 E26.56455
G1 X44.218 Y109.989 E26.68000
G1 X41.750 Y107.190 E26.79546
G1 X39.423 Y104.273 E26.91092
G1 X37.241 Y101.246 E27.02638
G1 X35.210 Y98.116 E27.14183
G1 X33.336 Y94.889 E27.25729
G1 X31.622 Y91.575 E27.37275
G1 X30.072 Y88.180 E27.48820
G1 X28.692 Y84.713 E27.60366
G1 X27.482 Y81.183 E27.71912
G1 X26.448 Y77.598 E27.83457
G1 X25.591 Y73.966 E27.95003
G1 X24.913 Y70.297 E28.06549
G1 X24.416 Y66.599 E28.18095
G1 X24.358 Y65.917 E28.20210
G1 X26.399 Y65.739 E28.26550
G1 X26.453 Y66.376 E28.28526
G1 X26.937 Y69.974 E28.39761
G1 X27.597 Y73.544 E28.50995
G1 X28.431 Y77.078 E28.62230
G1 X29.437 Y80.567 E28.73464
G1 X30.614 Y84.002 E28.84698
G1 X31.957 Y87.375 E28.95933
G1 X33.465 Y90.678 E29.07167
G1 X35.133 Y93.903 E29.18402
G1 X36.957 Y97.043 E29.29637
G1 X38.932 Y100.089 E29.40871
G1 X41.055 Y103.034 E29.52105
G1 X43.320 Y105.872 E29.63339
G1 X45.722 Y108.596 E29.74574
G1 X48.254 Y111.198 E29.85809
G1 X49.794 Y112.632 E29.92320
G1 X52.528 Y109.751 E30.04610
G1 X56.917 Y113.916 E30.23330
G1 X54.457 Y116.508 E30.34389
G1 X55.337 Y116.488 F7800.000
G1 X56.939 Y117.711 E30.40624 F1800.000
G1 X59.905 Y119.751 E30.51764
G1 X62.968 Y121.644 E30.62903
G1 X66.119 Y123.384 E30.74043
G1 X69.353 Y124.968 E30.85181
G1 X72.660 Y126.391 E30.96321
G1 X76.033 Y127.650 E31.07461
G1 X79.463 Y128.742 E31.18600
G1 X82.943 Y129.664 E31.29740
G1 X86.464 Y130.415 E31.40879
G1 X90.018 Y130.991 E31.52019
G1 X93.596 Y131.393 E31.63158
G1 X97.189 Y131.619 E31.74298
G1 X100.789 Y131.668 E31.85437
G1 X104.387 Y131.540 E31.96577
G1 X107.974 Y131.236 E32.07716
G1 X111.542 Y130.756 E32.18856
G1 X115.082 Y130.102 E32.29995
G1 X118.586 Y129.275 E32.41135
G1 X122.045 Y128.277 E32.52274
G1 X125.451 Y127.111 E32.63414
G1 X128.796 Y125.779 E32.74553
G1 X132.071 Y124.284 E32.85692
G1 X135.269 Y122.630 E32.96832
G1 X138.382 Y120.821 E33.07972
G1 X141.403 Y118.862 E33.19111
G1 X144.663 Y116.512 E33.31546
G1 X142.177 Y113.893 E33.42721
G1 X147.472 Y108.868 E33.65308
G1 X150.217 Y111.761 E33.77648
G1 X152.418 Y109.620 E33.87147
G1 X154.872 Y106.985 E33.98287
G1 X157.193 Y104.234 E34.09426
G1 X159.377 Y101.371 E34.20565
G1 X161.418 Y98.405 E34.31706
G1 X163.311 Y95.343 E34.42844
G1 X165.051 Y92.191 E34.53985
G1 X166.634 Y88.958 E34.65123
G1 X168.057 Y85.651 E34.76263
G1 X169.316 Y82.278 E34.87402
G1 X170.408 Y78.848 E34.98542
G1 X171.331 Y75.368 E35.09681
G1 X172.081 Y71.846 E35.20821
G1 X172.658 Y68.293 E35.31960
G1 X173.021 Y65.063 E35.42016
G1 X176.308 Y65.350 E35.52227
G1 X175.927 Y68.741 E35.62784
G1 X175.324 Y72.455 E35.74425
G1 X174.540 Y76.134 E35.86065
G1 X173.576 Y79.771 E35.97706
G1 X172.435 Y83.356 E36.09346
G1 X171.177 Y86.726 E36.20477
G1 X169.632 Y90.337 E36.32628
G1 X167.978 Y93.715 E36.44268
G1 X166.159 Y97.008 E36.55908
G1 X164.181 Y100.209 E36.67549
G1 X162.049 Y103.308 E36.79190
G1 X159.767 Y106.299 E36.90830
G1 X157.341 Y109.174 E37.02471
G1 X154.776 Y111.927 E37.14112
G1 X152.080 Y114.551 E37.25752
G1 X149.258 Y117.039 E37.37393
G1 X146.318 Y119.386 E37.49033
G1 X143.266 Y121.586 E37.60674
G1 X140.109 Y123.633 E37.72315
G1 X136.856 Y125.523 E37.83955
G1 X133.515 Y127.251 E37.95596
G1 X130.092 Y128.813 E38.07236
G1 X126.597 Y130.205 E38.18877
G1 X123.038 Y131.424 E38.30518
G1 X119.423 Y132.467 E38.42158
G1 X115.761 Y133.332 E38.53799
G1 X112.062 Y134.015 E38.65440
G1 X108.333 Y134.516 E38.77080
G1 X104.584 Y134.834 E38.88721
G1 X100.825 Y134.967 E39.00362
G1 X97.063 Y134.916 E39.12002
G1 X93.308 Y134.680 E39.23643
G1 X89.569 Y134.260 E39.35283
G1 X85.856 Y133.658 E39.46924
G1 X82.176 Y132.874 E39.58565
G1 X78.540 Y131.910 E39.70205
G1 X74.955 Y130.769 E39.81846
G1 X71.430 Y129.453 E39.93487
G1 X67.974 Y127.966 E40.05127
G1 X64.596 Y126.311 E40.16768
G1 X61.302 Y124.493 E40.28408
G1 X58.102 Y122.515 E40.40049
G1 X55.003 Y120.382 E40.51690
G1 X52.012 Y118.100 E40.63330
G1 X49.136 Y115.674 E40.74971
G1 X46.383 Y113.110 E40.86612
G1 X43.760 Y110.413 E40.98252
G1 X41.271 Y107.592 E41.09893
G1 X38.925 Y104.651 E41.21534
G1 X36.725 Y101.599 E41.33174
G1 X34.678 Y98.443 E41.44815
G1 X32.788 Y95.190 E41.56455
G1 X31.060 Y91.848 E41.68096
G1 X29.497 Y88.425 E41.79737
G1 X28.105 Y84.930 E41.91377
G1 X26.886 Y81.371 E42.03018
G1 X25.843 Y77.756 E42.14659
G1 X24.979 Y74.095 E42.26299
G1 X24.296 Y70.395 E42.37940
G1 X23.794 Y66.667 E42.49581
G1 X23.683 Y65.349 E42.53671
G1 X26.969 Y65.062 E42.63878
G1 X27.074 Y66.307 E42.67746
G1 X27.554 Y69.876 E42.78886
G1 X28.208 Y73.416 E42.90025
G1 X29.035 Y76.920 E43.01165
G1 X30.033 Y80.379 E43.12304
G1 X31.200 Y83.785 E43.23444
G1 X32.532 Y87.129 E43.34583
G1 X34.027 Y90.405 E43.45723
G1 X35.681 Y93.603 E43.56862
G1 X37.489 Y96.716 E43.68002
G1 X39.448 Y99.736 E43.79142
G1 X41.553 Y102.657 E43.90281
G1 X43.799 Y105.471 E44.01420
G1 X46.180 Y108.171 E44.12560
G1 X48.691 Y110.751 E44.23700
G1 X49.767 Y111.753 E44.28248
G1 X52.505 Y108.868 E44.40556
G1 X57.800 Y113.893 E44.63143
G1 X55.389 Y116.434 E44.73982
G1 X55.020 Y116.875 F7800.000
G1 E42.73982 F2400.00000
G92 E0
G1 X69.313 Y101.761 F7800.000
G1 E2.00000 F2400.00000
G1 X66.141 Y98.751 E2.13529 F1800.000
G1 X66.106 Y98.563 E2.14121
G1 X66.127 Y97.758 E2.16614
G1 X66.315 Y96.975 E2.19105
G1 X66.662 Y96.248 E2.21597
G1 X67.152 Y95.609 E2.24088
G1 X67.765 Y95.086 E2.26580
G1 X68.472 Y94.702 E2.29071
G1 X69.244 Y94.473 E2.31563
G1 X69.922 Y94.420 E2.33665
G1 X70.215 Y94.415 E2.34574 F1800.000
G1 X73.752 Y97.770 E2.49658
G1 X73.786 Y97.959 E2.50251
G1 X73.765 Y98.763 E2.52741
G1 X73.577 Y99.546 E2.55233
G1 X73.231 Y100.273 E2.57725
G1 X72.740 Y100.912 E2.60216
G1 X72.128 Y101.435 E2.62708
G1 X71.420 Y101.819 E2.65200
G1 X70.648 Y102.048 E2.67691
G1 X69.845 Y102.111 E2.70184
G1 X69.656 Y102.086 E2.70776
G1 X69.368 Y101.813 E2.72005
G1 X68.834 Y101.903 F7800.000
G1 E0.72005 F2400.00000
G92 E0
G1 X74.473 Y100.572 F7800.000
G1 E2.00000 F2400.00000
G1 X74.810 Y99.865 E2.02423 F1800.000
G1 X75.128 Y99.978 E2.03468
G1 X75.040 Y100.346 E2.04639
G1 X74.947 Y100.517 E2.05243
G1 X74.850 Y100.639 E2.05725
G1 X74.718 Y100.756 E2.06271
G1 X74.533 Y100.617 E2.06987
G1 X73.033 Y101.861 F7800.000
G1 X72.900 Y101.598 E2.07899 F1800.000
G1 X73.196 Y101.345 E2.09107
G1 X73.766 Y100.601 E2.12005
G1 X74.170 Y99.756 E2.14903
G1 X74.388 Y98.845 E2.17801
G1 X74.407 Y98.117 E2.20056
G1 X75.220 Y98.888 E2.23524
G1 X75.425 Y99.119 E2.24477
G1 X75.572 Y99.360 E2.25351
G1 X75.656 Y99.571 E2.26053
G1 X75.713 Y99.851 E2.26940
G1 X75.711 Y100.228 E2.28104
G1 X75.639 Y100.527 E2.29058
G1 X75.470 Y100.863 E2.30222
G1 X75.305 Y101.071 E2.31042
