; generated by Slic3r 1.2.9 on 2015-08-04 at 18:16:55

; external perimeters extrusion width = 0.50mm
; perimeters extrusion width = 0.72mm
; infill extrusion width = 0.72mm
; solid infill extrusion width = 0.72mm
; top infill extrusion width = 0.72mm

M107
M104 S200 ; set temperature
G28 ; home all axes
G1 Z5 F5000 ; lift nozzle

M109 S200 ; wait for temperature to be reached
G21 ; set units to millimeters
G90 ; use absolute coordinates
M82 ; use absolute distances for extrusion
G92 E0
G1 Z0.350 F7800.000
G1 E-2.00000 F2400.00000
G92 E0
G1 X63.058 Y87.510 F7800.000
G1 E2.00000 F2400.00000
G1 X63.897 Y86.945 E2.03131 F1800.000
G1 X64.786 Y86.454 E2.06272
G1 X65.713 Y86.043 E2.09410
G1 X66.671 Y85.715 E2.12544
G1 X90.136 Y79.266 E2.87839
G1 X91.631 Y78.913 E2.92591
G1 X92.937 Y78.650 E2.96714
G1 X94.242 Y78.429 E3.00810
G1 X95.548 Y78.253 E3.04889
G1 X96.854 Y78.121 E3.08947
G1 X98.159 Y78.034 E3.12995
G1 X99.464 Y77.992 E3.17034
G1 X100.768 Y77.996 E3.21069
G1 X102.071 Y78.046 E3.25104 F1800.000
G1 X103.147 Y78.121 E3.28441
G1 X104.451 Y78.253 E3.32499
G1 X105.758 Y78.429 E3.36578
G1 X107.269 Y78.689 E3.41322
G1 X108.566 Y78.957 E3.45421
G1 X109.864 Y79.266 E3.49549
G1 X133.329 Y85.715 E4.24844
G1 X134.287 Y86.043 E4.27977
G1 X135.214 Y86.454 E4.31116
G1 X136.103 Y86.945 E4.34257
G1 X136.471 Y87.180 E4.35607
G1 X137.288 Y87.776 E4.38738
G1 X137.732 Y88.148 E4.40529
G1 X138.216 Y88.596 E4.42571
G1 X152.135 Y102.244 E5.02887
G1 X155.055 Y105.316 E5.16001
G1 X156.322 Y107.228 E5.23098
G1 X156.862 Y109.457 E5.30194
G1 X156.608 Y111.736 E5.37290
G1 X155.593 Y113.793 E5.44386
G1 X154.810 Y114.682 E5.48051
G1 X149.007 Y120.189 E5.72804
G1 X147.095 Y121.455 E5.79901
G1 X144.447 Y122.008 E5.88272
G1 X55.553 Y122.008 E8.63321
G1 X53.294 Y121.611 E8.70417
G1 X50.993 Y120.189 E8.78789
G1 X45.190 Y114.682 E9.03542
G1 X43.825 Y112.839 E9.10638
G1 X43.169 Y110.641 E9.17734
G1 X43.303 Y108.351 E9.24830
G1 X44.209 Y106.245 E9.31927
G1 X44.945 Y105.316 E9.35592
G1 X47.865 Y102.244 E9.48706
G1 X61.784 Y88.596 E10.09022
G1 X62.268 Y88.148 E10.11064
G1 X62.998 Y87.556 E10.13972
G1 E8.13972 F2400.00000
G92 E0
G1 X72.140 Y100.037 F7800.000
G1 E2.00000 F2400.00000
G1 X71.432 Y100.421 E2.02492 F1800.000
G1 X70.660 Y100.650 E2.04983
G1 X69.857 Y100.713 E2.07476
G1 X69.667 Y100.688 E2.08068
G1 X66.153 Y97.353 E2.23058
G1 X66.118 Y97.165 E2.23650
G1 X66.139 Y96.360 E2.26142
G1 X66.327 Y95.576 E2.28634
G1 X66.674 Y94.850 E2.31125
G1 X67.164 Y94.211 E2.33617
G1 X67.776 Y93.688 E2.36109
G1 X68.484 Y93.304 E2.38600
G1 X69.256 Y93.075 E2.41092
G1 X69.964 Y93.019 E2.43291
G1 X70.229 Y93.018 E2.44110 F1800.000
G1 X73.763 Y96.372 E2.59185
G1 X73.798 Y96.560 E2.59777
G1 X73.777 Y97.365 E2.62268
G1 X73.589 Y98.148 E2.64759
G1 X73.242 Y98.875 E2.67251
G1 X72.752 Y99.514 E2.69743
G1 X72.197 Y99.988 E2.72002
G1 X72.161 Y100.536 F7800.000
G1 E0.72002 F2400.00000
G92 E0
G1 X73.137 Y94.917 F7800.000
G1 E2.00000 F2400.00000
G1 X71.875 Y93.719 E2.05385 F1800.000
G1 X72.084 Y93.450 E2.06439
G1 X72.545 Y93.780 E2.08191
G1 X72.803 Y94.017 E2.09277
G1 X73.395 Y94.663 E2.11988
G1 X73.191 Y94.864 E2.12876
G1 E0.12876 F2400.00000
G92 E0
G1 X69.174 Y101.943 F7800.000
G1 E2.00000 F2400.00000
G1 X55.622 Y113.243 E2.54597 F1800.000
G1 X52.012 Y109.817 E2.69996
G1 X53.644 Y108.097 E2.77333
G1 X64.838 Y97.121 E3.25841
G1 X64.999 Y97.981 E3.28548
G1 X69.120 Y101.891 E3.46126
G1 X70.632 Y101.541 F7800.000
G1 X55.595 Y114.079 E4.06705 F1800.000
G1 X51.128 Y109.840 E4.25758
G1 X53.199 Y107.658 E4.35063
G1 X65.370 Y95.724 E4.87805
G1 X65.615 Y95.863 E4.88679
G1 X65.516 Y96.277 E4.89997
G1 X65.491 Y97.215 E4.92897
G1 X65.576 Y97.667 E4.94320
G1 X69.384 Y101.280 E5.10563
G1 X69.840 Y101.341 E5.11987
G1 X70.529 Y101.287 E5.14125
G1 X70.604 Y101.471 E5.14742
G1 E3.14742 F2400.00000
G92 E0
G1 X126.223 Y97.363 F7800.000
G1 E2.00000 F2400.00000
G1 X126.208 Y96.399 E2.02983 F1800.000
G1 X129.781 Y93.009 E2.18221 F1800.000
G1 X130.742 Y93.074 E2.21203
G1 X131.516 Y93.304 E2.23701
G1 X132.224 Y93.688 E2.26193
G1 X132.836 Y94.211 E2.28684
G1 X133.326 Y94.850 E2.31176
G1 X133.673 Y95.576 E2.33667
G1 X133.862 Y96.361 E2.36165
G1 X133.876 Y97.325 E2.39148
G1 X130.333 Y100.688 E2.54262
G1 X130.143 Y100.713 E2.54854
G1 X129.340 Y100.650 E2.57346
G1 X128.568 Y100.421 E2.59838
G1 X127.860 Y100.037 E2.62330
G1 X127.248 Y99.514 E2.64821
G1 X126.758 Y98.875 E2.67313
G1 X126.411 Y98.148 E2.69804
G1 X126.240 Y97.436 E2.72070
G1 X125.769 Y97.152 F7800.000
G1 X126.863 Y94.917 F7800.000
G1 X126.604 Y94.663 E2.73190 F1800.000
G1 X127.197 Y94.017 E2.75902
G1 X127.455 Y93.780 E2.76988
G1 X127.916 Y93.450 E2.78740
G1 X128.125 Y93.719 E2.79794
G1 X126.917 Y94.865 E2.84948
G1 E0.84948 F2400.00000
G92 E0
G1 X130.826 Y101.943 F7800.000
G1 E2.00000 F2400.00000
G1 X135.134 Y97.854 E2.18377 F1800.000
G1 X135.122 Y97.082 E2.20768
G1 X146.356 Y108.097 E2.69447
G1 X147.988 Y109.817 E2.76784
G1 X144.378 Y113.243 E2.92184
G1 X130.883 Y101.991 E3.46548
G1 X129.368 Y101.541 F7800.000
G1 X129.471 Y101.287 E3.47396 F1800.000
G1 X130.160 Y101.341 E3.49535
G1 X130.616 Y101.280 E3.50958
G1 X134.505 Y97.590 E3.67547
G1 X134.485 Y96.283 E3.71592
G1 X134.385 Y95.863 E3.72926
G1 X134.630 Y95.724 E3.73800
G1 X146.801 Y107.658 E4.26542
G1 X148.872 Y109.840 E4.35847
G1 X144.405 Y114.079 E4.54900
G1 X129.425 Y101.589 E5.15247
G1 E3.15247 F2400.00000
G92 E0
G1 X125.741 Y95.057 F7800.000
G1 E2.00000 F2400.00000
G1 X122.272 Y93.138 E2.12265 F1800.000
G1 X119.594 Y91.747 E2.21604
G1 X117.018 Y90.504 E2.30454
G1 X114.804 Y89.526 E2.37942
G1 X112.847 Y88.763 E2.44441
G1 X111.672 Y88.347 E2.48297
G1 X110.514 Y87.970 E2.52066
G1 X109.370 Y87.630 E2.55759
G1 X108.239 Y87.327 E2.59382
G1 X107.118 Y87.062 E2.62945
G1 X106.007 Y86.835 E2.66454
G1 X104.904 Y86.646 E2.69917
G1 X103.808 Y86.494 E2.73342
G1 X102.716 Y86.381 E2.76737
G1 X101.628 Y86.305 E2.80111
G1 X100.542 Y86.267 E2.83473
G1 X99.458 Y86.267 E2.86830
G1 X98.372 Y86.305 E2.90191
G1 X97.284 Y86.381 E2.93566
G1 X96.192 Y86.494 E2.96961
G1 X95.096 Y86.646 E3.00386
G1 X93.993 Y86.835 E3.03849
G1 X92.882 Y87.062 E3.07358
G1 X91.761 Y87.327 E3.10920
G1 X90.630 Y87.630 E3.14544
G1 X89.486 Y87.970 E3.18237
G1 X88.328 Y88.347 E3.22006
G1 X87.153 Y88.763 E3.25862
G1 X85.196 Y89.526 E3.32361
G1 X82.982 Y90.504 E3.39849
G1 X80.406 Y91.747 E3.48699
G1 X77.728 Y93.138 E3.58037
G1 X74.259 Y95.057 E3.70303
G1 X74.449 Y95.659 E3.72255
G1 X74.537 Y96.055 E3.73510
G1 X74.590 Y96.457 E3.74766
G1 X74.607 Y96.862 E3.76021
G1 X74.590 Y97.268 E3.77276
G1 X74.537 Y97.670 E3.78531
G1 X74.449 Y98.066 E3.79786
G1 X74.327 Y98.453 E3.81041
G1 X74.172 Y98.827 E3.82296
G1 X73.985 Y99.187 E3.83551
G1 X73.767 Y99.529 E3.84806
G1 X73.520 Y99.851 E3.86061
G1 X73.246 Y100.150 E3.87316
G1 X72.941 Y100.429 E3.88593
G1 X55.568 Y114.915 E4.58583
G1 X50.245 Y109.863 E4.81290
G1 X52.753 Y107.220 E4.92564
G1 X66.663 Y93.581 E5.52842
G1 X66.969 Y93.300 E5.54126
G1 X67.291 Y93.054 E5.55381
G1 X67.633 Y92.836 E5.56636
G1 X67.993 Y92.648 E5.57891
G1 X68.368 Y92.493 E5.59146
G1 X68.754 Y92.371 E5.60401
G1 X69.150 Y92.283 E5.61656
G1 X69.553 Y92.230 E5.62911
G1 X69.958 Y92.213 E5.64166
G1 X70.363 Y92.230 E5.65421
G1 X70.765 Y92.283 E5.66676
G1 X71.161 Y92.371 E5.67931
G1 X71.548 Y92.493 E5.69186
G1 X71.923 Y92.648 E5.70442
G1 X72.283 Y92.836 E5.71696
G1 X72.625 Y93.054 E5.72952
G1 X72.947 Y93.300 E5.74207
G1 X73.246 Y93.574 E5.75462
G1 X73.634 Y93.998 E5.77240
G1 X76.645 Y92.340 E5.87875
G1 X77.989 Y91.631 E5.92576
G1 X80.598 Y90.322 E6.01607
G1 X81.860 Y89.726 E6.05928
G1 X83.099 Y89.166 E6.10134
G1 X85.023 Y88.351 E6.16599
G1 X86.220 Y87.867 E6.20594
G1 X87.395 Y87.420 E6.24486
G1 X88.553 Y87.010 E6.28285
G1 X89.694 Y86.638 E6.31999
G1 X90.820 Y86.303 E6.35633
G1 X91.932 Y86.006 E6.39195
G1 X93.032 Y85.746 E6.42693
G1 X94.122 Y85.523 E6.46135
G1 X95.203 Y85.338 E6.49528
G1 X96.277 Y85.189 E6.52881
G1 X97.345 Y85.078 E6.56203
G1 X98.408 Y85.004 E6.59503
G1 X99.469 Y84.967 E6.62787
G1 X100.634 Y84.971 E6.66392
G1 X101.592 Y85.004 E6.69356
G1 X102.655 Y85.078 E6.72656
G1 X103.723 Y85.189 E6.75978
G1 X104.797 Y85.338 E6.79332
G1 X105.878 Y85.523 E6.82725
G1 X106.968 Y85.746 E6.86166
G1 X108.068 Y86.006 E6.89664
G1 X109.180 Y86.303 E6.93227
G1 X110.306 Y86.638 E6.96861
G1 X111.447 Y87.010 E7.00574
G1 X112.605 Y87.420 E7.04374
G1 X113.780 Y87.867 E7.08266
G1 X114.977 Y88.351 E7.12260
G1 X116.901 Y89.166 E7.18725
G1 X118.140 Y89.726 E7.22931
G1 X119.402 Y90.322 E7.27253
G1 X122.011 Y91.631 E7.36283
G1 X123.355 Y92.340 E7.40984
G1 X126.366 Y93.998 E7.51620
G1 X126.754 Y93.574 E7.53398
G1 X127.053 Y93.300 E7.54653
G1 X127.375 Y93.054 E7.55908
G1 X127.717 Y92.836 E7.57163
G1 X128.077 Y92.648 E7.58418
G1 X128.452 Y92.493 E7.59673
G1 X128.839 Y92.371 E7.60928
G1 X129.235 Y92.283 E7.62183
G1 X129.637 Y92.230 E7.63438
G1 X130.042 Y92.213 E7.64693
G1 X130.447 Y92.230 E7.65948
G1 X130.850 Y92.283 E7.67204
G1 X131.246 Y92.371 E7.68459
G1 X131.632 Y92.493 E7.69714
G1 X132.007 Y92.648 E7.70969
G1 X132.367 Y92.836 E7.72224
G1 X132.709 Y93.054 E7.73479
G1 X133.031 Y93.300 E7.74734
G1 X133.337 Y93.581 E7.76018
G1 X147.247 Y107.220 E8.36296
G1 X149.755 Y109.863 E8.47570
G1 X144.432 Y114.915 E8.70277
G1 X127.059 Y100.429 E9.40266
G1 X126.754 Y100.150 E9.41543
G1 X126.480 Y99.851 E9.42798
G1 X126.233 Y99.529 E9.44053
G1 X126.015 Y99.187 E9.45309
G1 X125.828 Y98.827 E9.46564
G1 X125.673 Y98.453 E9.47819
G1 X125.551 Y98.066 E9.49074
G1 X125.463 Y97.670 E9.50329
G1 X125.410 Y97.268 E9.51584
G1 X125.393 Y96.862 E9.52839
G1 X125.410 Y96.457 E9.54094
G1 X125.463 Y96.055 E9.55349
G1 X125.551 Y95.659 E9.56604
G1 X125.718 Y95.129 E9.58325
G1 X125.953 Y94.604 F7800.000
G1 X126.148 Y95.655 F7800.000
G1 X125.880 Y96.128 E9.60009 F1800.000
G1 X125.822 Y96.268 E9.60477
G1 X125.804 Y96.862 E9.62316
G1 X125.815 Y97.232 E9.63461
G1 X125.863 Y97.599 E9.64607
G1 X126.033 Y98.273 E9.66756
G1 X126.364 Y98.986 E9.69188
G1 X126.567 Y99.295 E9.70334
G1 X126.954 Y99.781 E9.72255
G1 X127.621 Y100.368 E9.75004
G1 X128.361 Y100.871 E9.77773
G1 X129.134 Y101.287 E9.80488
G1 X131.914 Y102.206 F7800.000
G1 X131.492 Y101.785 E9.82524 F1800.000
G1 X131.979 Y101.297 E9.84878
G1 X137.781 Y107.098 E10.12887
G1 X144.405 Y106.898 F7800.000
G1 X146.650 Y109.142 E10.23724 F1800.000
G1 X146.916 Y110.383 F7800.000
G1 X134.980 Y98.447 E10.81354 F1800.000
G1 X134.480 Y98.922 E10.83709
G1 X146.418 Y110.861 E11.41350
G1 X145.918 Y111.335 E11.43704
G1 X133.979 Y99.397 E12.01345
G1 X133.479 Y99.871 E12.03700
G1 X145.418 Y111.810 E12.61341
G1 X144.917 Y112.285 E12.63696
G1 X132.979 Y100.346 E13.21337
G1 X132.478 Y100.821 E13.23691
G1 X143.648 Y111.990 E13.77618
G1 X134.370 Y95.513 F7800.000
G1 X133.732 Y94.620 E13.81013 F1800.000
G1 X133.134 Y93.941 E13.83812
G1 X132.480 Y93.381 E13.86477
G1 X132.163 Y93.190 E13.87623
G1 X131.660 Y92.933 E13.89368
G1 X130.822 Y92.684 E13.92074
G1 X130.042 Y92.620 E13.94495
G1 X129.352 Y92.625 E13.96629
G1 X129.404 Y92.723 F7800.000
G1 X128.682 Y93.125 E14.02053 F1800.000
G1 X128.268 Y93.394 E14.05289
G1 X126.220 Y94.620 F7800.000
G1 X123.065 Y92.878 E14.28932 F1800.000
G1 X121.733 Y92.172 E14.38822
G1 X119.859 Y91.216 E14.52624
G1 X117.892 Y90.263 E14.66965
G1 X116.665 Y89.705 E14.75803
G1 X114.755 Y88.886 E14.89436
G1 X113.047 Y88.213 E15.01481
G1 X111.254 Y87.579 E15.13959
G1 X109.539 Y87.045 E15.25738
G1 X107.916 Y86.610 E15.36765
G1 X106.128 Y86.217 E15.48770
G1 X105.007 Y86.019 E15.56244
G1 X103.879 Y85.858 E15.63715
G1 X102.599 Y85.723 E15.72156
G1 X101.656 Y85.658 E15.78358
G1 X100.622 Y85.620 E15.85149
G1 X99.480 Y85.617 E15.92643
G1 X98.332 Y85.658 E16.00175
G1 X97.401 Y85.723 E16.06301
G1 X96.354 Y85.829 E16.13200
G1 X95.004 Y86.017 E16.22144
G1 X93.881 Y86.215 E16.29621
G1 X92.743 Y86.455 E16.37252
G1 X90.987 Y86.896 E16.49129
G1 X89.311 Y87.395 E16.60604
G1 X88.134 Y87.787 E16.68742
G1 X86.945 Y88.216 E16.77033
G1 X84.981 Y88.993 E16.90891
G1 X82.742 Y89.970 E17.06914
G1 X81.452 Y90.573 E17.16258
G1 X80.136 Y91.218 E17.25874
G1 X77.445 Y92.602 E17.45722
G1 X73.780 Y94.620 E17.73169
G1 X73.852 Y95.655 F7800.000
G1 X74.145 Y96.198 E17.75080 F1800.000
G1 X74.196 Y96.538 E17.76143
G1 X74.186 Y97.232 E17.78291
G1 X74.137 Y97.599 E17.79436
G1 X73.967 Y98.273 E17.81585
G1 X73.636 Y98.986 E17.84018
G1 X73.433 Y99.295 E17.85164
G1 X73.046 Y99.781 E17.87084
G1 X72.379 Y100.368 E17.89833
G1 X71.639 Y100.871 E17.92603
G1 X70.866 Y101.287 E17.95318
G1 X68.508 Y102.050 F7800.000
G1 X67.703 Y101.244 E17.98922 F1800.000
G1 X68.030 Y102.475 E18.02950
G1 X63.975 Y98.420 E18.21090
G1 X63.519 Y98.868 E18.23112
G1 X67.537 Y102.886 E18.41089
G1 X67.044 Y103.297 E18.43118
G1 X63.063 Y99.315 E18.60932
G1 X62.606 Y99.762 E18.62953
G1 X66.551 Y103.707 E18.80603
G1 X66.059 Y104.118 E18.82633
G1 X62.150 Y100.210 E19.00120
G1 X61.694 Y100.657 E19.02141
G1 X65.566 Y104.529 E19.19465
G1 X65.073 Y104.940 E19.21494
G1 X61.238 Y101.104 E19.38655
G1 X60.781 Y101.552 E19.40676
G1 X64.580 Y105.351 E19.57673
G1 X64.088 Y105.762 E19.59703
G1 X60.325 Y101.999 E19.76536
G1 X59.869 Y102.446 E19.78558
G1 X63.595 Y106.172 E19.95228
G1 X63.102 Y106.583 E19.97258
G1 X59.413 Y102.894 E20.13765
G1 X58.956 Y103.341 E20.15786
G1 X62.609 Y106.994 E20.32130
G1 X62.117 Y107.405 E20.34159
G1 X58.500 Y103.788 E20.50340
G1 X58.044 Y104.236 E20.52361
G1 X61.624 Y107.816 E20.68378
G1 X61.131 Y108.227 E20.70407
G1 X57.588 Y104.683 E20.86261
G1 X57.132 Y105.130 E20.88283
G1 X60.639 Y108.637 E21.03973
G1 X60.146 Y109.048 E21.06002
G1 X56.675 Y105.578 E21.21529
G1 X56.219 Y106.025 E21.23551
G1 X59.653 Y109.459 E21.38914
G1 X59.160 Y109.870 E21.40944
G1 X55.763 Y106.473 E21.56144
G1 X55.307 Y106.920 E21.58166
G1 X58.668 Y110.281 E21.73202
G1 X58.175 Y110.692 E21.75231
G1 X54.855 Y107.372 E21.90084
G1 X54.403 Y107.824 E21.92106
G1 X57.682 Y111.103 E22.06775
G1 X57.189 Y111.513 E22.08805
G1 X53.952 Y108.275 E22.23291
G1 X53.500 Y108.727 E22.25312
G1 X56.697 Y111.924 E22.39616
G1 X56.204 Y112.335 E22.41645
G1 X53.056 Y109.187 E22.55730
G1 X52.616 Y109.651 E22.57752
G1 X53.435 Y110.470 E22.61418
G1 X65.630 Y95.513 F7800.000
G1 X66.268 Y94.620 E22.64813 F1800.000
G1 X66.866 Y93.941 E22.67612
G1 X67.520 Y93.381 E22.70277
G1 X67.837 Y93.190 E22.71423
G1 X68.340 Y92.933 E22.73168
G1 X68.860 Y92.766 E22.74859
G1 X69.192 Y92.681 E22.75919
G1 X69.951 Y92.616 E22.78277
G1 X70.638 Y92.644 E22.80403
G1 X70.596 Y92.723 F7800.000
G1 X71.318 Y93.125 E22.85826 F1800.000
G1 X71.732 Y93.394 E22.89063
G1 Z0.650 F7800.000
G1 X73.698 Y96.568 F7800.000
G1 X73.677 Y97.352 E22.90513 F900.000
G1 X73.494 Y98.115 E22.91963
G1 X73.156 Y98.822 E22.93412
G1 X72.679 Y99.445 E22.94862
G1 X72.083 Y99.954 E22.96312
G1 X71.393 Y100.328 E22.97762
G1 X70.642 Y100.551 E22.99212
G1 X69.859 Y100.612 E23.00663
G1 X69.712 Y100.593 E23.00937
G1 X66.245 Y97.303 E23.09774
G1 X66.218 Y97.157 E23.10048
G1 X66.239 Y96.373 E23.11498
G1 X66.422 Y95.610 E23.12948
G1 X66.759 Y94.902 E23.14398
G1 X67.237 Y94.280 E23.15848
G1 X67.833 Y93.771 E23.17298
G1 X68.522 Y93.397 E23.18748
G1 X69.274 Y93.174 E23.20198
G1 X69.887 Y93.126 E23.21334
G1 X70.186 Y93.115 E23.21888 F900.000
G1 X73.671 Y96.422 E23.30769
G1 X73.684 Y96.494 E23.30905
G1 X74.141 Y96.799 F7800.000
G1 X73.680 Y95.680 F7800.000
G1 X70.952 Y93.091 E23.41353 F900.000
G1 X71.111 Y92.822 E23.42221
G1 X71.396 Y92.912 E23.43051
G1 X71.735 Y93.052 E23.44070
G1 X72.060 Y93.221 E23.45089
G1 X72.369 Y93.418 E23.46108
G1 X72.660 Y93.642 E23.47127
G1 X72.931 Y93.889 E23.48145
G1 X73.542 Y94.557 E23.50659
G1 X73.621 Y94.513 E23.50909
G1 X73.938 Y95.519 E23.53838
G1 X73.744 Y95.640 E23.54474
G1 E21.54474 F2400.00000
G92 E0
G1 X69.595 Y101.787 F7800.000
G1 E2.00000 F2400.00000
G1 X55.615 Y113.444 E2.50561 F3600.000
G1 X51.799 Y109.822 E2.65174
G1 X53.537 Y107.991 E2.72186
G1 X65.029 Y96.723 E3.16895
G1 X65.016 Y97.252 E3.18367
G1 X65.138 Y97.905 E3.20212
G1 X69.169 Y101.730 E3.35648
G1 X69.521 Y101.777 E3.36636
G1 X71.088 Y100.987 F7800.000
G1 X71.239 Y101.269 E3.37524 F3600.000
G1 X55.587 Y114.319 E3.94131
G1 X50.874 Y109.847 E4.12180
G1 X53.070 Y107.532 E4.21043
G1 X65.673 Y95.175 E4.70072
