; generated by Slic3r 1.2.9 on 2015-08-04 at 18:17:04

; external perimeters extrusion width = 0.50mm
; perimeters extrusion width = 0.72mm
; infill extrusion width = 0.72mm
; solid infill extrusion width = 0.72mm
; top infill extrusion width = 0.72mm

M107
M104 S200 ; set temperature
G28 ; home all axes
G1 Z5 F5000 ; lift nozzle

M109 S200 ; wait for temperature to be reached
G21 ; set units to millimeters
G90 ; use absolute coordinates
M82 ; use absolute distances for extrusion
G92 E0
G1 Z0.350 F7800.000
G1 E-2.00000 F2400.00000
G92 E0
G1 X88.797 Y88.797 F7800.000
G1 E2.00000 F2400.00000
G1 X89.698 Y87.959 E2.03807 F1800.000
G1 X90.200 Y87.547 E2.05818
G1 X90.928 Y87.007 E2.08620
G1 X91.468 Y86.646 E2.10631
G1 X92.245 Y86.181 E2.13433
G1 X92.818 Y85.874 E2.15444
G1 X93.637 Y85.487 E2.18246
G1 X94.237 Y85.238 E2.20257
G1 X95.090 Y84.933 E2.23059
G1 X95.712 Y84.744 E2.25071
G1 X96.590 Y84.524 E2.27872
G1 X97.228 Y84.398 E2.29884
G1 X98.124 Y84.265 E2.32686
G1 X98.771 Y84.201 E2.34697
G1 X99.675 Y84.157 E2.37499
G1 X100.325 Y84.157 E2.39510
G1 X101.229 Y84.201 E2.42312 F1800.000
G1 X101.876 Y84.265 E2.44323
G1 X102.772 Y84.398 E2.47125
G1 X103.410 Y84.524 E2.49137
G1 X104.288 Y84.744 E2.51938
G1 X104.910 Y84.933 E2.53950
G1 X105.763 Y85.238 E2.56752
G1 X106.363 Y85.487 E2.58763
G1 X107.182 Y85.874 E2.61565
G1 X107.755 Y86.181 E2.63576
G1 X108.532 Y86.646 E2.66378
G1 X109.072 Y87.007 E2.68390
G1 X109.800 Y87.547 E2.71191
G1 X110.302 Y87.959 E2.73202
G1 X110.973 Y88.567 E2.76004
G1 X111.433 Y89.027 E2.78016
G1 X112.041 Y89.698 E2.80817
G1 X112.650 Y90.466 E2.83850
G1 X113.677 Y92.516 E2.90946
G1 X113.954 Y94.412 E2.96874
G1 X113.954 Y105.588 E3.31454
G1 X113.557 Y107.847 E3.38550
G1 X112.650 Y109.534 E3.44478
G1 X112.453 Y109.800 E3.45500
G1 X112.041 Y110.302 E3.47511
G1 X111.433 Y110.973 E3.50313
G1 X110.973 Y111.433 E3.52325
G1 X110.302 Y112.041 E3.55126
G1 X109.800 Y112.453 E3.57137
G1 X109.072 Y112.993 E3.59939
G1 X108.532 Y113.354 E3.61951
G1 X107.755 Y113.819 E3.64753
G1 X107.182 Y114.126 E3.66764
G1 X106.363 Y114.513 E3.69566
G1 X105.763 Y114.762 E3.71577
G1 X104.910 Y115.067 E3.74379
G1 X104.288 Y115.256 E3.76390
G1 X103.410 Y115.476 E3.79192
G1 X102.772 Y115.602 E3.81203
G1 X101.876 Y115.735 E3.84005
G1 X101.229 Y115.799 E3.86017
G1 X100.325 Y115.843 E3.88818
G1 X99.675 Y115.843 E3.90830
G1 X98.771 Y115.799 E3.93631
G1 X98.124 Y115.735 E3.95643
G1 X97.228 Y115.602 E3.98445
G1 X96.590 Y115.476 E4.00456
G1 X95.712 Y115.256 E4.03258
G1 X95.090 Y115.067 E4.05269
G1 X94.237 Y114.762 E4.08071
G1 X93.637 Y114.513 E4.10083
G1 X92.818 Y114.126 E4.12884
G1 X92.245 Y113.819 E4.14896
G1 X91.862 Y113.590 E4.16276
G1 X91.468 Y113.354 E4.17697
G1 X90.928 Y112.993 E4.19709
G1 X90.200 Y112.453 E4.22511
G1 X89.698 Y112.041 E4.24522
G1 X89.027 Y111.433 E4.27324
G1 X88.567 Y110.973 E4.29335
G1 X87.959 Y110.302 E4.32137
G1 X87.350 Y109.534 E4.35170
G1 X86.323 Y107.484 E4.42266
G1 X86.046 Y105.588 E4.48194
G1 X86.046 Y94.412 E4.82773
G1 X86.443 Y92.153 E4.89869
G1 X87.350 Y90.466 E4.95797
G1 X87.959 Y89.698 E4.98830
G1 X88.744 Y88.850 E5.02404
G1 E3.02404 F2400.00000
G92 E0
G1 X106.583 Y105.938 F7800.000
G1 E2.00000 F2400.00000
G1 X106.276 Y106.276 E2.01413 F1800.000
G1 X105.631 Y106.861 E2.04108
G1 X104.931 Y107.380 E2.06804
G1 X104.184 Y107.828 E2.09499
G1 X103.397 Y108.200 E2.12194
G1 X102.577 Y108.494 E2.14889
G1 X101.732 Y108.706 E2.17584
G1 X100.870 Y108.833 E2.20279
G1 X100.000 Y108.876 E2.22975
G1 X99.130 Y108.833 E2.25670
G1 X98.268 Y108.706 E2.28365
G1 X97.423 Y108.494 E2.31060
G1 X96.603 Y108.200 E2.33755
G1 X95.816 Y107.828 E2.36450
G1 X95.069 Y107.380 E2.39146
G1 X94.369 Y106.861 E2.41841
G1 X93.724 Y106.276 E2.44536
G1 X93.417 Y105.938 E2.45949
G1 X94.754 Y105.938 E2.50086
G1 X94.968 Y106.132 E2.50979
G1 X95.593 Y106.596 E2.53388
G1 X96.261 Y106.996 E2.55796
G1 X96.964 Y107.329 E2.58205
G1 X97.697 Y107.591 E2.60613
G1 X98.452 Y107.780 E2.63022
G1 X99.222 Y107.894 E2.65431
G1 X100.000 Y107.932 E2.67839
G1 X100.778 Y107.894 E2.70248
G1 X101.548 Y107.780 E2.72656
G1 X102.303 Y107.591 E2.75065
G1 X103.036 Y107.329 E2.77474
G1 X103.739 Y106.996 E2.79882
G1 X104.407 Y106.596 E2.82291
G1 X105.032 Y106.132 E2.84699
G1 X105.246 Y105.938 E2.85593
G1 X106.508 Y105.938 E2.89497
G1 X106.195 Y106.179 F7800.000
G1 X105.603 Y106.250 F7800.000
G1 X105.332 Y106.496 E2.90631 F1800.000
G1 X104.669 Y106.988 E2.93183
G1 X103.962 Y107.412 E2.95735
G1 X103.216 Y107.764 E2.98287
G1 X102.440 Y108.042 E3.00839
G1 X101.640 Y108.243 E3.03391
G1 X100.824 Y108.364 E3.05943
G1 X100.000 Y108.404 E3.08494
G1 X99.176 Y108.364 E3.11046
G1 X98.360 Y108.243 E3.13598
G1 X97.560 Y108.042 E3.16150
G1 X96.784 Y107.764 E3.18702
G1 X96.038 Y107.412 E3.21254
G1 X95.331 Y106.988 E3.23806
G1 X94.668 Y106.496 E3.26357
G1 X94.397 Y106.250 E3.27492
G1 E1.27492 F2400.00000
G92 E0
G1 X106.583 Y94.062 F7800.000
G1 E2.00000 F2400.00000
G1 X105.246 Y94.062 E2.04137 F1800.000
G1 X105.032 Y93.868 E2.05030
G1 X104.407 Y93.404 E2.07438
G1 X103.739 Y93.004 E2.09847
G1 X103.036 Y92.671 E2.12256
G1 X102.303 Y92.409 E2.14664
G1 X101.548 Y92.220 E2.17073
G1 X100.778 Y92.106 E2.19482
G1 X100.000 Y92.068 E2.21890
G1 X99.222 Y92.106 E2.24299
G1 X98.452 Y92.220 E2.26707
G1 X97.697 Y92.409 E2.29116
G1 X96.964 Y92.671 E2.31525
G1 X96.261 Y93.004 E2.33933
G1 X95.593 Y93.404 E2.36342
G1 X94.968 Y93.868 E2.38750
G1 X94.754 Y94.062 E2.39644
G1 X93.417 Y94.062 E2.43780
G1 X93.724 Y93.724 E2.45193
G1 X94.369 Y93.139 E2.47889
G1 X95.069 Y92.620 E2.50584
G1 X95.816 Y92.172 E2.53279
G1 X96.603 Y91.800 E2.55974
G1 X97.423 Y91.506 E2.58669
G1 X98.268 Y91.294 E2.61364
G1 X99.130 Y91.167 E2.64060
G1 X100.000 Y91.124 E2.66755
G1 X100.870 Y91.167 E2.69450
G1 X101.732 Y91.294 E2.72145
G1 X102.577 Y91.506 E2.74840
G1 X103.397 Y91.800 E2.77535
G1 X104.184 Y92.172 E2.80231
G1 X104.931 Y92.620 E2.82926
G1 X105.631 Y93.139 E2.85621
G1 X106.276 Y93.724 E2.88316
G1 X106.533 Y94.006 E2.89497
G1 X106.102 Y93.925 F7800.000
G1 X105.603 Y93.750 F7800.000
G1 X105.332 Y93.504 E2.90631 F1800.000
G1 X104.669 Y93.012 E2.93183
G1 X103.962 Y92.588 E2.95735
G1 X103.216 Y92.236 E2.98287
G1 X102.440 Y91.958 E3.00839
G1 X101.640 Y91.757 E3.03391
G1 X100.824 Y91.636 E3.05943
G1 X100.000 Y91.596 E3.08494
G1 X99.176 Y91.636 E3.11046
G1 X98.360 Y91.757 E3.13598
G1 X97.560 Y91.958 E3.16150
G1 X96.784 Y92.236 E3.18702
G1 X96.038 Y92.588 E3.21254
G1 X95.331 Y93.012 E3.23806
G1 X94.668 Y93.504 E3.26357
G1 X94.397 Y93.750 E3.27492
G1 Z0.650 F7800.000
G1 E1.27492 F2400.00000
G92 E0
G1 X107.010 Y105.816 F7800.000
G1 E2.00000 F2400.00000
G1 X106.442 Y106.442 E2.01564 F900.000
G1 X105.780 Y107.043 E2.03217
G1 X105.062 Y107.575 E2.04870
G1 X104.295 Y108.035 E2.06523
G1 X103.487 Y108.417 E2.08176
G1 X102.645 Y108.719 E2.09829
G1 X101.777 Y108.936 E2.11482
G1 X100.893 Y109.067 E2.13135
G1 X100.000 Y109.111 E2.14788
G1 X99.107 Y109.067 E2.16441
G1 X98.224 Y108.936 E2.18091
G1 X97.236 Y108.676 E2.19981
G1 X96.513 Y108.417 E2.21399
G1 X95.705 Y108.035 E2.23052
G1 X94.938 Y107.575 E2.24705
G1 X94.220 Y107.043 E2.26358
G1 X93.558 Y106.442 E2.28011
G1 X92.990 Y105.816 E2.29575
G1 X94.533 Y105.816 E2.32430
G1 X94.931 Y106.176 E2.33423
G1 X95.561 Y106.643 E2.34872
G1 X96.234 Y107.046 E2.36322
G1 X96.942 Y107.382 E2.37772
G1 X97.681 Y107.646 E2.39221
G1 X98.441 Y107.836 E2.40671
G1 X99.217 Y107.951 E2.42120
G1 X100.000 Y107.990 E2.43570
G1 X100.783 Y107.951 E2.45020
G1 X101.559 Y107.836 E2.46469
G1 X102.319 Y107.646 E2.47919
G1 X103.058 Y107.382 E2.49369
G1 X103.766 Y107.046 E2.50818
G1 X104.439 Y106.643 E2.52268
G1 X105.069 Y106.176 E2.53717
G1 X105.467 Y105.816 E2.54710
G1 X106.935 Y105.816 E2.57426
G1 X106.586 Y106.080 F7800.000
G1 X106.000 Y106.088 F7800.000
G1 X105.424 Y106.609 E2.61952 F1200.000
G1 X104.750 Y107.109 E2.66842
G1 X104.031 Y107.541 E2.71733
G1 X103.272 Y107.899 E2.76624
G1 X102.482 Y108.182 E2.81515
G1 X101.668 Y108.386 E2.86405
G1 X100.838 Y108.509 E2.91296
G1 X100.000 Y108.550 E2.96187
G1 X99.162 Y108.509 E3.01078
G1 X98.337 Y108.387 E3.05940
G1 X97.506 Y108.173 E3.10939
G1 X96.728 Y107.899 E3.15747
G1 X95.969 Y107.541 E3.20638
G1 X95.250 Y107.109 E3.25529
G1 X94.576 Y106.609 E3.30419
G1 X94.000 Y106.088 E3.34945
G1 E1.34945 F2400.00000
G92 E0
G1 X107.010 Y94.184 F7800.000
G1 E2.00000 F2400.00000
G1 X105.467 Y94.184 E2.02854 F900.000
G1 X105.069 Y93.824 E2.03847
G1 X104.439 Y93.357 E2.05297
G1 X103.766 Y92.954 E2.06746
G1 X103.058 Y92.618 E2.08196
G1 X102.319 Y92.354 E2.09646
G1 X101.559 Y92.164 E2.11095
G1 X100.783 Y92.049 E2.12545
G1 X100.000 Y92.010 E2.13995
G1 X99.217 Y92.049 E2.15444
G1 X98.441 Y92.164 E2.16894
G1 X97.681 Y92.354 E2.18344
G1 X96.942 Y92.618 E2.19793
G1 X96.234 Y92.954 E2.21243
G1 X95.561 Y93.357 E2.22692
G1 X94.931 Y93.824 E2.24142
G1 X94.533 Y94.184 E2.25135
G1 X92.990 Y94.184 E2.27989
G1 X93.558 Y93.558 E2.29553
G1 X94.220 Y92.957 E2.31206
G1 X94.938 Y92.425 E2.32859
G1 X95.705 Y91.965 E2.34511
G1 X96.568 Y91.563 E2.36271
G1 X97.355 Y91.281 E2.37818
G1 X98.223 Y91.064 E2.39471
G1 X99.105 Y90.933 E2.41121
G1 X100.127 Y90.895 E2.43010
G1 X100.893 Y90.933 E2.44429
G1 X101.777 Y91.064 E2.46082
G1 X102.645 Y91.281 E2.47735
G1 X103.487 Y91.583 E2.49388
G1 X104.295 Y91.965 E2.51041
G1 X105.062 Y92.425 E2.52694
G1 X105.780 Y92.957 E2.54347
G1 X106.442 Y93.558 E2.56000
G1 X106.960 Y94.129 E2.57426
G1 X106.530 Y94.047 F7800.000
G1 X106.000 Y93.912 F7800.000
G1 X105.424 Y93.391 E2.61951 F1200.000
G1 X104.750 Y92.891 E2.66842
G1 X104.031 Y92.459 E2.71733
G1 X103.272 Y92.101 E2.76623
G1 X102.482 Y91.818 E2.81514
G1 X101.668 Y91.614 E2.86405
G1 X100.838 Y91.491 E2.91296
G1 X100.014 Y91.455 E2.96104
G1 X99.157 Y91.492 E3.01103
G1 X98.332 Y91.614 E3.05965
G1 X97.518 Y91.818 E3.10856
G1 X96.781 Y92.082 E3.15421
G1 X95.967 Y92.461 E3.20650
G1 X95.250 Y92.891 E3.25527
G1 X94.576 Y93.391 E3.30418
G1 X94.000 Y93.912 E3.34943
G1 Z0.950 F7800.000
G1 E1.34943 F2400.00000
G92 E0
G1 X107.171 Y105.795 F7800.000
G1 E2.00000 F2400.00000
G1 X106.517 Y106.517 E2.01802 F900.000
G1 X105.847 Y107.124 E2.03474
G1 X105.120 Y107.663 E2.05146
G1 X104.345 Y108.128 E2.06818
G1 X103.527 Y108.515 E2.08491
G1 X102.675 Y108.820 E2.10163
G1 X101.798 Y109.039 E2.11835
G1 X100.903 Y109.172 E2.13507
G1 X100.000 Y109.216 E2.15179
G1 X99.097 Y109.172 E2.16851
G1 X98.202 Y109.039 E2.18524
G1 X97.325 Y108.820 E2.20196
G1 X96.473 Y108.515 E2.21868
G1 X95.655 Y108.128 E2.23540
G1 X94.880 Y107.663 E2.25212
G1 X94.153 Y107.124 E2.26884
G1 X93.483 Y106.517 E2.28557
G1 X92.829 Y105.795 E2.30358
G1 X94.328 Y105.795 E2.33131
G1 X94.852 Y106.272 E2.34441
G1 X95.492 Y106.747 E2.35914
G1 X96.175 Y107.156 E2.37386
G1 X96.895 Y107.496 E2.38859
G1 X97.645 Y107.765 E2.40331
G1 X98.417 Y107.958 E2.41803
G1 X99.205 Y108.075 E2.43275
G1 X100.000 Y108.114 E2.44747
G1 X100.795 Y108.075 E2.46220
G1 X101.583 Y107.958 E2.47692
G1 X102.355 Y107.765 E2.49164
G1 X103.105 Y107.496 E2.50636
G1 X103.825 Y107.156 E2.52108
G1 X104.508 Y106.747 E2.53580
G1 X105.148 Y106.272 E2.55053
G1 X105.672 Y105.795 E2.56363
G1 X107.096 Y105.795 E2.58998
G1 X106.747 Y106.059 F7800.000
G1 X106.192 Y106.067 F7800.000
G1 X105.497 Y106.698 E2.64466 F1200.000
G1 X104.814 Y107.205 E2.69423
G1 X104.085 Y107.642 E2.74379
G1 X103.316 Y108.005 E2.79336
G1 X102.515 Y108.292 E2.84292
G1 X101.690 Y108.499 E2.89249
G1 X100.849 Y108.623 E2.94205
G1 X100.000 Y108.665 E2.99162
G1 X99.151 Y108.623 E3.04118
G1 X98.310 Y108.499 E3.09075
G1 X97.485 Y108.292 E3.14031
G1 X96.684 Y108.005 E3.18988
G1 X95.915 Y107.642 E3.23944
G1 X95.186 Y107.205 E3.28901
G1 X94.503 Y106.698 E3.33857
G1 X93.808 Y106.067 E3.39326
G1 E1.39326 F2400.00000
G92 E0
G1 X107.171 Y94.205 F7800.000
G1 E2.00000 F2400.00000
G1 X105.672 Y94.205 E2.02773 F900.000
G1 X105.148 Y93.728 E2.04083
G1 X104.508 Y93.253 E2.05556
G1 X103.825 Y92.844 E2.07028
G1 X103.105 Y92.504 E2.08500
G1 X102.355 Y92.235 E2.09972
G1 X101.583 Y92.042 E2.11445
G1 X100.795 Y91.925 E2.12917
G1 X100.000 Y91.886 E2.14389
G1 X99.205 Y91.925 E2.15861
G1 X98.417 Y92.042 E2.17333
G1 X97.645 Y92.235 E2.18805
G1 X96.895 Y92.504 E2.20278
G1 X96.175 Y92.844 E2.21750
G1 X95.492 Y93.253 E2.23222
G1 X94.852 Y93.728 E2.24695
G1 X94.328 Y94.205 E2.26005
G1 X92.829 Y94.205 E2.28778
G1 X93.483 Y93.483 E2.30580
G1 X94.153 Y92.876 E2.32252
G1 X94.880 Y92.337 E2.33924
G1 X95.655 Y91.872 E2.35596
G1 X96.473 Y91.485 E2.37268
G1 X97.325 Y91.180 E2.38941
G1 X98.202 Y90.961 E2.40613
G1 X99.097 Y90.828 E2.42285
G1 X100.000 Y90.784 E2.43957
G1 X100.903 Y90.828 E2.45629
G1 X101.798 Y90.961 E2.47301
G1 X102.675 Y91.180 E2.48974
G1 X103.527 Y91.485 E2.50646
G1 X104.345 Y91.872 E2.52318
G1 X105.120 Y92.337 E2.53990
G1 X105.847 Y92.876 E2.55662
G1 X106.517 Y93.483 E2.57334
G1 X107.121 Y94.150 E2.58998
G1 X106.691 Y94.068 F7800.000
G1 X106.192 Y93.933 F7800.000
G1 X105.497 Y93.302 E2.64466 F1200.000
G1 X104.814 Y92.795 E2.69423
G1 X104.085 Y92.358 E2.74379
G1 X103.316 Y91.995 E2.79336
G1 X102.515 Y91.708 E2.84292
G1 X101.690 Y91.501 E2.89249
G1 X100.849 Y91.377 E2.94205
G1 X100.000 Y91.335 E2.99162
G1 X99.151 Y91.377 E3.04118
G1 X98.310 Y91.501 E3.09075
G1 X97.485 Y91.708 E3.14031
G1 X96.684 Y91.995 E3.18988
G1 X95.915 Y92.358 E3.23944
G1 X95.186 Y92.795 E3.28901
G1 X94.503 Y93.302 E3.33857
G1 X93.808 Y93.933 E3.39326
M106 S252.45
G1 Z1.250 F7800.000
G1 E1.39326 F2400.00000
G92 E0
G1 X107.313 Y105.774 F7800.000
G1 E2.00000 F2400.00000
G1 X106.581 Y106.581 E2.02014 F900.000
G1 X105.905 Y107.195 E2.03703
G1 X105.171 Y107.739 E2.05391
G1 X104.387 Y108.208 E2.07080
G1 X103.562 Y108.599 E2.08769
G1 X102.702 Y108.907 E2.10457
G1 X101.816 Y109.129 E2.12146
G1 X101.370 Y109.195 E2.12979
G1 X100.912 Y109.263 E2.13835
G1 X100.000 Y109.307 E2.15523
G1 X99.088 Y109.263 E2.17212
G1 X98.630 Y109.195 E2.18068
G1 X98.184 Y109.129 E2.18901
G1 X97.298 Y108.907 E2.20590
G1 X96.438 Y108.599 E2.22278
G1 X95.613 Y108.208 E2.23967
G1 X94.829 Y107.739 E2.25656
G1 X94.095 Y107.195 E2.27344
G1 X93.419 Y106.581 E2.29033
G1 X92.687 Y105.774 E2.31047
G1 X94.119 Y105.774 E2.33695
G1 X94.774 Y106.368 E2.35329
G1 X95.423 Y106.850 E2.36824
G1 X96.116 Y107.266 E2.38318
G1 X96.847 Y107.611 E2.39813
G1 X97.609 Y107.884 E2.41308
G1 X98.393 Y108.080 E2.42802
G1 X99.193 Y108.199 E2.44297
G1 X100.000 Y108.238 E2.45792
G1 X100.807 Y108.199 E2.47287
G1 X101.607 Y108.080 E2.48781
G1 X102.391 Y107.884 E2.50276
G1 X103.153 Y107.611 E2.51771
G1 X103.884 Y107.266 E2.53266
G1 X104.577 Y106.850 E2.54760
G1 X105.226 Y106.368 E2.56255
G1 X105.872 Y105.774 E2.57877
G1 X107.238 Y105.774 E2.60403
G1 X106.888 Y106.038 F7800.000
G1 X106.376 Y106.047 F7800.000
G1 X105.565 Y106.781 E2.66780 F1200.000
G1 X104.874 Y107.294 E2.71798
G1 X104.135 Y107.737 E2.76817
G1 X103.357 Y108.105 E2.81835
G1 X102.547 Y108.395 E2.86853
G1 X101.711 Y108.604 E2.91871
G1 X100.860 Y108.730 E2.96889
G1 X100.000 Y108.773 E3.01907
G1 X99.140 Y108.730 E3.06925
G1 X98.289 Y108.604 E3.11943
G1 X97.453 Y108.395 E3.16961
G1 X96.643 Y108.105 E3.21979
G1 X95.865 Y107.737 E3.26997
G1 X95.126 Y107.294 E3.32015
G1 X94.435 Y106.781 E3.37033
G1 X93.625 Y106.047 E3.43408
G1 E1.43408 F2400.00000
G92 E0
G1 X107.313 Y94.226 F7800.000
G1 E2.00000 F2400.00000
G1 X105.872 Y94.226 E2.02664 F900.000
G1 X105.226 Y93.632 E2.04286
G1 X104.577 Y93.150 E2.05781
G1 X103.884 Y92.734 E2.07276
G1 X103.153 Y92.389 E2.08770
G1 X102.391 Y92.116 E2.10265
G1 X101.607 Y91.920 E2.11760
G1 X100.807 Y91.801 E2.13255
G1 X100.000 Y91.762 E2.14749
G1 X99.193 Y91.801 E2.16244
G1 X98.393 Y91.920 E2.17739
G1 X97.609 Y92.116 E2.19233
G1 X96.847 Y92.389 E2.20728
G1 X96.116 Y92.734 E2.22223
G1 X95.423 Y93.150 E2.23718
G1 X94.774 Y93.632 E2.25212
G1 X94.128 Y94.226 E2.26834
G1 X92.687 Y94.226 E2.29499
G1 X93.419 Y93.419 E2.31513
G1 X94.095 Y92.805 E2.33201
G1 X94.829 Y92.261 E2.34890
G1 X95.613 Y91.792 E2.36579
G1 X96.438 Y91.401 E2.38267
G1 X97.298 Y91.093 E2.39956
G1 X98.184 Y90.871 E2.41645
G1 X99.088 Y90.737 E2.43333
G1 X100.000 Y90.693 E2.45022
G1 X100.912 Y90.737 E2.46711
G1 X101.816 Y90.871 E2.48399
G1 X102.702 Y91.093 E2.50088
G1 X103.562 Y91.401 E2.51777
G1 X104.387 Y91.792 E2.53466
