; generated by Slic3r 1.2.9 on 2015-08-04 at 18:16:34

; external perimeters extrusion width = 0.50mm
; perimeters extrusion width = 0.72mm
; infill extrusion width = 0.72mm
; solid infill extrusion width = 0.72mm
; top infill extrusion width = 0.72mm

M107
M104 S200 ; set temperature
G28 ; home all axes
G1 Z5 F5000 ; lift nozzle

M109 S200 ; wait for temperature to be reached
G21 ; set units to millimeters
G90 ; use absolute coordinates
M82 ; use absolute distances for extrusion
G92 E0
G1 Z0.350 F7800.000
G1 E-2.00000 F2400.00000
G92 E0
G1 X70.186 Y70.130 F7800.000
G1 E2.00000 F2400.00000
G1 X70.384 Y69.932 E2.00865 F1800.000
G1 X72.976 Y67.583 E2.11688
G1 X73.466 Y67.180 E2.13653
G1 X77.339 Y64.294 E2.28597
G1 X77.985 Y63.869 E2.30989
G1 X79.717 Y62.869 E2.37178
G1 X80.349 Y62.547 E2.39373
G1 X83.702 Y61.064 E2.50715
G1 X84.150 Y60.885 E2.52209
G1 X87.438 Y59.709 E2.63014
G1 X88.060 Y59.520 E2.65026
G1 X91.448 Y58.672 E2.75831
G1 X92.083 Y58.545 E2.77834
G1 X95.540 Y58.032 E2.88648
G1 X96.187 Y57.969 E2.90659
G1 X99.675 Y57.797 E3.01465
G1 X100.333 Y57.798 E3.03501
G1 X103.813 Y57.969 E3.14282 F1800.000
G1 X104.456 Y58.032 E3.16280
G1 X107.915 Y58.545 E3.27099
G1 X108.550 Y58.671 E3.29104
G1 X111.940 Y59.520 E3.39916
G1 X112.562 Y59.709 E3.41927
G1 X115.850 Y60.885 E3.52733
G1 X116.451 Y61.134 E3.54745
G1 X119.608 Y62.627 E3.65550
G1 X120.181 Y62.934 E3.67562
G1 X123.176 Y64.729 E3.78367
G1 X123.716 Y65.090 E3.80377
G1 X126.522 Y67.171 E3.91184
G1 X127.023 Y67.582 E3.93189
G1 X129.612 Y69.929 E4.04002
G1 X130.068 Y70.384 E4.05996
G1 X132.417 Y72.976 E4.16818
G1 X132.829 Y73.477 E4.18826
G1 X134.910 Y76.283 E4.29635
G1 X135.270 Y76.822 E4.31641
G1 X137.066 Y79.819 E4.42452
G1 X137.373 Y80.393 E4.44464
G1 X138.866 Y83.549 E4.55269
G1 X139.115 Y84.150 E4.57281
G1 X140.291 Y87.438 E4.68086
G1 X140.480 Y88.060 E4.70098
G1 X141.328 Y91.448 E4.80904
G1 X141.455 Y92.085 E4.82913
G1 X142.004 Y95.826 E4.94613
G1 X142.263 Y98.314 E5.02353
G1 X142.298 Y99.000 E5.04477
G1 X142.298 Y101.000 E5.10666
G1 X142.263 Y101.686 E5.12790
G1 X141.968 Y104.456 E5.21409
G1 X141.455 Y107.915 E5.32229
G1 X141.329 Y108.548 E5.34226
G1 X140.480 Y111.940 E5.45046
G1 X140.289 Y112.569 E5.47080
G1 X139.115 Y115.850 E5.57862
G1 X138.866 Y116.451 E5.59874
G1 X137.373 Y119.607 E5.70679
G1 X137.066 Y120.181 E5.72691
G1 X135.271 Y123.176 E5.83497
G1 X134.910 Y123.717 E5.85508
G1 X132.829 Y126.522 E5.96313
G1 X132.418 Y127.024 E5.98322
G1 X130.071 Y129.612 E6.09131
G1 X129.616 Y130.068 E6.11125
G1 X127.024 Y132.417 E6.21948
G1 X126.522 Y132.829 E6.23959
G1 X123.717 Y134.910 E6.34765
G1 X123.178 Y135.270 E6.36770
G1 X120.181 Y137.066 E6.47582
G1 X119.607 Y137.373 E6.49593
G1 X116.451 Y138.866 E6.60398
G1 X115.850 Y139.115 E6.62410
G1 X112.562 Y140.291 E6.73215
G1 X111.940 Y140.480 E6.75227
G1 X108.552 Y141.328 E6.86033
G1 X107.916 Y141.455 E6.88041
G1 X104.460 Y141.968 E6.98850
G1 X103.813 Y142.031 E7.00861
G1 X100.325 Y142.203 E7.11666
G1 X99.678 Y142.203 E7.13670
G1 X96.187 Y142.031 E7.24484
G1 X95.532 Y141.966 E7.26521
G1 X92.085 Y141.455 E7.37301
G1 X91.452 Y141.329 E7.39298
G1 X88.060 Y140.480 E7.50118
G1 X87.439 Y140.291 E7.52128
G1 X84.150 Y139.115 E7.62935
G1 X83.702 Y138.936 E7.64428
G1 X80.349 Y137.453 E7.75771
G1 X79.717 Y137.131 E7.77966
G1 X77.985 Y136.131 E7.84154
G1 X77.339 Y135.706 E7.86546
G1 X73.466 Y132.820 E8.01490
G1 X72.976 Y132.417 E8.03455
G1 X70.388 Y130.071 E8.14261
G1 X69.932 Y129.616 E8.16255
G1 X67.583 Y127.024 E8.27078
G1 X67.171 Y126.522 E8.29089
G1 X65.090 Y123.717 E8.39895
G1 X64.730 Y123.177 E8.41904
G1 X62.934 Y120.181 E8.52712
G1 X62.627 Y119.608 E8.54723
G1 X61.134 Y116.451 E8.65529
G1 X60.885 Y115.850 E8.67540
G1 X59.709 Y112.562 E8.78346
G1 X59.520 Y111.940 E8.80358
G1 X58.672 Y108.552 E8.91163
G1 X58.544 Y107.906 E8.93200
G1 X58.032 Y104.460 E9.03980
G1 X57.969 Y103.813 E9.05991
G1 X57.797 Y100.325 E9.16796
G1 X57.797 Y99.675 E9.18807
G1 X57.969 Y96.187 E9.29614
G1 X58.032 Y95.544 E9.31612
G1 X58.545 Y92.085 E9.42431
G1 X58.671 Y91.451 E9.44434
G1 X59.520 Y88.060 E9.55248
G1 X59.709 Y87.438 E9.57259
G1 X60.885 Y84.150 E9.68065
G1 X61.134 Y83.549 E9.70076
G1 X62.627 Y80.392 E9.80882
G1 X62.934 Y79.819 E9.82893
G1 X64.729 Y76.824 E9.93699
G1 X65.090 Y76.283 E9.95710
G1 X67.171 Y73.478 E10.06516
G1 X67.582 Y72.976 E10.08524
G1 X69.929 Y70.388 E10.19333
G1 X70.133 Y70.183 E10.20230
G1 E8.20230 F2400.00000
G92 E0
G1 X123.996 Y123.996 F7800.000
G1 E2.00000 F2400.00000
G1 X121.529 Y126.233 E2.10305 F1800.000
G1 X118.854 Y128.217 E2.20609
G1 X116.081 Y129.879 E2.30613
G1 X112.987 Y131.353 E2.41215
G1 X109.851 Y132.475 E2.51521
G1 X106.621 Y133.284 E2.61826
G1 X103.326 Y133.773 E2.72130
G1 X100.225 Y133.925 E2.81736
G1 X99.775 Y133.925 E2.83131
G1 X96.674 Y133.773 E2.92738
G1 X93.379 Y133.284 E3.03042
G1 X90.149 Y132.475 E3.13347
G1 X87.013 Y131.353 E3.23653
G1 X83.919 Y129.879 E3.34254
G1 X81.146 Y128.217 E3.44259
G1 X78.471 Y126.233 E3.54563
G1 X76.004 Y123.996 E3.64868
G1 X73.767 Y121.529 E3.75172
G1 X71.783 Y118.854 E3.85477
G1 X69.939 Y115.777 E3.96576
G1 X69.961 Y115.766 E3.96654
G1 X68.647 Y112.987 E4.06164
G1 X67.525 Y109.851 E4.16469
G1 X66.716 Y106.621 E4.26773
G1 X66.227 Y103.326 E4.37078
G1 X66.064 Y100.000 E4.47382
G1 X66.227 Y96.674 E4.57687
G1 X66.716 Y93.379 E4.67991
G1 X67.525 Y90.149 E4.78296
G1 X68.647 Y87.013 E4.88600
G1 X69.961 Y84.234 E4.98111
G1 X69.939 Y84.223 E4.98189
G1 X71.783 Y81.146 E5.09288
G1 X73.767 Y78.471 E5.19593
G1 X76.004 Y76.004 E5.29897
G1 X78.471 Y73.767 E5.40202
G1 X81.146 Y71.783 E5.50506
G1 X83.919 Y70.121 E5.60511
G1 X87.013 Y68.647 E5.71112
G1 X90.149 Y67.525 E5.81418
G1 X93.379 Y66.716 E5.91723
G1 X96.674 Y66.227 E6.02027
G1 X99.775 Y66.075 E6.11633
G1 X100.225 Y66.075 E6.13028 F1800.000
G1 X103.326 Y66.227 E6.22635
G1 X106.621 Y66.716 E6.32939
G1 X109.851 Y67.525 E6.43244
G1 X112.987 Y68.647 E6.53550
G1 X116.081 Y70.121 E6.64151
G1 X118.854 Y71.783 E6.74156
G1 X121.529 Y73.767 E6.84460
G1 X123.996 Y76.004 E6.94765
G1 X126.233 Y78.471 E7.05069
G1 X128.217 Y81.146 E7.15374
G1 X130.061 Y84.223 E7.26473
G1 X130.039 Y84.234 E7.26551
G1 X131.353 Y87.013 E7.36061
G1 X132.475 Y90.149 E7.46366
G1 X133.284 Y93.379 E7.56670
G1 X133.773 Y96.674 E7.66975
G1 X133.936 Y100.000 E7.77279
G1 X133.773 Y103.326 E7.87584
G1 X133.284 Y106.621 E7.97889
G1 X132.475 Y109.851 E8.08193
G1 X131.353 Y112.987 E8.18497
G1 X130.039 Y115.766 E8.28008
G1 X130.061 Y115.777 E8.28086
G1 X128.217 Y118.854 E8.39185
G1 X126.233 Y121.529 E8.49490
G1 X124.047 Y123.941 E8.59562
G1 X124.118 Y124.481 F7800.000
G1 X124.868 Y124.958 F7800.000
G1 X122.353 Y127.237 E8.70064 F1800.000
G1 X119.576 Y129.297 E8.80763
G1 X116.610 Y131.075 E8.91462
G1 X113.484 Y132.553 E9.02161
G1 X110.228 Y133.718 E9.12860
G1 X106.874 Y134.558 E9.23559
G1 X103.454 Y135.066 E9.34258
G1 X100.000 Y135.235 E9.44957
G1 X96.546 Y135.066 E9.55656
G1 X93.126 Y134.558 E9.66355
G1 X89.772 Y133.718 E9.77054
G1 X86.516 Y132.553 E9.87753
G1 X83.390 Y131.075 E9.98452
G1 X82.959 Y130.816 E10.00008
G1 X82.901 Y130.916 E10.00364
G1 X81.775 Y130.266 E10.04386
G1 X81.844 Y130.148 E10.04808
G1 X80.424 Y129.297 E10.09928
G1 X77.647 Y127.237 E10.20627
G1 X75.085 Y124.915 E10.31326
G1 X72.763 Y122.353 E10.42025
G1 X70.703 Y119.576 E10.52724
G1 X68.925 Y116.610 E10.63423
G1 X67.447 Y113.484 E10.74122
G1 X66.282 Y110.228 E10.84821
G1 X65.442 Y106.874 E10.95520
G1 X64.934 Y103.454 E11.06219
G1 X64.765 Y100.000 E11.16918
G1 X64.934 Y96.546 E11.27617
G1 X65.442 Y93.126 E11.38316
G1 X66.282 Y89.772 E11.49015
G1 X67.447 Y86.516 E11.59714
G1 X68.925 Y83.390 E11.70413
G1 X70.703 Y80.424 E11.81112
G1 X72.763 Y77.647 E11.91811
G1 X75.085 Y75.085 E12.02510
G1 X77.647 Y72.763 E12.13209
G1 X80.424 Y70.703 E12.23908
G1 X81.844 Y69.852 E12.29028
G1 X81.776 Y69.734 E12.29450
G1 X82.901 Y69.084 E12.33472
G1 X82.959 Y69.184 E12.33828
G1 X83.390 Y68.925 E12.35384
G1 X86.516 Y67.447 E12.46083
G1 X89.772 Y66.282 E12.56782
G1 X93.126 Y65.442 E12.67481
G1 X96.546 Y64.934 E12.78180
G1 X100.008 Y64.765 E12.88904
G1 X103.454 Y64.934 E12.99578
G1 X106.874 Y65.442 E13.10277 F1800.000
G1 X110.228 Y66.282 E13.20976
G1 X113.484 Y67.447 E13.31675
G1 X116.610 Y68.925 E13.42374
G1 X119.576 Y70.703 E13.53073
G1 X122.353 Y72.763 E13.63772
G1 X124.915 Y75.085 E13.74471
G1 X127.237 Y77.647 E13.85170
G1 X129.297 Y80.424 E13.95869
G1 X131.075 Y83.390 E14.06568
G1 X132.553 Y86.516 E14.17267
G1 X133.718 Y89.772 E14.27966
G1 X134.558 Y93.126 E14.38665
G1 X135.066 Y96.546 E14.49364
G1 X135.203 Y99.350 E14.58049
G1 X135.323 Y99.350 E14.58420
G1 X135.323 Y100.650 E14.62442
G1 X135.203 Y100.650 E14.62813
G1 X135.066 Y103.454 E14.71498
G1 X134.558 Y106.874 E14.82197
G1 X133.718 Y110.228 E14.92896
G1 X132.553 Y113.484 E15.03595
G1 X131.075 Y116.610 E15.14294
G1 X129.297 Y119.576 E15.24993
G1 X127.237 Y122.353 E15.35692
G1 X124.923 Y124.907 E15.46357
G1 X124.387 Y124.820 F7800.000
G1 E13.46357 F2400.00000
G92 E0
G1 X104.045 Y66.688 F7800.000
G1 E2.00000 F2400.00000
G1 X101.754 Y85.551 E2.58794 F1800.000
G1 E0.58794 F2400.00000
G92 E0
G1 X108.268 Y88.021 F7800.000
G1 E2.00000 F2400.00000
G1 X119.067 Y72.377 E2.58817 F1800.000
G1 E0.58817 F2400.00000
G92 E0
G1 X125.111 Y77.754 F7800.000
G1 E2.00000 F2400.00000
G1 X118.966 Y83.198 E2.25401 F1800.000
G1 E0.25401 F2400.00000
G92 E0
G1 X129.729 Y84.397 F7800.000
G1 E2.00000 F2400.00000
G1 X112.888 Y93.236 E2.58848 F1800.000
G1 E0.58848 F2400.00000
G92 E0
G1 X114.555 Y100.000 F7800.000
G1 E2.00000 F2400.00000
G1 X133.586 Y100.000 E2.58883 F1800.000
G1 E0.58883 F2400.00000
G92 E0
G1 X132.571 Y108.028 F7800.000
G1 E2.00000 F2400.00000
G1 X124.602 Y106.064 E2.25395 F1800.000
G1 E0.25395 F2400.00000
G92 E0
G1 X129.729 Y115.603 F7800.000
G1 E2.00000 F2400.00000
G1 X112.888 Y106.764 E2.58848 F1800.000
G1 E0.58848 F2400.00000
G92 E0
G1 X108.268 Y111.979 F7800.000
G1 E2.00000 F2400.00000
G1 X119.067 Y127.623 E2.58817 F1800.000
G1 E0.58817 F2400.00000
G92 E0
G1 X125.111 Y122.246 F7800.000
G1 E2.00000 F2400.00000
G1 X118.966 Y116.802 E2.25401 F1800.000
G1 E0.25401 F2400.00000
G92 E0
G1 X108.985 Y123.691 F7800.000
G1 E2.00000 F2400.00000
G1 X111.897 Y131.371 E2.25413 F1800.000
G1 E0.25413 F2400.00000
G92 E0
G1 X104.045 Y133.312 F7800.000
G1 E2.00000 F2400.00000
G1 X101.754 Y114.449 E2.58794 F1800.000
G1 E0.58794 F2400.00000
G92 E0
G1 X94.839 Y113.609 F7800.000
G1 E2.00000 F2400.00000
G1 X88.103 Y131.371 E2.58776 F1800.000
G1 E0.58776 F2400.00000
G92 E0
G1 X95.955 Y133.312 F7800.000
G1 E2.00000 F2400.00000
G1 X96.946 Y125.153 E2.25431 F1800.000
G1 E0.25431 F2400.00000
G92 E0
G1 X85.606 Y120.853 F7800.000
G1 E2.00000 F2400.00000
G1 X80.933 Y127.623 E2.25454 F1800.000
G1 E0.25454 F2400.00000
G92 E0
G1 X74.889 Y122.246 F7800.000
G1 E2.00000 F2400.00000
G1 X89.105 Y109.652 E2.58765 F1800.000
G1 E0.58765 F2400.00000
G92 E0
G1 X85.868 Y103.483 F7800.000
G1 E2.00000 F2400.00000
G1 X67.429 Y108.028 E2.58759 F1800.000
G1 E0.58759 F2400.00000
G92 E0
G1 X70.271 Y115.603 F7800.000
G1 E2.00000 F2400.00000
G1 X77.564 Y111.775 E2.25484 F1800.000
G1 E0.25484 F2400.00000
G92 E0
G1 X74.662 Y100.000 F7800.000
G1 E2.00000 F2400.00000
G1 X66.414 Y100.000 E2.25520 F1800.000
G1 E0.25520 F2400.00000
G92 E0
G1 X67.429 Y91.972 F7800.000
G1 E2.00000 F2400.00000
G1 X85.868 Y96.517 E2.58759 F1800.000
G1 E0.58759 F2400.00000
G92 E0
G1 X89.105 Y90.348 F7800.000
G1 E2.00000 F2400.00000
G1 X74.889 Y77.754 E2.58765 F1800.000
G1 E0.58765 F2400.00000
G92 E0
G1 X80.933 Y72.377 F7800.000
G1 E2.00000 F2400.00000
G1 X85.606 Y79.147 E2.25454 F1800.000
G1 E0.25454 F2400.00000
G92 E0
G1 X88.103 Y68.629 F7800.000
G1 E2.00000 F2400.00000
G1 X94.839 Y86.391 E2.58776 F1800.000
G1 E0.58776 F2400.00000
G92 E0
G1 X96.946 Y74.847 F7800.000
G1 E2.00000 F2400.00000
G1 X95.955 Y66.688 E2.25431 F1800.000
G1 E0.25431 F2400.00000
G92 E0
G1 X111.897 Y68.629 F7800.000
G1 E2.00000 F2400.00000
G1 X108.985 Y76.309 E2.25413 F1800.000
G1 E0.25413 F2400.00000
G92 E0
G1 X124.602 Y93.936 F7800.000
G1 E2.00000 F2400.00000
G1 X132.571 Y91.972 E2.25395 F1800.000
G1 E0.25395 F2400.00000
G92 E0
G1 X77.564 Y88.225 F7800.000
G1 E2.00000 F2400.00000
G1 X70.271 Y84.397 E2.25484 F1800.000
G1 E0.25484 F2400.00000
G92 E0
G1 X124.432 Y124.477 F7800.000
G1 E2.00000 F2400.00000
G1 X121.941 Y126.735 E2.22057 F1800.000
G1 X119.228 Y128.747 E2.44211
G1 X116.301 Y130.498 E2.66586
G1 X113.221 Y131.958 E2.88952
G1 X110.040 Y133.096 E3.11116
G1 X106.747 Y133.921 E3.33381
G1 X103.373 Y134.420 E3.55755
G1 X100.000 Y134.580 E3.77910
G1 X96.610 Y134.419 E4.00174
G1 X93.253 Y133.921 E4.22440
G1 X89.976 Y133.101 E4.44597
G1 X86.765 Y131.953 E4.66971
G1 X83.699 Y130.498 E4.89235
G1 X83.020 Y130.096 E4.94408
G1 X82.739 Y130.001 E4.96352
G1 X82.658 Y129.954 E4.96967
G1 X82.441 Y129.749 E4.98924
G1 X80.785 Y128.757 E5.11587
G1 X78.059 Y126.735 E5.33853
G1 X75.544 Y124.456 E5.56119
G1 X73.276 Y121.953 E5.78276
G1 X71.243 Y119.215 E6.00650
G1 X69.498 Y116.304 E6.22915
G1 X69.236 Y115.813 E6.26564
G1 X69.168 Y115.606 E6.27994
G1 X68.047 Y113.235 E6.45197
G1 X66.904 Y110.040 E6.67462
G1 X66.079 Y106.747 E6.89728
G1 X65.583 Y103.406 E7.11885
G1 X65.415 Y99.976 E7.34417
G1 X65.581 Y96.610 E7.56524 F1800.000
G1 X66.076 Y93.269 E7.78681
G1 X66.899 Y89.976 E8.00946
G1 X68.047 Y86.765 E8.23320
G1 X69.168 Y84.394 E8.40523
G1 X69.236 Y84.187 E8.41953
G1 X69.498 Y83.696 E8.45601
G1 X71.243 Y80.785 E8.67867
G1 X73.276 Y78.047 E8.90241
G1 X75.544 Y75.544 E9.12398
G1 X78.047 Y73.276 E9.34555
G1 X80.785 Y71.243 E9.56929
G1 X82.441 Y70.251 E9.69592
G1 X82.659 Y70.046 E9.71550
G1 X82.739 Y69.999 E9.72164
G1 X83.020 Y69.904 E9.74109
G1 X83.699 Y69.502 E9.79281
G1 X86.765 Y68.047 E10.01545
G1 X88.047 Y67.588 E10.10481
G1 X89.960 Y66.904 E10.23811
G1 X93.253 Y66.079 E10.46077
G1 X96.610 Y65.581 E10.68341
G1 X100.008 Y65.420 E10.90660
G1 X103.390 Y65.581 E11.12870
G1 X104.478 Y65.742 E11.20086
G1 X106.747 Y66.079 E11.35135
G1 X110.024 Y66.899 E11.57293
G1 X113.235 Y68.047 E11.79666
G1 X116.301 Y69.502 E12.01930
G1 X119.228 Y71.253 E12.24306
G1 X121.941 Y73.265 E12.46460
G1 X124.444 Y75.533 E12.68617
G1 X126.735 Y78.059 E12.90991
G1 X128.757 Y80.785 E13.13257
G1 X130.502 Y83.696 E13.35522
G1 X130.764 Y84.187 E13.39171
G1 X130.832 Y84.394 E13.40600
G1 X131.953 Y86.765 E13.57804
G1 X133.091 Y89.945 E13.79961
G1 X133.921 Y93.253 E14.02334
G1 X134.419 Y96.610 E14.24600
G1 X134.570 Y99.679 E14.44757
G1 X134.628 Y99.926 E14.46420
G1 X134.628 Y100.074 E14.47396
G1 X134.570 Y100.321 E14.49059
G1 X134.419 Y103.390 E14.69216
G1 X133.924 Y106.731 E14.91373
G1 X133.096 Y110.040 E15.13746
G1 X131.953 Y113.235 E15.36012
G1 X130.832 Y115.606 E15.53215
G1 X130.764 Y115.813 E15.54645
G1 X130.502 Y116.304 E15.58293
G1 X128.747 Y119.228 E15.80667
G1 X126.735 Y121.941 E16.02824
G1 X124.485 Y124.424 E16.24807
G1 Z0.650 F7800.000
G1 X123.926 Y123.926 F7800.000
G1 X121.465 Y126.156 E16.30946 F1800.000
G1 X118.798 Y128.134 E16.37085
G1 X115.817 Y129.921 E16.43512
G1 X115.809 Y129.907 E16.43540
G1 X112.948 Y131.260 E16.49392
G1 X109.822 Y132.379 E16.55531
G1 X106.601 Y133.186 E16.61670
G1 X103.317 Y133.673 E16.67809
G1 X100.000 Y133.836 E16.73948
G1 X96.683 Y133.673 E16.80087
G1 X93.399 Y133.186 E16.86226
G1 X90.178 Y132.379 E16.92365
G1 X87.920 Y131.571 E16.96799
G1 X87.052 Y131.260 E16.98504
G1 X84.191 Y129.907 E17.04355
G1 X84.183 Y129.921 E17.04384
G1 X81.202 Y128.134 E17.10811
G1 X78.535 Y126.156 E17.16950
G1 X76.074 Y123.926 E17.23089
G1 X73.844 Y121.465 E17.29228
G1 X71.866 Y118.798 E17.35367
G1 X70.079 Y115.817 E17.41794
G1 X70.093 Y115.809 E17.41822
G1 X68.740 Y112.948 E17.47674
G1 X67.621 Y109.822 E17.53813
G1 X66.814 Y106.601 E17.59952
G1 X66.327 Y103.317 E17.66091
G1 X66.164 Y100.000 E17.72230 F1800.000
G1 X66.327 Y96.683 E17.78369
G1 X66.425 Y96.024 E17.79602
G1 X66.814 Y93.399 E17.84508
G1 X67.621 Y90.178 E17.90647
G1 X68.740 Y87.052 E17.96786
G1 X70.093 Y84.191 E18.02637
G1 X70.079 Y84.183 E18.02666
G1 X71.866 Y81.202 E18.09093
G1 X73.844 Y78.535 E18.15232
G1 X76.074 Y76.074 E18.21371
G1 X78.535 Y73.844 E18.27510
G1 X81.202 Y71.866 E18.33649
G1 X84.183 Y70.079 E18.40076
