; generated by Slic3r 1.2.9 on 2015-08-04 at 18:17:06

; external perimeters extrusion width = 0.50mm
; perimeters extrusion width = 0.72mm
; infill extrusion width = 0.72mm
; solid infill extrusion width = 0.72mm
; top infill extrusion width = 0.72mm

M107
M104 S200 ; set temperature
G28 ; home all axes
G1 Z5 F5000 ; lift nozzle

M109 S200 ; wait for temperature to be reached
G21 ; set units to millimeters
G90 ; use absolute coordinates
M82 ; use absolute distances for extrusion
G92 E0
G1 Z0.350 F7800.000
G1 E-2.00000 F2400.00000
G92 E0
G1 X85.916 Y79.253 F7800.000
G1 E2.00000 F2400.00000
G1 X87.026 Y78.200 E2.04734 F1800.000
G1 X97.087 Y70.655 E2.43646
G1 X97.769 Y70.189 E2.46201
G1 X98.264 Y69.892 E2.47989
G1 X99.166 Y69.431 E2.51121
G1 X99.566 Y69.257 E2.52472
G1 X100.107 Y69.050 E2.54263
G1 X101.076 Y68.752 E2.57401
G1 X102.067 Y68.540 E2.60536
G1 X102.498 Y68.475 E2.61885
G1 X103.509 Y68.388 E2.65025
G1 X104.105 Y68.379 E2.66868
G1 X105.099 Y68.430 E2.69949 F1800.000
G1 X105.533 Y68.479 E2.71300
G1 X106.530 Y68.656 E2.74433
G1 X107.510 Y68.920 E2.77574
G1 X108.462 Y69.268 E2.80711
G1 X109.380 Y69.698 E2.83847
G1 X110.257 Y70.206 E2.86982
G1 X111.088 Y70.789 E2.90124
G1 X111.863 Y71.441 E2.93257
G1 X112.580 Y72.160 E2.96398
G1 X113.230 Y72.937 E2.99532
G1 X113.811 Y73.769 E3.02672
G1 X114.109 Y74.264 E3.04461
G1 X114.569 Y75.166 E3.07592
G1 X114.951 Y76.106 E3.10732
G1 X115.249 Y77.076 E3.13872
G1 X115.461 Y78.066 E3.17006
G1 X115.586 Y79.073 E3.20146
G1 X115.624 Y79.913 E3.22746
G1 X115.624 Y120.087 E4.47051
G1 X115.586 Y120.927 E4.49651
G1 X115.525 Y121.502 E4.51441
G1 X115.460 Y121.934 E4.52792
G1 X115.249 Y122.924 E4.55925
G1 X115.089 Y123.481 E4.57716
G1 X114.743 Y124.434 E4.60856
G1 X114.317 Y125.352 E4.63987
G1 X114.109 Y125.736 E4.65337
G1 X113.570 Y126.595 E4.68475
G1 X113.230 Y127.063 E4.70266
G1 X112.958 Y127.405 E4.71616
G1 X112.280 Y128.157 E4.74750
G1 X111.863 Y128.559 E4.76541
G1 X111.088 Y129.211 E4.79674
G1 X110.257 Y129.794 E4.82816
G1 X109.885 Y130.022 E4.84166
G1 X108.990 Y130.496 E4.87300
G1 X108.462 Y130.732 E4.89088
G1 X107.510 Y131.080 E4.92225
G1 X106.530 Y131.344 E4.95366
G1 X105.533 Y131.521 E4.98499
G1 X105.099 Y131.570 E4.99849
G1 X104.086 Y131.622 E5.02988
G1 X103.074 Y131.585 E5.06123
G1 X102.499 Y131.525 E5.07912
G1 X101.501 Y131.350 E5.11046
G1 X101.076 Y131.248 E5.12399
G1 X100.107 Y130.950 E5.15536
G1 X99.166 Y130.569 E5.18676
G1 X98.264 Y130.108 E5.21810
G1 X97.769 Y129.811 E5.23597
G1 X97.087 Y129.345 E5.26153
G1 X87.026 Y121.800 E5.65065
G1 X85.457 Y120.127 E5.72161
G1 X84.552 Y118.020 E5.79257
G1 X84.376 Y116.500 E5.83991
G1 X84.376 Y83.500 E6.86097
G1 X84.772 Y81.241 E6.93194
G1 X85.878 Y79.318 E7.00058
G1 E5.00058 F2400.00000
G92 E0
G1 X107.490 Y121.627 F7800.000
G1 E2.00000 F2400.00000
G1 X107.335 Y121.925 E2.01039 F1800.000
G1 X107.154 Y122.208 E2.02079
G1 X106.950 Y122.475 E2.03118
G1 X106.723 Y122.723 E2.04157
G1 X106.475 Y122.950 E2.05197
G1 X106.209 Y123.154 E2.06236
G1 X105.926 Y123.334 E2.07275
G1 X105.628 Y123.490 E2.08314
G1 X105.317 Y123.618 E2.09354
G1 X105.010 Y123.715 E2.10350
G1 X104.670 Y123.792 E2.11430
G1 X104.336 Y123.836 E2.12472
G1 X104.000 Y123.850 E2.13511
G1 X103.665 Y123.836 E2.14550
G1 X103.332 Y123.792 E2.15590
G1 X103.004 Y123.719 E2.16629
G1 X102.697 Y123.622 E2.17625
G1 X102.374 Y123.490 E2.18705
G1 X102.075 Y123.334 E2.19747
G1 X101.792 Y123.154 E2.20786
G1 X101.525 Y122.950 E2.21825
G1 X101.278 Y122.723 E2.22865
G1 X101.051 Y122.475 E2.23904
G1 X100.846 Y122.208 E2.24943
G1 X100.666 Y121.925 E2.25984
G1 X100.505 Y121.614 E2.27065
G1 X100.382 Y121.317 E2.28061
G1 X100.281 Y120.997 E2.29100
G1 X100.209 Y120.669 E2.30140
G1 X100.165 Y120.336 E2.31179
G1 X100.150 Y120.000 E2.32218
G1 X100.165 Y119.664 E2.33257
G1 X100.209 Y119.331 E2.34297
G1 X100.281 Y119.003 E2.35336
G1 X100.382 Y118.683 E2.36376
G1 X100.511 Y118.373 E2.37415
G1 X100.666 Y118.075 E2.38454
G1 X100.846 Y117.792 E2.39493
G1 X101.051 Y117.525 E2.40533
G1 X101.278 Y117.277 E2.41572
G1 X101.525 Y117.050 E2.42612
G1 X101.792 Y116.846 E2.43651
G1 X102.075 Y116.666 E2.44690
G1 X102.373 Y116.510 E2.45729
G1 X102.684 Y116.382 E2.46769
G1 X103.004 Y116.281 E2.47808
G1 X103.332 Y116.208 E2.48847
G1 X103.665 Y116.164 E2.49887
G1 X103.986 Y116.150 E2.50883 F1800.000
G1 X104.335 Y116.164 E2.51963
G1 X104.669 Y116.208 E2.53005
G1 X104.997 Y116.281 E2.54044
G1 X105.317 Y116.382 E2.55083
G1 X105.628 Y116.510 E2.56122
G1 X105.926 Y116.666 E2.57162
G1 X106.209 Y116.846 E2.58201
G1 X106.475 Y117.050 E2.59240
G1 X106.723 Y117.277 E2.60280
G1 X106.950 Y117.525 E2.61319
G1 X107.154 Y117.792 E2.62358
G1 X107.335 Y118.075 E2.63397
G1 X107.490 Y118.373 E2.64437
G1 X107.619 Y118.683 E2.65476
G1 X107.719 Y119.003 E2.66515
G1 X107.792 Y119.331 E2.67555
G1 X107.836 Y119.664 E2.68594
G1 X107.851 Y120.000 E2.69633
G1 X107.836 Y120.336 E2.70673
G1 X107.792 Y120.669 E2.71712
G1 X107.719 Y120.997 E2.72751
G1 X107.619 Y121.317 E2.73791
G1 X107.519 Y121.558 E2.74598
G1 X107.679 Y121.905 F7800.000
G1 E0.74598 F2400.00000
G92 E0
G1 X100.797 Y116.023 F7800.000
G1 E2.00000 F2400.00000
G1 X100.393 Y116.393 E2.01695 F1800.000
G1 X100.093 Y116.721 E2.03072
G1 X99.822 Y117.074 E2.04450
G1 X99.622 Y117.387 E2.05597
G1 X96.704 Y114.850 E2.17563
G1 X99.448 Y114.850 E2.26055
G1 X100.741 Y115.973 E2.31354
G1 X101.822 Y116.086 F7800.000
G1 X101.433 Y116.334 E2.32781 F1800.000
G1 X101.123 Y116.571 E2.33989
G1 X100.836 Y116.835 E2.35198
G1 X100.572 Y117.123 E2.36406
G1 X100.334 Y117.433 E2.37614
G1 X100.124 Y117.762 E2.38822
G1 X99.944 Y118.108 E2.40030
G1 X99.826 Y118.392 E2.40981
G1 X96.528 Y115.525 E2.54504
G1 X96.225 Y115.525 E2.55440
G1 X96.225 Y114.225 E2.59463
G1 X99.682 Y114.225 E2.70158
G1 X101.766 Y116.037 E2.78702
G1 X95.600 Y115.100 F7800.000
G1 X95.600 Y113.600 E2.83343 F1800.000
G1 X99.915 Y113.600 E2.96694
G1 X102.288 Y115.663 E3.06421
G1 X102.876 Y115.488 E3.08317
G1 X103.273 Y115.408 E3.09572
G1 X103.676 Y115.362 E3.10828
G1 X104.081 Y115.351 E3.12082
G1 X104.486 Y115.376 E3.13338
G1 X104.888 Y115.436 E3.14593
G1 X105.282 Y115.530 E3.15848
G1 X105.667 Y115.659 E3.17103
G1 X106.039 Y115.821 E3.18358
G1 X106.395 Y116.015 E3.19613
G1 X106.733 Y116.238 E3.20868
G1 X107.051 Y116.491 E3.22123
G1 X107.345 Y116.770 E3.23378
G1 X107.614 Y117.074 E3.24633
G1 X107.855 Y117.400 E3.25888
G1 X108.067 Y117.746 E3.27144
G1 X108.248 Y118.109 E3.28398
G1 X108.397 Y118.486 E3.29654
G1 X108.512 Y118.875 E3.30909
G1 X108.593 Y119.273 E3.32164
G1 X108.639 Y119.676 E3.33419
G1 X108.649 Y120.081 E3.34674
G1 X108.625 Y120.486 E3.35929
G1 X108.565 Y120.887 E3.37184
G1 X108.470 Y121.282 E3.38439
G1 X108.341 Y121.666 E3.39694
G1 X108.179 Y122.038 E3.40949
G1 X107.986 Y122.395 E3.42204
G1 X107.762 Y122.733 E3.43459
G1 X107.509 Y123.050 E3.44715
G1 X107.230 Y123.345 E3.45970
G1 X106.927 Y123.613 E3.47225
G1 X106.600 Y123.855 E3.48480
G1 X106.255 Y124.067 E3.49735
G1 X105.892 Y124.248 E3.50990
G1 X105.514 Y124.396 E3.52245
G1 X105.125 Y124.512 E3.53500
G1 X104.728 Y124.592 E3.54755
G1 X104.325 Y124.638 E3.56010
G1 X103.919 Y124.649 E3.57265
G1 X103.514 Y124.624 E3.58520
G1 X103.113 Y124.564 E3.59775
G1 X102.719 Y124.470 E3.61030
G1 X102.334 Y124.341 E3.62285
G1 X101.962 Y124.179 E3.63541
G1 X101.606 Y123.985 E3.64796
G1 X101.267 Y123.762 E3.66051
G1 X100.950 Y123.509 E3.67306
G1 X100.656 Y123.230 E3.68561
G1 X100.387 Y122.926 E3.69816
G1 X100.146 Y122.600 E3.71071
G1 X99.934 Y122.254 E3.72326
G1 X99.753 Y121.891 E3.73581
G1 X99.604 Y121.514 E3.74836
G1 X99.494 Y121.143 E3.76034
G1 X99.408 Y120.727 E3.77348
G1 X99.362 Y120.324 E3.78601
G1 X99.351 Y119.919 E3.79856
G1 X99.376 Y119.514 E3.81111
G1 X99.467 Y118.908 E3.83008
G1 X96.294 Y116.150 E3.96014
G1 X91.350 Y116.150 E4.11311
G1 X91.350 Y113.600 E4.19201
G1 X92.400 Y113.600 E4.22450
G1 X92.400 Y115.100 E4.27091
G1 X95.525 Y115.100 E4.36761
G1 X96.100 Y115.100 F7800.000
G1 X95.913 Y115.625 F7800.000
G1 X92.088 Y115.625 E4.61852 F1800.000
G1 X91.912 Y115.589 E4.63032
G1 X91.875 Y115.412 E4.64212
G1 X91.875 Y113.912 E4.74052
G1 E2.74052 F2400.00000
G92 E0
G1 X97.992 Y115.248 F7800.000
G1 E2.00000 F2400.00000
G1 X98.459 Y115.716 E2.02834 F1800.000
G1 X99.666 Y115.699 E2.08003
G1 X100.148 Y116.181 E2.10923
G1 X102.268 Y116.195 F7800.000
G1 X102.358 Y116.148 E2.11238 F1800.000
G1 X102.408 Y116.053 E2.11570
G1 X102.550 Y116.003 E2.12035
G1 X102.973 Y115.878 E2.13399
G1 X103.266 Y115.815 E2.14328
G1 X103.626 Y115.768 E2.15452
G1 X103.989 Y115.752 E2.16576
G1 X104.373 Y115.768 E2.17765
G1 X104.742 Y115.817 E2.18916
G1 X105.104 Y115.897 E2.20063
G1 X105.457 Y116.009 E2.21209
G1 X105.799 Y116.151 E2.22356
G1 X106.128 Y116.322 E2.23503
G1 X106.440 Y116.522 E2.24650
G1 X106.734 Y116.748 E2.25796
G1 X107.007 Y116.998 E2.26944
G1 X107.258 Y117.272 E2.28091
G1 X107.479 Y117.560 E2.29214
G1 X107.716 Y117.940 E2.30602
G1 X107.882 Y118.272 E2.31748
G1 X108.018 Y118.617 E2.32896
G1 X108.123 Y118.972 E2.34042
G1 X108.197 Y119.335 E2.35189
G1 X108.239 Y119.704 E2.36336
G1 X108.248 Y120.074 E2.37483
G1 X108.226 Y120.444 E2.38629
G1 X108.171 Y120.811 E2.39776
G1 X108.084 Y121.171 E2.40923
G1 X107.967 Y121.522 E2.42070
G1 X107.819 Y121.862 E2.43217
G1 X107.642 Y122.188 E2.44364
G1 X107.438 Y122.497 E2.45510
G1 X107.207 Y122.787 E2.46658
G1 X106.952 Y123.056 E2.47804
G1 X106.674 Y123.302 E2.48951
G1 X106.376 Y123.522 E2.50098
G1 X106.060 Y123.716 E2.51245
G1 X105.729 Y123.881 E2.52392
G1 X105.384 Y124.017 E2.53539
G1 X105.028 Y124.122 E2.54685
G1 X104.736 Y124.185 E2.55610
G1 X104.367 Y124.233 E2.56761
G1 X103.997 Y124.249 E2.57908
G1 X103.626 Y124.232 E2.59055
G1 X103.259 Y124.183 E2.60202
G1 X102.897 Y124.103 E2.61348
G1 X102.558 Y123.996 E2.62449
G1 X102.203 Y123.850 E2.63638
G1 X101.879 Y123.681 E2.64766
G1 X101.503 Y123.437 E2.66153
G1 X101.213 Y123.207 E2.67300
G1 X100.944 Y122.951 E2.68447
G1 X100.699 Y122.674 E2.69594
G1 X100.478 Y122.376 E2.70740
G1 X100.284 Y122.060 E2.71887
G1 X100.119 Y121.728 E2.73034
G1 X99.983 Y121.383 E2.74181
G1 X99.882 Y121.045 E2.75273
G1 X99.804 Y120.663 E2.76479
G1 X99.768 Y120.367 E2.77404
G1 X99.752 Y119.996 E2.78551
G1 X99.768 Y119.626 E2.79697
G1 X99.890 Y118.862 E2.82091
G1 E0.82091 F2400.00000
G92 E0
G1 X95.600 Y111.400 F7800.000
G1 E2.00000 F2400.00000
G1 X95.600 Y110.850 E2.01702 F1800.000
G1 X96.752 Y110.850 E2.05264
G1 X97.384 Y111.400 E2.07858
G1 X95.675 Y111.400 E2.13146
G1 X95.850 Y110.967 F7800.000
G1 E0.13146 F2400.00000
G92 E0
G1 X93.151 Y100.400 F7800.000
G1 E2.00000 F2400.00000
G1 X92.600 Y100.400 E2.01703 F1800.000
G1 X92.600 Y99.600 E2.04180
G1 X93.151 Y99.600 E2.05883
G1 X93.151 Y100.325 E2.08128
G1 X93.776 Y101.025 F7800.000
G1 X91.975 Y101.025 E2.13698 F1800.000
G1 X91.975 Y98.975 E2.20041
G1 X93.776 Y98.975 E2.25612
G1 X93.776 Y100.950 E2.31723
G1 X92.400 Y101.650 F7800.000
G1 X92.400 Y111.400 E2.61891 F1800.000
G1 X91.350 Y111.400 E2.65140
G1 X91.350 Y88.600 E3.35686
G1 X92.400 Y88.600 E3.38935
G1 X92.400 Y98.350 E3.69103
G1 X94.400 Y98.350 E3.75291
G1 X94.400 Y101.650 E3.85501
G1 X92.475 Y101.650 E3.91458
G1 X91.900 Y101.650 F7800.000
G1 X91.875 Y101.338 F7800.000
G1 X91.875 Y111.088 E4.55419 F1800.000
G1 X91.875 Y98.662 F7800.000
G1 X91.875 Y88.912 E5.19381 F1800.000
G1 E3.19381 F2400.00000
G92 E0
G1 X95.600 Y89.150 F7800.000
G1 E2.00000 F2400.00000
G1 X95.600 Y88.600 E2.01702 F1800.000
G1 X97.384 Y88.600 E2.07222
G1 X96.752 Y89.150 E2.09816
G1 X95.675 Y89.150 E2.13146
G1 X95.850 Y88.717 F7800.000
G1 E0.13146 F2400.00000
G92 E0
G1 X101.394 Y82.829 F7800.000
G1 E2.00000 F2400.00000
G1 X101.051 Y82.475 E2.01524 F1800.000
G1 X100.846 Y82.208 E2.02563
G1 X100.666 Y81.925 E2.03604
G1 X100.505 Y81.614 E2.04685
G1 X100.382 Y81.317 E2.05681
G1 X100.281 Y80.997 E2.06720
G1 X100.209 Y80.669 E2.07760
G1 X100.165 Y80.336 E2.08799
G1 X100.150 Y80.000 E2.09838
G1 X100.165 Y79.664 E2.10877
G1 X100.209 Y79.331 E2.11917
G1 X100.281 Y79.003 E2.12956
G1 X100.382 Y78.683 E2.13996
G1 X100.511 Y78.373 E2.15035
G1 X100.666 Y78.075 E2.16074
G1 X100.846 Y77.792 E2.17113
G1 X101.051 Y77.525 E2.18153
G1 X101.278 Y77.277 E2.19192
G1 X101.525 Y77.050 E2.20232
G1 X101.792 Y76.846 E2.21271
G1 X102.075 Y76.666 E2.22310
G1 X102.373 Y76.510 E2.23349
G1 X102.684 Y76.382 E2.24389
G1 X103.004 Y76.281 E2.25428
G1 X103.332 Y76.208 E2.26467
G1 X103.665 Y76.164 E2.27507
G1 X103.986 Y76.150 E2.28503 F1800.000
G1 X104.335 Y76.164 E2.29583
G1 X104.669 Y76.208 E2.30625
G1 X104.997 Y76.281 E2.31664
G1 X105.317 Y76.382 E2.32703
G1 X105.628 Y76.510 E2.33742
G1 X105.926 Y76.666 E2.34782
G1 X106.209 Y76.846 E2.35821
G1 X106.475 Y77.050 E2.36860
G1 X106.723 Y77.277 E2.37900
G1 X106.950 Y77.525 E2.38939
G1 X107.154 Y77.792 E2.39978
G1 X107.335 Y78.075 E2.41017
G1 X107.490 Y78.373 E2.42057
G1 X107.619 Y78.683 E2.43096
G1 X107.719 Y79.003 E2.44135
G1 X107.792 Y79.331 E2.45175
G1 X107.836 Y79.664 E2.46214
G1 X107.851 Y80.000 E2.47253
G1 X107.836 Y80.336 E2.48295
G1 X107.789 Y80.682 E2.49375
G1 X107.719 Y80.997 E2.50371
G1 X107.619 Y81.317 E2.51410
G1 X107.490 Y81.627 E2.52450
G1 X107.335 Y81.925 E2.53489
G1 X107.154 Y82.208 E2.54528
G1 X106.950 Y82.475 E2.55568
G1 X106.723 Y82.723 E2.56607
G1 X106.475 Y82.950 E2.57647
G1 X106.209 Y83.154 E2.58686
G1 X105.926 Y83.334 E2.59725
G1 X105.628 Y83.490 E2.60764
G1 X105.317 Y83.618 E2.61804
G1 X104.997 Y83.719 E2.62843
G1 X104.669 Y83.792 E2.63882
G1 X104.336 Y83.836 E2.64922
G1 X104.000 Y83.850 E2.65961
G1 X103.665 Y83.836 E2.67000
G1 X103.332 Y83.792 E2.68040
G1 X103.004 Y83.719 E2.69079
G1 X102.684 Y83.618 E2.70118
G1 X102.373 Y83.490 E2.71157
G1 X102.075 Y83.334 E2.72197
G1 X101.792 Y83.154 E2.73236
G1 X101.449 Y82.879 E2.74596
G1 X100.921 Y82.967 F7800.000
G1 X100.797 Y83.977 F7800.000
G1 X99.448 Y85.150 E2.80127 F1800.000
G1 X96.704 Y85.150 E2.88619
G1 X99.622 Y82.613 E3.00585
G1 X99.822 Y82.926 E3.01733
G1 X100.093 Y83.279 E3.03110
G1 X100.393 Y83.607 E3.04487
G1 X100.742 Y83.927 E3.05950
G1 X101.822 Y83.914 F7800.000
G1 X99.682 Y85.775 E3.14726 F1800.000
G1 X96.225 Y85.775 E3.25421
G1 X96.225 Y84.475 E3.29444
G1 X96.528 Y84.475 E3.30380
G1 X99.826 Y81.608 E3.43903
G1 X99.938 Y81.878 E3.44807
G1 X100.123 Y82.236 E3.46056
G1 X100.334 Y82.567 E3.47270
G1 X100.572 Y82.877 E3.48478
G1 X100.836 Y83.165 E3.49686
G1 X101.123 Y83.429 E3.50894
G1 X101.433 Y83.666 E3.52102
G1 X101.759 Y83.874 E3.53298
G1 X95.600 Y84.900 F7800.000
G1 X92.400 Y84.900 E3.63199 F1800.000
G1 X92.400 Y86.400 E3.67840
G1 X91.350 Y86.400 E3.71089
G1 X91.350 Y83.850 E3.78979
G1 X96.294 Y83.850 E3.94276
G1 X99.467 Y81.092 E4.07283
G1 X99.376 Y80.486 E4.09179
G1 X99.351 Y80.081 E4.10434
G1 X99.362 Y79.676 E4.11689
G1 X99.406 Y79.291 E4.12887
G1 X99.489 Y78.875 E4.14201
G1 X99.604 Y78.486 E4.15454
G1 X99.746 Y78.126 E4.16652
G1 X99.934 Y77.745 E4.17966
G1 X100.146 Y77.400 E4.19219
G1 X100.387 Y77.074 E4.20474
G1 X100.656 Y76.770 E4.21729
G1 X100.950 Y76.491 E4.22984
G1 X101.267 Y76.238 E4.24239
G1 X101.606 Y76.015 E4.25494
G1 X101.962 Y75.821 E4.26749
G1 X102.334 Y75.659 E4.28005
G1 X102.719 Y75.530 E4.29260
G1 X103.113 Y75.436 E4.30515
G1 X103.514 Y75.376 E4.31768
G1 X103.938 Y75.352 E4.33082
G1 X104.325 Y75.362 E4.34280
G1 X104.728 Y75.408 E4.35535
G1 X105.125 Y75.488 E4.36790
G1 X105.514 Y75.604 E4.38045
G1 X105.892 Y75.752 E4.39300
G1 X106.255 Y75.933 E4.40555
G1 X106.600 Y76.145 E4.41810
G1 X106.927 Y76.387 E4.43065
G1 X107.230 Y76.655 E4.44320
G1 X107.509 Y76.950 E4.45575
G1 X107.762 Y77.267 E4.46831
G1 X107.986 Y77.605 E4.48085
G1 X108.179 Y77.962 E4.49341
G1 X108.341 Y78.334 E4.50596
G1 X108.470 Y78.718 E4.51851
G1 X108.565 Y79.113 E4.53106
G1 X108.625 Y79.514 E4.54361
G1 X108.649 Y79.919 E4.55616
G1 X108.639 Y80.324 E4.56871
G1 X108.593 Y80.727 E4.58126
G1 X108.512 Y81.125 E4.59381
G1 X108.397 Y81.514 E4.60636
G1 X108.248 Y81.891 E4.61891
G1 X108.067 Y82.254 E4.63146
G1 X107.855 Y82.600 E4.64402
G1 X107.614 Y82.926 E4.65657
G1 X107.345 Y83.230 E4.66912
G1 X107.051 Y83.509 E4.68167
G1 X106.733 Y83.762 E4.69422
G1 X106.395 Y83.985 E4.70677
G1 X106.039 Y84.179 E4.71932
G1 X105.667 Y84.341 E4.73187
G1 X105.282 Y84.470 E4.74442
G1 X104.888 Y84.564 E4.75697
