; generated by Slic3r 1.2.9 on 2015-08-04 at 18:17:07

; external perimeters extrusion width = 0.50mm
; perimeters extrusion width = 0.72mm
; infill extrusion width = 0.72mm
; solid infill extrusion width = 0.72mm
; top infill extrusion width = 0.72mm

M107
M104 S200 ; set temperature
G28 ; home all axes
G1 Z5 F5000 ; lift nozzle

M109 S200 ; wait for temperature to be reached
G21 ; set units to millimeters
G90 ; use absolute coordinates
M82 ; use absolute distances for extrusion
G92 E0
G1 Z0.350 F7800.000
G1 E-2.00000 F2400.00000
G92 E0
G1 X88.915 Y81.253 F7800.000
G1 E2.00000 F2400.00000
G1 X90.668 Y79.774 E2.07096 F1800.000
G1 X92.820 Y78.981 E2.14192
G1 X94.000 Y78.875 E2.17858
G1 X96.000 Y78.875 E2.24046
G1 X98.719 Y79.459 E2.32649
G1 X108.719 Y83.959 E2.66579 F1800.000
G1 X110.616 Y85.248 E2.73675
G1 X111.959 Y87.106 E2.80771
G1 X112.625 Y90.000 E2.89959
G1 X112.625 Y110.000 E3.51842
G1 X112.228 Y112.259 E3.58938
G1 X111.085 Y114.247 E3.66034
G1 X108.719 Y116.041 E3.75222
G1 X98.719 Y120.541 E4.09152
G1 X96.000 Y121.125 E4.17755
G1 X94.000 Y121.125 E4.23944
G1 X91.741 Y120.728 E4.31040
G1 X89.753 Y119.585 E4.38136
G1 X88.274 Y117.832 E4.45232
G1 X87.481 Y115.680 E4.52329
G1 X87.375 Y114.500 E4.55994
G1 X87.375 Y85.500 E5.45723
G1 X87.772 Y83.241 E5.52820
G1 X88.878 Y81.318 E5.59684
G1 E3.59684 F2400.00000
G92 E0
G1 X95.650 Y114.150 F7800.000
G1 E2.00000 F2400.00000
G1 X94.350 Y114.150 E2.04022 F1800.000
G1 X94.350 Y113.600 E2.05724
G1 X95.650 Y113.600 E2.09747
G1 X95.650 Y114.075 E2.11216
G1 X95.217 Y113.900 F7800.000
G1 E0.11216 F2400.00000
G92 E0
G1 X103.975 Y109.025 F7800.000
G1 E2.00000 F2400.00000
G1 X103.975 Y107.460 E2.04842 F1800.000
G1 X105.025 Y108.510 E2.09438
G1 X105.025 Y109.025 E2.11030
G1 X104.050 Y109.025 E2.14048
G1 X103.350 Y109.650 F7800.000
G1 X103.350 Y105.952 E2.25491 F1800.000
G1 X105.650 Y108.252 E2.35555
G1 X105.650 Y109.650 E2.39882
G1 X103.425 Y109.650 E2.46767
G1 X103.600 Y109.217 F7800.000
G1 E0.46767 F2400.00000
G92 E0
G1 X103.975 Y92.540 F7800.000
G1 E2.00000 F2400.00000
G1 X103.975 Y90.975 E2.04842 F1800.000
G1 X105.025 Y90.975 E2.08092
G1 X105.025 Y91.490 E2.09684
G1 X104.028 Y92.487 E2.14048
G1 X103.350 Y94.048 F7800.000
G1 X103.350 Y90.350 E2.25491 F1800.000
G1 X105.650 Y90.350 E2.32607
G1 X105.650 Y91.748 E2.36934
G1 X103.403 Y93.995 E2.46767
G1 X103.479 Y93.565 F7800.000
G1 E0.46767 F2400.00000
G92 E0
G1 X97.600 Y103.850 F7800.000
G1 E2.00000 F2400.00000
G1 X97.600 Y101.969 E2.05820 F1800.000
G1 X99.400 Y103.769 E2.13698
G1 X99.400 Y108.400 E2.28027
G1 X95.600 Y108.400 E2.39786
G1 X95.600 Y103.850 E2.53866
G1 X97.525 Y103.850 E2.59822
G1 X96.975 Y103.225 F7800.000
G1 X96.975 Y100.460 E2.68376 F1800.000
G1 X100.025 Y103.510 E2.81723
G1 X100.025 Y109.025 E2.98787
G1 X94.975 Y109.025 E3.14413
G1 X94.975 Y103.225 E3.32359
G1 X96.900 Y103.225 E3.38316
G1 X97.600 Y96.150 F7800.000
G1 X95.600 Y96.150 E3.44504 F1800.000
G1 X95.600 Y91.600 E3.58584
G1 X99.400 Y91.600 E3.70343
G1 X99.400 Y96.231 E3.84671
G1 X97.600 Y98.031 E3.92550
G1 X97.600 Y96.225 E3.98138
G1 X96.975 Y96.775 F7800.000
G1 X94.975 Y96.775 E4.04326 F1800.000
G1 X94.975 Y90.975 E4.22273
G1 X100.025 Y90.975 E4.37899
G1 X100.025 Y96.490 E4.54962
G1 X96.975 Y99.540 E4.68309
G1 X96.975 Y96.850 E4.76631
G1 X96.350 Y97.400 F7800.000
G1 X94.350 Y97.400 E4.82819 F1800.000
G1 X94.350 Y88.600 E5.10048
G1 X95.650 Y88.600 E5.14070
G1 X95.650 Y90.350 E5.19485
G1 X100.650 Y90.350 E5.34956
G1 X100.650 Y96.748 E5.54753
G1 X97.398 Y100.000 E5.68981
G1 X100.650 Y103.252 E5.83209
G1 X100.650 Y109.650 E6.03007
G1 X95.650 Y109.650 E6.18478
G1 X95.650 Y111.400 E6.23892
G1 X94.350 Y111.400 E6.27915
G1 X94.350 Y102.600 E6.55143
G1 X96.350 Y102.600 E6.61331
G1 X96.350 Y97.475 E6.77189
G1 X96.350 Y96.900 F7800.000
G1 X96.283 Y95.772 F7800.000
G1 X95.978 Y95.467 E6.78533 F1800.000
G1 X95.978 Y94.577 E6.81303
G1 X97.173 Y95.772 E6.86564
G1 X97.978 Y96.577 F7800.000
G1 X98.273 Y96.872 E6.87862 F1800.000
G1 X98.718 Y96.427 E6.89821
G1 X95.978 Y93.688 E7.01886
G1 X95.978 Y92.798 E7.04656
G1 X99.022 Y95.841 E7.18060
G1 X99.022 Y94.952 E7.20830
G1 X96.048 Y91.978 E7.33926
G1 X96.938 Y91.978 E7.36696
G1 X99.022 Y94.062 E7.45875
G1 X99.022 Y93.173 E7.48645
G1 X97.827 Y91.978 E7.53906
G1 X98.717 Y91.978 E7.56676
G1 X99.022 Y92.283 E7.58020
G1 X95.000 Y90.662 F7800.000
G1 X95.000 Y88.912 E7.69500 F1800.000
G1 E5.69500 F2400.00000
G92 E0
G1 X99.022 Y104.142 F7800.000
G1 E2.00000 F2400.00000
G1 X97.978 Y103.099 E2.04884 F1800.000
G1 X97.978 Y104.044 E2.08013
G1 X99.022 Y105.087 E2.12897
G1 X99.022 Y106.033 E2.16027
G1 X97.217 Y104.228 E2.24473
G1 X96.272 Y104.228 E2.27603
G1 X99.022 Y106.978 E2.40475
G1 X99.022 Y107.924 E2.43605
G1 X95.978 Y104.880 E2.57851
G1 X95.978 Y105.826 E2.60981
G1 X98.174 Y108.022 E2.71261
G1 X97.229 Y108.022 E2.74390
G1 X95.978 Y106.771 E2.80245
G1 X95.978 Y107.717 E2.83374
G1 X96.283 Y108.022 E2.84802
G1 X95.000 Y109.338 F7800.000
G1 X95.000 Y111.088 E2.96283 F1800.000
G1 E0.96283 F2400.00000
G92 E0
G1 X95.650 Y86.400 F7800.000
G1 E2.00000 F2400.00000
G1 X94.350 Y86.400 E2.04022 F1800.000
G1 X94.350 Y85.850 E2.05724
G1 X95.650 Y85.850 E2.09747
G1 X95.650 Y86.325 E2.11216
G1 X95.217 Y86.150 F7800.000
G1 Z0.650 F7800.000
G1 E0.11216 F2400.00000
G92 E0
G1 X95.750 Y113.500 F7800.000
G1 E2.00000 F2400.00000
G1 X95.750 Y114.250 E2.01387 F900.000
G1 X94.250 Y114.250 E2.04160
G1 X94.250 Y113.500 E2.05546
G1 X95.675 Y113.500 E2.08181
G1 X95.500 Y113.933 F7800.000
G1 E0.08181 F2400.00000
G92 E0
G1 X103.795 Y109.205 F7800.000
G1 E2.00000 F2400.00000
G1 X103.795 Y107.026 E2.06052 F900.000
G1 X105.205 Y108.436 E2.11591
G1 X105.205 Y109.205 E2.13727
G1 X103.870 Y109.205 E2.17435
G1 X103.250 Y109.750 F7800.000
G1 X103.250 Y105.710 E2.24904 F900.000
G1 X105.750 Y108.210 E2.31441
G1 X105.750 Y109.750 E2.34288
G1 X103.325 Y109.750 E2.38771
G1 X103.500 Y109.317 F7800.000
G1 X104.472 Y108.807 F7800.000
G1 X104.770 Y108.510 E2.39940 F1200.000
G1 E0.39940 F2400.00000
G92 E0
G1 X103.795 Y92.974 F7800.000
G1 E2.00000 F2400.00000
G1 X103.795 Y90.795 E2.06052 F900.000
G1 X105.205 Y90.795 E2.09969
G1 X105.205 Y91.564 E2.12105
G1 X103.848 Y92.921 E2.17435
G1 X103.250 Y94.290 F7800.000
G1 X103.250 Y90.250 E2.24904 F900.000
G1 X105.750 Y90.250 E2.29526
G1 X105.750 Y91.790 E2.32373
G1 X103.303 Y94.237 E2.38771
G1 X103.379 Y93.807 F7800.000
G1 X104.213 Y91.770 F7800.000
G1 X104.770 Y91.213 E2.40960 F1200.000
G1 E0.40960 F2400.00000
G92 E0
G1 X97.450 Y103.700 F7800.000
G1 E2.00000 F2400.00000
G1 X97.450 Y101.606 E2.05815 F900.000
G1 X99.550 Y103.707 E2.14068
G1 X99.550 Y108.550 E2.27522
G1 X95.450 Y108.550 E2.38913
G1 X95.450 Y103.700 E2.52388
G1 X97.375 Y103.700 E2.57735
G1 X96.795 Y103.045 F7800.000
G1 X96.795 Y100.026 E2.66121 F900.000
G1 X100.205 Y103.436 E2.79517
G1 X100.205 Y109.205 E2.95542
G1 X95.205 Y109.205 E3.09431
G1 X95.205 Y110.955 E3.14292
G1 X94.795 Y110.955 E3.15430
G1 X94.795 Y103.045 E3.37402
G1 X96.720 Y103.045 E3.42749
G1 X97.450 Y96.300 F7800.000
G1 X95.450 Y96.300 E3.48305 F900.000
G1 X95.450 Y91.450 E3.61780
G1 X99.550 Y91.450 E3.73171
G1 X99.550 Y96.293 E3.86625
G1 X97.450 Y98.394 E3.94878
G1 X97.450 Y96.375 E4.00485
G1 X96.795 Y96.955 F7800.000
G1 X94.795 Y96.955 E4.06040 F900.000
G1 X94.795 Y89.045 E4.28012
G1 X95.205 Y89.045 E4.29151
G1 X95.205 Y90.795 E4.34012
G1 X100.205 Y90.795 E4.47901
G1 X100.205 Y96.564 E4.63926
G1 X96.795 Y99.974 E4.77321
G1 X96.795 Y97.030 E4.85499
G1 X96.250 Y97.500 F7800.000
G1 X94.250 Y97.500 E4.89197 F1800.000
G1 X94.250 Y88.500 E5.05836
G1 X95.750 Y88.500 E5.08609
G1 X95.750 Y90.250 E5.11845
G1 X100.750 Y90.250 E5.21089
G1 X100.750 Y96.790 E5.33180
G1 X97.540 Y100.000 E5.41573
G1 X100.750 Y103.210 E5.49967
G1 X100.750 Y109.750 E5.62058
G1 X95.750 Y109.750 E5.71302
G1 X95.750 Y111.500 E5.74537
G1 X94.250 Y111.500 E5.77311
G1 X94.250 Y102.500 E5.93950
G1 X96.250 Y102.500 E5.97648
G1 X96.250 Y97.575 E6.06753
G1 X96.250 Y97.000 F7800.000
G1 X97.847 Y97.210 F7800.000
G1 X99.153 Y95.904 E6.12331 F1200.000
G1 X99.153 Y94.897 E6.15371
G1 X97.847 Y96.203 E6.20949
G1 X97.141 Y95.903 F7800.000
G1 X99.153 Y93.891 E6.29544 F1200.000
G1 X99.153 Y92.884 E6.32584
G1 X96.134 Y95.903 E6.45477
G1 X95.847 Y95.184 E6.47816
G1 X99.148 Y91.883 E6.61918
G1 X98.178 Y91.847 E6.64852
G1 X95.847 Y94.178 E6.74807
G1 X95.847 Y93.171 E6.77847
G1 X97.171 Y91.847 E6.83502
G1 X96.165 Y91.847 E6.86542
G1 X95.847 Y92.165 E6.87899
G1 X98.279 Y102.944 F7800.000
G1 X97.847 Y103.376 E6.89659 F1200.000
G1 X95.847 Y104.415 F7800.000
G1 X96.165 Y104.097 E6.90954 F1200.000
G1 X97.126 Y104.097 E6.93725
G1 X95.847 Y105.376 E6.98940
G1 X95.847 Y106.337 E7.01711
G1 X98.759 Y103.425 E7.13587
G1 X99.153 Y103.992 E7.15578
G1 X95.847 Y107.298 E7.29061
G1 X95.952 Y108.153 E7.31547
G1 X99.153 Y104.952 E7.44600
G1 X99.153 Y105.913 E7.47371
G1 X96.913 Y108.153 E7.56504
G1 X97.874 Y108.153 E7.59276
G1 X99.153 Y106.874 E7.64490
G1 X99.153 Y107.835 E7.67261
G1 X98.835 Y108.153 E7.68557
G1 E5.68557 F2400.00000
G92 E0
G1 X95.750 Y86.500 F7800.000
G1 E2.00000 F2400.00000
G1 X94.250 Y86.500 E2.02773 F900.000
G1 X94.250 Y85.750 E2.04160
G1 X95.750 Y85.750 E2.06933
G1 X95.750 Y86.425 E2.08181
G1 X95.317 Y86.250 F7800.000
G1 Z0.950 F7800.000
G1 E0.08181 F2400.00000
G92 E0
G1 X95.750 Y113.500 F7800.000
G1 E2.00000 F2400.00000
G1 X95.750 Y114.250 E2.01387 F900.000
G1 X94.250 Y114.250 E2.04160
G1 X94.250 Y113.500 E2.05546
G1 X95.675 Y113.500 E2.08181
G1 X95.500 Y113.933 F7800.000
G1 E0.08181 F2400.00000
G92 E0
G1 X103.795 Y109.205 F7800.000
G1 E2.00000 F2400.00000
G1 X103.795 Y107.026 E2.06052 F900.000
G1 X105.205 Y108.436 E2.11591
G1 X105.205 Y109.205 E2.13727
G1 X103.870 Y109.205 E2.17435
G1 X103.250 Y109.750 F7800.000
G1 X103.250 Y105.710 E2.24904 F900.000
G1 X105.750 Y108.210 E2.31441
G1 X105.750 Y109.750 E2.34288
G1 X103.325 Y109.750 E2.38771
G1 X103.500 Y109.317 F7800.000
G1 X104.770 Y108.787 F7800.000
G1 X104.213 Y108.230 E2.40960 F1200.000
G1 E0.40960 F2400.00000
G92 E0
G1 X103.795 Y92.974 F7800.000
G1 E2.00000 F2400.00000
G1 X103.795 Y90.795 E2.06052 F900.000
G1 X105.205 Y90.795 E2.09969
G1 X105.205 Y91.564 E2.12105
G1 X103.848 Y92.921 E2.17435
G1 X103.250 Y94.290 F7800.000
G1 X103.250 Y90.250 E2.24904 F900.000
G1 X105.750 Y90.250 E2.29526
G1 X105.750 Y91.790 E2.32373
G1 X103.303 Y94.237 E2.38771
G1 X103.379 Y93.807 F7800.000
G1 X104.770 Y91.490 F7800.000
G1 X104.472 Y91.193 E2.39940 F1200.000
G1 E0.39940 F2400.00000
G92 E0
G1 X97.450 Y103.700 F7800.000
G1 E2.00000 F2400.00000
G1 X97.450 Y101.606 E2.05815 F900.000
G1 X99.550 Y103.707 E2.14068
G1 X99.550 Y108.550 E2.27522
G1 X95.450 Y108.550 E2.38913
G1 X95.450 Y103.700 E2.52388
G1 X97.375 Y103.700 E2.57735
G1 X96.795 Y103.045 F7800.000
G1 X96.795 Y100.026 E2.66121 F900.000
G1 X100.205 Y103.436 E2.79517
G1 X100.205 Y109.205 E2.95542
G1 X95.205 Y109.205 E3.09431
G1 X95.205 Y110.955 E3.14292
G1 X94.795 Y110.955 E3.15430
G1 X94.795 Y103.045 E3.37402
G1 X96.720 Y103.045 E3.42749
G1 X97.450 Y96.300 F7800.000
G1 X95.450 Y96.300 E3.48305 F900.000
G1 X95.450 Y91.450 E3.61780
G1 X99.550 Y91.450 E3.73171
G1 X99.550 Y96.293 E3.86625
G1 X97.450 Y98.394 E3.94878
G1 X97.450 Y96.375 E4.00485
G1 X96.795 Y96.955 F7800.000
G1 X94.795 Y96.955 E4.06040 F900.000
G1 X94.795 Y89.045 E4.28012
G1 X95.205 Y89.045 E4.29151
G1 X95.205 Y90.795 E4.34012
G1 X100.205 Y90.795 E4.47901
G1 X100.205 Y96.564 E4.63926
G1 X96.795 Y99.974 E4.77321
G1 X96.795 Y97.030 E4.85499
G1 X96.250 Y97.500 F7800.000
G1 X94.250 Y97.500 E4.89197 F1800.000
G1 X94.250 Y88.500 E5.05836
G1 X95.750 Y88.500 E5.08609
G1 X95.750 Y90.250 E5.11845
G1 X100.750 Y90.250 E5.21089
G1 X100.750 Y96.790 E5.33180
G1 X97.540 Y100.000 E5.41573
G1 X100.750 Y103.210 E5.49967
G1 X100.750 Y109.750 E5.62058
G1 X95.750 Y109.750 E5.71302
G1 X95.750 Y111.500 E5.74537
G1 X94.250 Y111.500 E5.77311
G1 X94.250 Y102.500 E5.93950
G1 X96.250 Y102.500 E5.97648
G1 X96.250 Y97.575 E6.06753
G1 X96.250 Y97.000 F7800.000
G1 X96.165 Y95.903 F7800.000
G1 X95.847 Y95.585 E6.08049 F1200.000
G1 X95.847 Y94.624 E6.10820
G1 X97.126 Y95.903 E6.16034
G1 X97.847 Y96.624 F7800.000
G1 X98.279 Y97.056 E6.17794 F1200.000
G1 X98.759 Y96.575 E6.19754
G1 X95.847 Y93.663 E6.31630
G1 X95.847 Y92.702 E6.34401
G1 X99.153 Y96.008 E6.47884
G1 X99.153 Y95.048 E6.50655
G1 X95.952 Y91.847 E6.63708
G1 X96.913 Y91.847 E6.66479
G1 X99.153 Y94.087 E6.75613
G1 X99.153 Y93.126 E6.78384
G1 X97.874 Y91.847 E6.83598
G1 X98.835 Y91.847 E6.86370
G1 X99.153 Y92.165 E6.87665
G1 E4.87665 F2400.00000
G92 E0
G1 X99.153 Y104.096 F7800.000
G1 E2.00000 F2400.00000
G1 X97.847 Y102.790 E2.05578 F1200.000
G1 X97.847 Y103.797 E2.08618
G1 X99.153 Y105.103 E2.14196
G1 X99.153 Y106.109 E2.17236
G1 X97.141 Y104.097 E2.25831
G1 X96.134 Y104.097 E2.28870
G1 X99.153 Y107.116 E2.41764
G1 X99.148 Y108.117 E2.44790
G1 X95.847 Y104.816 E2.58892
G1 X95.847 Y105.822 E2.61931
G1 X98.178 Y108.153 E2.71886
G1 X97.171 Y108.153 E2.74926
G1 X95.847 Y106.829 E2.80582
G1 X95.847 Y107.835 E2.83621
G1 X96.165 Y108.153 E2.84978
G1 E0.84978 F2400.00000
G92 E0
G1 X95.750 Y86.500 F7800.000
G1 E2.00000 F2400.00000
G1 X94.250 Y86.500 E2.02773 F900.000
G1 X94.250 Y85.750 E2.04160
G1 X95.750 Y85.750 E2.06933
G1 X95.750 Y86.425 E2.08181
G1 X95.317 Y86.250 F7800.000
M106 S224.4
G1 Z1.250 F7800.000
G1 E0.08181 F2400.00000
G92 E0
G1 X95.750 Y113.500 F7800.000
G1 E2.00000 F2400.00000
G1 X95.750 Y114.250 E2.01387 F900.000
G1 X94.250 Y114.250 E2.04160
G1 X94.250 Y113.500 E2.05546
G1 X95.675 Y113.500 E2.08181
G1 X95.500 Y113.933 F7800.000
G1 E0.08181 F2400.00000
G92 E0
G1 X103.795 Y109.205 F7800.000
G1 E2.00000 F2400.00000
G1 X103.795 Y107.026 E2.06052 F900.000
G1 X105.205 Y108.436 E2.11591
G1 X105.205 Y109.205 E2.13727
G1 X103.870 Y109.205 E2.17435
G1 X103.250 Y109.750 F7800.000
G1 X103.250 Y105.710 E2.24904 F900.000
G1 X105.750 Y108.210 E2.31441
G1 X105.750 Y109.750 E2.34288
G1 X103.325 Y109.750 E2.38771
G1 X103.500 Y109.317 F7800.000
G1 X104.472 Y108.807 F7800.000
G1 X104.770 Y108.510 E2.39940 F1200.000
G1 E0.39940 F2400.00000
G92 E0
G1 X103.795 Y92.974 F7800.000
G1 E2.00000 F2400.00000
G1 X103.795 Y90.795 E2.06052 F900.000
G1 X105.205 Y90.795 E2.09969
G1 X105.205 Y91.564 E2.12105
G1 X103.848 Y92.921 E2.17435
G1 X103.250 Y94.290 F7800.000
G1 X103.250 Y90.250 E2.24904 F900.000
G1 X105.750 Y90.250 E2.29526
G1 X105.750 Y91.790 E2.32373
G1 X103.303 Y94.237 E2.38771
G1 X103.379 Y93.807 F7800.000
G1 X104.213 Y91.770 F7800.000
G1 X104.770 Y91.213 E2.40960 F1200.000
G1 E0.40960 F2400.00000
G92 E0
G1 X97.450 Y103.700 F7800.000
G1 E2.00000 F2400.00000
G1 X97.450 Y101.606 E2.05815 F900.000
G1 X99.550 Y103.707 E2.14068
G1 X99.550 Y108.550 E2.27522
G1 X95.450 Y108.550 E2.38913
G1 X95.450 Y103.700 E2.52388
G1 X97.375 Y103.700 E2.57735
G1 X96.795 Y103.045 F7800.000
G1 X96.795 Y100.026 E2.66121 F900.000
G1 X100.205 Y103.436 E2.79517
G1 X100.205 Y109.205 E2.95542
G1 X95.205 Y109.205 E3.09431
G1 X95.205 Y110.955 E3.14292
G1 X94.795 Y110.955 E3.15430
G1 X94.795 Y103.045 E3.37402
G1 X96.720 Y103.045 E3.42749
G1 X97.450 Y96.300 F7800.000
G1 X95.450 Y96.300 E3.48305 F900.000
G1 X95.450 Y91.450 E3.61780
G1 X99.550 Y91.450 E3.73171
G1 X99.550 Y96.293 E3.86625
G1 X97.450 Y98.394 E3.94878
G1 X97.450 Y96.375 E4.00485
G1 X96.795 Y96.955 F7800.000
G1 X94.795 Y96.955 E4.06040 F900.000
G1 X94.795 Y89.045 E4.28012
G1 X95.205 Y89.045 E4.29151
G1 X95.205 Y90.795 E4.34012
G1 X100.205 Y90.795 E4.47901
G1 X100.205 Y96.564 E4.63926
G1 X96.795 Y99.974 E4.77321
G1 X96.795 Y97.030 E4.85499
G1 X96.250 Y97.500 F7800.000
G1 X94.250 Y97.500 E4.89197 F1800.000
G1 X94.250 Y88.500 E5.05836
G1 X95.750 Y88.500 E5.08609
G1 X95.750 Y90.250 E5.11845
G1 X100.750 Y90.250 E5.21089
G1 X100.750 Y96.790 E5.33180
G1 X97.540 Y100.000 E5.41573
G1 X100.750 Y103.210 E5.49967
G1 X100.750 Y109.750 E5.62058
G1 X95.750 Y109.750 E5.71302
G1 X95.750 Y111.500 E5.74537
G1 X94.250 Y111.500 E5.77311
G1 X94.250 Y102.500 E5.93950
G1 X96.250 Y102.500 E5.97648
G1 X96.250 Y97.575 E6.06753
G1 X96.250 Y97.000 F7800.000
G1 X97.847 Y97.210 F7800.000
G1 X99.153 Y95.904 E6.12331 F1200.000
G1 X99.153 Y94.897 E6.15371
G1 X97.847 Y96.203 E6.20949
