; generated by Slic3r 1.2.9 on 2015-08-04 at 18:17:05

; external perimeters extrusion width = 0.50mm
; perimeters extrusion width = 0.72mm
; infill extrusion width = 0.72mm
; solid infill extrusion width = 0.72mm
; top infill extrusion width = 0.72mm

M107
M104 S200 ; set temperature
G28 ; home all axes
G1 Z5 F5000 ; lift nozzle

M109 S200 ; wait for temperature to be reached
G21 ; set units to millimeters
G90 ; use absolute coordinates
M82 ; use absolute distances for extrusion
G92 E0
G1 Z0.350 F7800.000
G1 E-2.00000 F2400.00000
G92 E0
G1 X90.175 Y92.595 F7800.000
G1 E2.00000 F2400.00000
G1 X92.108 Y91.360 E2.07096 F1800.000
G1 X94.656 Y90.850 E2.15138
G1 X105.344 Y90.850 E2.48206
G1 X107.602 Y91.247 E2.55302
G1 X109.591 Y92.390 E2.62399 F1800.000
G1 X111.220 Y94.416 E2.70442
G1 X111.314 Y94.597 E2.71074
G1 X111.759 Y95.604 E2.74481
G1 X112.114 Y96.647 E2.77887
G1 X112.367 Y97.671 E2.81152
G1 X112.477 Y98.285 E2.83082
G1 X112.545 Y98.804 E2.84702
G1 X112.619 Y99.903 E2.88109
G1 X112.596 Y101.004 E2.91516
G1 X112.545 Y101.579 E2.93304
G1 X112.377 Y102.668 E2.96712
G1 X112.263 Y103.179 E2.98331
G1 X111.956 Y104.236 E3.01738
G1 X111.759 Y104.779 E3.03526
G1 X111.642 Y105.060 E3.04468
G1 X110.411 Y106.995 E3.11564
G1 X108.594 Y108.394 E3.18660
G1 X105.522 Y109.150 E3.28449
G1 X94.478 Y109.150 E3.62619
G1 X92.219 Y108.753 E3.69715
G1 X90.231 Y107.610 E3.76811
G1 X88.358 Y105.060 E3.86601
G1 X88.241 Y104.779 E3.87542
G1 X87.886 Y103.737 E3.90949
G1 X87.623 Y102.668 E3.94356
G1 X87.455 Y101.579 E3.97764
G1 X87.381 Y100.481 E4.01171
G1 X87.404 Y99.380 E4.04577
G1 X87.523 Y98.285 E4.07984
G1 X87.737 Y97.205 E4.11392
G1 X88.044 Y96.147 E4.14798
G1 X88.442 Y95.121 E4.18205
G1 X88.780 Y94.416 E4.20626
G1 X90.130 Y92.655 E4.27490
G1 E2.27490 F2400.00000
G92 E0
G1 X104.336 Y100.925 F7800.000
G1 E2.00000 F2400.00000
G1 X95.664 Y100.925 E2.26831 F1800.000
G1 X95.618 Y100.575 E2.27924
G1 X95.601 Y100.192 E2.29112
G1 X95.618 Y99.808 E2.30299
G1 X95.668 Y99.428 E2.31486
G1 X95.746 Y99.075 E2.32605
G1 X104.254 Y99.075 E2.58928
G1 X104.332 Y99.428 E2.60047
G1 X104.382 Y99.808 E2.61234
G1 X104.399 Y100.192 E2.62421
G1 X104.382 Y100.575 E2.63609
G1 X104.346 Y100.851 E2.64469
G1 X104.840 Y101.550 F7800.000
G1 X95.160 Y101.550 E2.94421 F1800.000
G1 X95.052 Y101.064 E2.95962
G1 X94.995 Y100.630 E2.97318
G1 X94.976 Y100.192 E2.98674
G1 X94.995 Y99.754 E3.00030
G1 X95.052 Y99.319 E3.01386
G1 X95.147 Y98.891 E3.02742
G1 X95.286 Y98.450 E3.04174
G1 X104.714 Y98.450 E3.33345
G1 X104.853 Y98.891 E3.34777
G1 X104.948 Y99.319 E3.36133
G1 X105.005 Y99.754 E3.37489
G1 X105.024 Y100.192 E3.38845
G1 X105.005 Y100.630 E3.40201
G1 X104.948 Y101.064 E3.41558
G1 X104.856 Y101.477 E3.42866
G1 X105.293 Y102.175 F7800.000
G1 X94.707 Y102.175 E3.75619 F1800.000
G1 X94.543 Y101.654 E3.77310
G1 X94.436 Y101.173 E3.78835
G1 X94.372 Y100.684 E3.80360
G1 X94.350 Y100.192 E3.81885
G1 X94.372 Y99.699 E3.83410
G1 X94.436 Y99.211 E3.84935
G1 X94.543 Y98.729 E3.86460
G1 X94.691 Y98.259 E3.87985
G1 X94.871 Y97.825 E3.89440
G1 X105.128 Y97.825 E4.21175
G1 X105.309 Y98.260 E4.22633
G1 X105.457 Y98.729 E4.24156
G1 X105.564 Y99.211 E4.25681
G1 X105.628 Y99.699 E4.27206
G1 X105.650 Y100.192 E4.28731
G1 X105.628 Y100.684 E4.30256
G1 X105.564 Y101.173 E4.31781
G1 X105.457 Y101.654 E4.33306
G1 X105.315 Y102.103 E4.34765
G1 X104.887 Y101.882 F7800.000
G1 X103.975 Y99.762 F7800.000
G1 X103.667 Y99.453 E4.36201 F1800.000
G1 X102.726 Y99.453 E4.39299
G1 X103.820 Y100.547 E4.44391
G1 X102.879 Y100.547 E4.47490
G1 X101.786 Y99.453 E4.52582
G1 X100.845 Y99.453 E4.55680
G1 X101.938 Y100.547 E4.60772
G1 X100.998 Y100.547 E4.63870
G1 X99.904 Y99.453 E4.68962
G1 X98.964 Y99.453 E4.72060
G1 X100.057 Y100.547 E4.77153
G1 X99.116 Y100.547 E4.80251
G1 X98.023 Y99.453 E4.85343
G1 X97.082 Y99.453 E4.88441
G1 X98.176 Y100.547 E4.93533
G1 X97.235 Y100.547 E4.96631
G1 X96.142 Y99.453 E5.01723
G1 X95.988 Y100.241 E5.04365
G1 X96.294 Y100.547 E5.05790
G1 Z0.650 F7800.000
G1 X104.468 Y101.075 F7800.000
G1 X95.532 Y101.075 E5.30610 F900.000
G1 X95.468 Y100.588 E5.31976
G1 X95.451 Y100.192 E5.33078
G1 X95.468 Y99.795 E5.34181
G1 X95.520 Y99.402 E5.35283
G1 X95.626 Y98.925 E5.36641
G1 X104.374 Y98.925 E5.60941
G1 X104.480 Y99.402 E5.62299
G1 X104.532 Y99.795 E5.63401
G1 X104.549 Y100.192 E5.64504
G1 X104.532 Y100.588 E5.65606
G1 X104.477 Y101.001 E5.66763
G1 X104.967 Y101.730 F7800.000
G1 X95.033 Y101.730 E5.94355 F900.000
G1 X94.875 Y101.095 E5.96172
G1 X94.816 Y100.645 E5.97433
G1 X94.796 Y100.192 E5.98694
G1 X94.816 Y99.738 E5.99955
G1 X94.875 Y99.288 E6.01216
G1 X94.973 Y98.845 E6.02478
G1 X95.168 Y98.270 E6.04163
G1 X104.832 Y98.270 E6.31006
G1 X105.027 Y98.845 E6.32692
G1 X105.125 Y99.288 E6.33953
G1 X105.184 Y99.738 E6.35214
G1 X105.204 Y100.192 E6.36475
G1 X105.184 Y100.645 E6.37736
G1 X105.125 Y101.095 E6.38997
G1 X104.989 Y101.658 E6.40607
G1 X105.355 Y102.275 F7800.000
G1 X94.645 Y102.275 E6.60406 F900.000
G1 X94.446 Y101.680 E6.61566
G1 X94.338 Y101.190 E6.62494
G1 X94.272 Y100.693 E6.63421
G1 X94.250 Y100.192 E6.64349
G1 X94.272 Y99.691 E6.65276
G1 X94.338 Y99.193 E6.66203
G1 X94.446 Y98.704 E6.67131
G1 X94.597 Y98.225 E6.68058
G1 X94.804 Y97.725 E6.69059
G1 X105.196 Y97.725 E6.88271
G1 X105.403 Y98.225 E6.89272
G1 X105.554 Y98.704 E6.90200
G1 X105.662 Y99.193 E6.91127
G1 X105.728 Y99.691 E6.92054
G1 X105.750 Y100.192 E6.92982
G1 X105.728 Y100.693 E6.93909
G1 X105.662 Y101.190 E6.94836
G1 X105.554 Y101.680 E6.95764
G1 X105.383 Y102.206 E6.96786
G1 X104.951 Y101.980 F7800.000
G1 X103.819 Y100.678 F7800.000
G1 X104.138 Y100.359 E6.98130 F1200.000
G1 X104.097 Y99.407 E7.00974
G1 X102.825 Y100.678 E7.06337
G1 X101.832 Y100.678 E7.09300
G1 X103.188 Y99.322 E7.15019
G1 X102.194 Y99.322 E7.17983
G1 X100.838 Y100.678 E7.23702
G1 X99.844 Y100.678 E7.26666
G1 X101.200 Y99.322 E7.32385
G1 X100.206 Y99.322 E7.35349
G1 X98.850 Y100.678 E7.41068
G1 X97.856 Y100.678 E7.44031
G1 X99.212 Y99.322 E7.49750
G1 X98.219 Y99.322 E7.52714
G1 X96.863 Y100.678 E7.58433
G1 X95.886 Y100.661 E7.61346
G1 X97.225 Y99.322 E7.66993
G1 X96.231 Y99.322 E7.69957
G1 X95.908 Y99.645 E7.71318
G1 Z0.950 F7800.000
G1 X104.468 Y101.075 F7800.000
G1 X95.532 Y101.075 E7.96138 F900.000
G1 X95.468 Y100.588 E7.97503
G1 X95.451 Y100.192 E7.98606
G1 X95.468 Y99.795 E7.99708
G1 X95.520 Y99.402 E8.00810
G1 X95.626 Y98.925 E8.02168
G1 X104.374 Y98.925 E8.26469
G1 X104.480 Y99.402 E8.27827
G1 X104.532 Y99.795 E8.28929
G1 X104.549 Y100.192 E8.30031
G1 X104.532 Y100.588 E8.31134
G1 X104.477 Y101.001 E8.32291
G1 X104.967 Y101.730 F7800.000
G1 X95.033 Y101.730 E8.59883 F900.000
G1 X94.875 Y101.095 E8.61699
G1 X94.816 Y100.645 E8.62961
G1 X94.796 Y100.192 E8.64222
G1 X94.816 Y99.738 E8.65483
G1 X94.852 Y99.461 E8.66259
G1 X94.973 Y98.845 E8.68004
G1 X95.168 Y98.270 E8.69690
G1 X104.832 Y98.270 E8.96532
G1 X105.027 Y98.845 E8.98218
G1 X105.125 Y99.288 E8.99479
G1 X105.184 Y99.738 E9.00740
G1 X105.204 Y100.192 E9.02001
G1 X105.184 Y100.645 E9.03263
G1 X105.125 Y101.095 E9.04524
G1 X104.989 Y101.658 E9.06133
G1 X105.355 Y102.275 F7800.000
G1 X94.645 Y102.275 E9.25932 F900.000
G1 X94.446 Y101.680 E9.27093
G1 X94.338 Y101.190 E9.28020
G1 X94.272 Y100.693 E9.28947
G1 X94.250 Y100.192 E9.29875
G1 X94.272 Y99.691 E9.30802
G1 X94.338 Y99.193 E9.31729
G1 X94.446 Y98.704 E9.32657
G1 X94.597 Y98.225 E9.33584
G1 X94.804 Y97.725 E9.34585
G1 X105.196 Y97.725 E9.53798
G1 X105.403 Y98.225 E9.54798
G1 X105.554 Y98.704 E9.55726
G1 X105.662 Y99.193 E9.56653
G1 X105.728 Y99.691 E9.57581
G1 X105.750 Y100.192 E9.58508
G1 X105.728 Y100.693 E9.59435
G1 X105.662 Y101.190 E9.60363
G1 X105.554 Y101.680 E9.61290
G1 X105.383 Y102.206 E9.62312
G1 X104.951 Y101.980 F7800.000
G1 X104.092 Y99.645 F7800.000
G1 X103.769 Y99.322 E9.63673 F1200.000
G1 X102.775 Y99.322 E9.66637
G1 X104.114 Y100.661 E9.72284
G1 X103.137 Y100.678 E9.75197
G1 X101.781 Y99.322 E9.80916
G1 X100.788 Y99.322 E9.83880
G1 X102.144 Y100.678 E9.89599
G1 X101.150 Y100.678 E9.92562
G1 X99.794 Y99.322 E9.98281
G1 X98.800 Y99.322 E10.01245
G1 X100.156 Y100.678 E10.06964
G1 X99.162 Y100.678 E10.09928
G1 X97.806 Y99.322 E10.15647
G1 X96.812 Y99.322 E10.18611
G1 X98.168 Y100.678 E10.24330
G1 X97.175 Y100.678 E10.27293
G1 X95.903 Y99.407 E10.32656
G1 X95.862 Y100.359 E10.35500
G1 X96.181 Y100.678 E10.36844
M106 S249.9
G1 Z1.250 F7800.000
G1 X104.468 Y101.075 F7800.000
G1 X95.532 Y101.075 E10.61664 F900.000
G1 X95.468 Y100.588 E10.63029
G1 X95.451 Y100.192 E10.64132
G1 X95.468 Y99.795 E10.65234
G1 X95.520 Y99.402 E10.66337
G1 X95.626 Y98.925 E10.67694
G1 X104.374 Y98.925 E10.91995
G1 X104.480 Y99.402 E10.93353
G1 X104.532 Y99.795 E10.94455
G1 X104.549 Y100.192 E10.95558
G1 X104.532 Y100.588 E10.96660
G1 X104.477 Y101.001 E10.97817
G1 X104.967 Y101.730 F7800.000
G1 X95.033 Y101.730 E11.25409 F900.000
G1 X94.875 Y101.095 E11.27226
G1 X94.816 Y100.645 E11.28487
G1 X94.796 Y100.192 E11.29748
G1 X94.816 Y99.738 E11.31009
G1 X94.875 Y99.288 E11.32270
G1 X94.973 Y98.845 E11.33531
G1 X95.168 Y98.270 E11.35217
G1 X104.832 Y98.270 E11.62060
G1 X105.027 Y98.845 E11.63745
G1 X105.125 Y99.288 E11.65007
G1 X105.184 Y99.738 E11.66268
G1 X105.204 Y100.192 E11.67529
G1 X105.184 Y100.645 E11.68790
G1 X105.125 Y101.095 E11.70051
G1 X104.989 Y101.658 E11.71660
G1 X105.355 Y102.275 F7800.000
G1 X94.645 Y102.275 E11.91460 F900.000
G1 X94.446 Y101.680 E11.92620
G1 X94.338 Y101.190 E11.93547
G1 X94.272 Y100.693 E11.94475
G1 X94.250 Y100.192 E11.95402
G1 X94.272 Y99.691 E11.96330
G1 X94.338 Y99.193 E11.97257
G1 X94.446 Y98.704 E11.98184
G1 X94.597 Y98.225 E11.99112
G1 X94.804 Y97.725 E12.00113
G1 X105.196 Y97.725 E12.19325
G1 X105.403 Y98.225 E12.20326
G1 X105.554 Y98.704 E12.21253
G1 X105.662 Y99.193 E12.22181
G1 X105.728 Y99.691 E12.23108
G1 X105.750 Y100.192 E12.24035
G1 X105.728 Y100.693 E12.24963
G1 X105.662 Y101.190 E12.25890
G1 X105.554 Y101.680 E12.26817
G1 X105.383 Y102.206 E12.27840
G1 X104.951 Y101.980 F7800.000
G1 X103.819 Y100.678 F7800.000
G1 X104.138 Y100.359 E12.29183 F1200.000
G1 X104.097 Y99.407 E12.32028
G1 X102.825 Y100.678 E12.37390
G1 X101.832 Y100.678 E12.40354
G1 X103.187 Y99.322 E12.46073
G1 X102.194 Y99.322 E12.49037
G1 X100.838 Y100.678 E12.54755
G1 X99.844 Y100.678 E12.57719
G1 X101.200 Y99.322 E12.63438
G1 X100.206 Y99.322 E12.66402
G1 X98.850 Y100.678 E12.72121
G1 X97.856 Y100.678 E12.75084
G1 X99.212 Y99.322 E12.80803
G1 X98.219 Y99.322 E12.83767
G1 X96.863 Y100.678 E12.89486
G1 X95.886 Y100.661 E12.92399
G1 X97.225 Y99.322 E12.98046
G1 X96.231 Y99.322 E13.01009
G1 X95.908 Y99.645 E13.02371
G1 Z1.550 F7800.000
G1 X104.468 Y101.075 F7800.000
G1 X95.532 Y101.075 E13.27191 F900.000
G1 X95.468 Y100.588 E13.28556
G1 X95.451 Y100.192 E13.29658
G1 X95.468 Y99.795 E13.30761
G1 X95.520 Y99.402 E13.31863
G1 X95.626 Y98.925 E13.33221
G1 X104.374 Y98.925 E13.57522
G1 X104.480 Y99.402 E13.58879
G1 X104.532 Y99.795 E13.59982
G1 X104.549 Y100.192 E13.61084
G1 X104.532 Y100.588 E13.62186
G1 X104.477 Y101.001 E13.63343
G1 X104.967 Y101.730 F7800.000
G1 X95.033 Y101.730 E13.90935 F900.000
G1 X94.875 Y101.095 E13.92752
G1 X94.816 Y100.645 E13.94013
G1 X94.796 Y100.192 E13.95274
G1 X94.816 Y99.738 E13.96535
G1 X94.875 Y99.288 E13.97797
G1 X94.973 Y98.845 E13.99058
G1 X95.168 Y98.270 E14.00744
G1 X104.832 Y98.270 E14.27586
G1 X105.027 Y98.845 E14.29272
G1 X105.125 Y99.288 E14.30533
G1 X105.184 Y99.738 E14.31794
G1 X105.204 Y100.192 E14.33055
G1 X105.184 Y100.645 E14.34316
G1 X105.125 Y101.095 E14.35578
G1 X104.989 Y101.658 E14.37187
G1 X105.355 Y102.275 F7800.000
G1 X94.645 Y102.275 E14.56986 F900.000
G1 X94.446 Y101.680 E14.58147
G1 X94.338 Y101.190 E14.59074
G1 X94.272 Y100.693 E14.60001
G1 X94.250 Y100.192 E14.60929
G1 X94.272 Y99.691 E14.61856
G1 X94.338 Y99.193 E14.62783
G1 X94.446 Y98.704 E14.63711
G1 X94.597 Y98.225 E14.64638
G1 X94.804 Y97.725 E14.65639
G1 X105.196 Y97.725 E14.84851
G1 X105.403 Y98.225 E14.85852
G1 X105.554 Y98.704 E14.86780
G1 X105.662 Y99.193 E14.87707
G1 X105.728 Y99.691 E14.88634
G1 X105.750 Y100.192 E14.89562
G1 X105.728 Y100.693 E14.90489
G1 X105.662 Y101.190 E14.91417
G1 X105.554 Y101.680 E14.92344
G1 X105.383 Y102.206 E14.93366
G1 X104.951 Y101.980 F7800.000
G1 X104.092 Y99.645 F7800.000
G1 X103.769 Y99.322 E14.94727 F1200.000
G1 X102.775 Y99.322 E14.97691
G1 X104.114 Y100.661 E15.03338
G1 X103.137 Y100.678 E15.06251
G1 X101.781 Y99.322 E15.11970
G1 X100.788 Y99.322 E15.14934
G1 X102.144 Y100.678 E15.20653
G1 X101.150 Y100.678 E15.23616
G1 X99.794 Y99.322 E15.29335
G1 X98.800 Y99.322 E15.32299
G1 X100.156 Y100.678 E15.38018
G1 X99.162 Y100.678 E15.40982
G1 X97.806 Y99.322 E15.46701
G1 X96.812 Y99.322 E15.49665
G1 X98.168 Y100.678 E15.55384
G1 X97.175 Y100.678 E15.58347
G1 X95.903 Y99.407 E15.63710
G1 X95.862 Y100.359 E15.66554
G1 X96.181 Y100.678 E15.67898
G1 Z1.850 F7800.000
G1 X104.468 Y101.075 F7800.000
G1 X95.532 Y101.075 E15.92718 F900.000
G1 X95.468 Y100.588 E15.94083
G1 X95.451 Y100.192 E15.95186
G1 X95.468 Y99.795 E15.96288
G1 X95.520 Y99.402 E15.97390
G1 X95.626 Y98.925 E15.98748
G1 X104.374 Y98.925 E16.23049
G1 X104.480 Y99.402 E16.24407
G1 X104.532 Y99.795 E16.25509
G1 X104.549 Y100.192 E16.26611
G1 X104.532 Y100.588 E16.27714
G1 X104.477 Y101.001 E16.28871
G1 X104.967 Y101.730 F7800.000
G1 X95.033 Y101.730 E16.56462 F900.000
G1 X94.875 Y101.095 E16.58279
G1 X94.816 Y100.645 E16.59541
G1 X94.796 Y100.192 E16.60802
G1 X94.816 Y99.738 E16.62063
G1 X94.875 Y99.288 E16.63324
G1 X94.973 Y98.845 E16.64585
G1 X95.168 Y98.270 E16.66271
G1 X104.827 Y98.270 E16.93100
G1 X104.893 Y98.420 E16.93555
G1 X105.027 Y98.845 E16.94793
G1 X105.125 Y99.288 E16.96054
G1 X105.184 Y99.738 E16.97315
G1 X105.204 Y100.192 E16.98576
G1 X105.184 Y100.645 E16.99837
G1 X105.125 Y101.095 E17.01098
G1 X104.989 Y101.658 E17.02707
G1 X105.355 Y102.275 F7800.000
G1 X94.645 Y102.275 E17.22507 F900.000
G1 X94.446 Y101.680 E17.23667
G1 X94.338 Y101.190 E17.24595
G1 X94.272 Y100.693 E17.25522
G1 X94.250 Y100.192 E17.26449
G1 X94.272 Y99.691 E17.27377
G1 X94.338 Y99.193 E17.28304
G1 X94.446 Y98.704 E17.29231
G1 X94.597 Y98.225 E17.30159
G1 X94.804 Y97.725 E17.31160
G1 X105.183 Y97.725 E17.50348
G1 X105.404 Y98.228 E17.51363
G1 X105.554 Y98.704 E17.52285
G1 X105.662 Y99.193 E17.53213
G1 X105.728 Y99.691 E17.54140
G1 X105.750 Y100.192 E17.55068
G1 X105.728 Y100.693 E17.55995
G1 X105.662 Y101.190 E17.56922
G1 X105.554 Y101.680 E17.57850
G1 X105.383 Y102.206 E17.58872
G1 X104.951 Y101.980 F7800.000
G1 X103.819 Y100.678 F7800.000
G1 X104.138 Y100.359 E17.60216 F1200.000
G1 X104.097 Y99.407 E17.63060
G1 X102.825 Y100.678 E17.68423
G1 X101.832 Y100.678 E17.71386
G1 X103.188 Y99.322 E17.77105
G1 X102.194 Y99.322 E17.80069
G1 X100.838 Y100.678 E17.85788
G1 X99.844 Y100.678 E17.88752
G1 X101.200 Y99.322 E17.94471
G1 X100.206 Y99.322 E17.97435
G1 X98.850 Y100.678 E18.03154
G1 X97.856 Y100.678 E18.06117
G1 X99.212 Y99.322 E18.11836
G1 X98.219 Y99.322 E18.14800
G1 X96.863 Y100.678 E18.20519
G1 X95.886 Y100.661 E18.23432
G1 X97.225 Y99.322 E18.29079
G1 X96.231 Y99.322 E18.32043
G1 X95.908 Y99.645 E18.33404
M106 S247.35
G1 Z2.150 F7800.000
G1 E16.33404 F2400.00000
G92 E0
G1 X104.468 Y101.075 F7800.000
G1 E2.00000 F2400.00000
G1 X95.532 Y101.075 E2.24820 F900.000
G1 X95.468 Y100.588 E2.26185
G1 X95.451 Y100.192 E2.27288
G1 X95.468 Y99.795 E2.28390
G1 X95.520 Y99.402 E2.29492
G1 X95.626 Y98.925 E2.30850
G1 X104.374 Y98.925 E2.55151
G1 X104.480 Y99.402 E2.56509
G1 X104.532 Y99.795 E2.57611
G1 X104.549 Y100.192 E2.58713
G1 X104.532 Y100.588 E2.59816
G1 X104.477 Y101.001 E2.60973
G1 X104.967 Y101.730 F7800.000
G1 X95.033 Y101.730 E2.88565 F900.000
G1 X94.875 Y101.095 E2.90381
G1 X94.816 Y100.645 E2.91643
G1 X94.796 Y100.192 E2.92904
G1 X94.816 Y99.738 E2.94165
G1 X94.875 Y99.288 E2.95426
G1 X94.973 Y98.845 E2.96687
G1 X95.168 Y98.270 E2.98373
G1 X104.832 Y98.270 E3.25215
G1 X105.027 Y98.845 E3.26901
G1 X105.125 Y99.288 E3.28162
G1 X105.184 Y99.738 E3.29424
G1 X105.204 Y100.192 E3.30685
G1 X105.184 Y100.645 E3.31946
G1 X105.125 Y101.095 E3.33207
G1 X104.989 Y101.658 E3.34816
G1 X105.355 Y102.275 F7800.000
