; generated by Slic3r 1.2.9 on 2015-08-04 at 18:16:52

; external perimeters extrusion width = 0.50mm
; perimeters extrusion width = 0.72mm
; infill extrusion width = 0.72mm
; solid infill extrusion width = 0.72mm
; top infill extrusion width = 0.72mm

M107
M104 S200 ; set temperature
G28 ; home all axes
G1 Z5 F5000 ; lift nozzle

M109 S200 ; wait for temperature to be reached
G21 ; set units to millimeters
G90 ; use absolute coordinates
M82 ; use absolute distances for extrusion
G92 E0
G1 Z0.350 F7800.000
G1 E-2.00000 F2400.00000
G92 E0
G1 X84.665 Y93.278 F7800.000
G1 E2.00000 F2400.00000
G1 X86.418 Y91.799 E2.07096 F1346.500
G1 X88.570 Y91.006 E2.14192
G1 X89.750 Y90.900 E2.17858
G1 X110.250 Y90.900 E2.81287
G1 X112.509 Y91.297 E2.88383
G1 X114.497 Y92.440 E2.95480 F1346.500
G1 X115.976 Y94.193 E3.02576
G1 X116.769 Y96.345 E3.09672
G1 X116.875 Y97.525 E3.13337
G1 X116.875 Y102.525 E3.28808
G1 X116.478 Y104.784 E3.35904
G1 X115.335 Y106.772 E3.43000
G1 X113.582 Y108.251 E3.50097
G1 X111.430 Y109.044 E3.57193
G1 X110.250 Y109.150 E3.60858
G1 X89.750 Y109.150 E4.24288
G1 X87.491 Y108.753 E4.31384
G1 X85.503 Y107.610 E4.38480
G1 X84.024 Y105.857 E4.45576
G1 X83.231 Y103.705 E4.52673
G1 X83.125 Y102.525 E4.56338
G1 X83.125 Y97.525 E4.71808
G1 X83.522 Y95.266 E4.78905
G1 X84.628 Y93.343 E4.85769
G1 E2.85769 F2400.00000
G92 E0
G1 X109.900 Y102.175 F7800.000
G1 E2.00000 F2400.00000
G1 X109.200 Y102.175 E2.02166 F1346.500
G1 X109.200 Y97.875 E2.15471
G1 X109.900 Y97.875 E2.17637
G1 X109.900 Y102.100 E2.30709
G1 X109.467 Y101.925 F7800.000
G1 E0.30709 F2400.00000
G92 E0
G1 X90.800 Y102.175 F7800.000
G1 E2.00000 F2400.00000
G1 X90.100 Y102.175 E2.02166 F1346.500
G1 X90.100 Y97.875 E2.15471
G1 X90.800 Y97.875 E2.17637
G1 X90.800 Y102.100 E2.30709
G1 X90.367 Y101.925 F7800.000
G1 Z0.650 F7800.000
G1 E0.30709 F2400.00000
G92 E0
G1 X109.100 Y102.275 F7800.000
G1 E2.00000 F2400.00000
G1 X109.100 Y97.775 E2.08320 F600.000
G1 X110.000 Y97.775 E2.09984
G1 X110.000 Y102.275 E2.18303
G1 X109.175 Y102.275 E2.19829
G1 X109.350 Y101.842 F7800.000
G1 X109.550 Y102.002 F7800.000
G1 X109.550 Y98.048 E2.30815 F600.000
G1 E0.30815 F2400.00000
G92 E0
G1 X90.900 Y102.275 F7800.000
G1 E2.00000 F2400.00000
G1 X90.000 Y102.275 E2.01664 F600.000
G1 X90.000 Y97.775 E2.09984
G1 X90.900 Y97.775 E2.11648
G1 X90.900 Y102.200 E2.19829
G1 X90.467 Y102.025 F7800.000
G1 X90.450 Y102.002 F7800.000
G1 X90.450 Y98.048 E2.30815 F600.000
G1 Z0.950 F7800.000
G1 E0.30815 F2400.00000
G92 E0
G1 X109.100 Y102.275 F7800.000
G1 E2.00000 F2400.00000
G1 X109.100 Y97.775 E2.08320 F600.000
G1 X110.000 Y97.775 E2.09984
G1 X110.000 Y102.275 E2.18303
G1 X109.175 Y102.275 E2.19829
G1 X109.350 Y101.842 F7800.000
G1 X109.550 Y102.002 F7800.000
G1 X109.550 Y98.048 E2.30815 F600.000
G1 E0.30815 F2400.00000
G92 E0
G1 X90.900 Y102.275 F7800.000
G1 E2.00000 F2400.00000
G1 X90.000 Y102.275 E2.01664 F600.000
G1 X90.000 Y97.775 E2.09984
G1 X90.900 Y97.775 E2.11648
G1 X90.900 Y102.200 E2.19829
G1 X90.467 Y102.025 F7800.000
G1 X90.450 Y102.002 F7800.000
G1 X90.450 Y98.048 E2.30815 F600.000
M106 S255
G1 Z1.250 F7800.000
G1 E0.30815 F2400.00000
G92 E0
G1 X109.500 Y102.275 F7800.000
G1 E2.00000 F2400.00000
G1 X109.500 Y97.775 E2.08320 F600.000
G1 X110.000 Y97.775 E2.09244
G1 X110.000 Y102.275 E2.17564
G1 X109.575 Y102.275 E2.18350
G1 X109.750 Y101.842 F7800.000
G1 E0.18350 F2400.00000
G92 E0
G1 X90.500 Y102.275 F7800.000
G1 E2.00000 F2400.00000
G1 X90.000 Y102.275 E2.00924 F600.000
G1 X90.000 Y97.775 E2.09244
G1 X90.500 Y97.775 E2.10169
G1 X90.500 Y102.200 E2.18350
G1 X90.067 Y102.025 F7800.000
G1 Z1.550 F7800.000
G1 E0.18350 F2400.00000
G92 E0
G1 X109.500 Y102.275 F7800.000
G1 E2.00000 F2400.00000
G1 X109.500 Y97.775 E2.08320 F600.000
G1 X110.000 Y97.775 E2.09244
G1 X110.000 Y102.275 E2.17564
G1 X109.575 Y102.275 E2.18350
G1 X109.750 Y101.842 F7800.000
G1 E0.18350 F2400.00000
G92 E0
G1 X90.500 Y102.275 F7800.000
G1 E2.00000 F2400.00000
G1 X90.000 Y102.275 E2.00924 F600.000
G1 X90.000 Y97.775 E2.09244
G1 X90.500 Y97.775 E2.10169
G1 X90.500 Y102.200 E2.18350
G1 X90.067 Y102.025 F7800.000
G1 Z1.850 F7800.000
G1 E0.18350 F2400.00000
G92 E0
G1 X109.500 Y102.275 F7800.000
G1 E2.00000 F2400.00000
G1 X109.500 Y97.775 E2.08320 F600.000
G1 X110.000 Y97.775 E2.09244
G1 X110.000 Y102.275 E2.17564
G1 X109.575 Y102.275 E2.18350
G1 X109.750 Y101.842 F7800.000
G1 E0.18350 F2400.00000
G92 E0
G1 X90.500 Y102.275 F7800.000
G1 E2.00000 F2400.00000
G1 X90.000 Y102.275 E2.00924 F600.000
G1 X90.000 Y97.775 E2.09244
G1 X90.500 Y97.775 E2.10169
G1 X90.500 Y102.200 E2.18350
G1 X90.067 Y102.025 F7800.000
G1 Z2.150 F7800.000
G1 E0.18350 F2400.00000
G92 E0
G1 X109.500 Y102.275 F7800.000
G1 E2.00000 F2400.00000
G1 X109.500 Y97.775 E2.08320 F600.000
G1 X110.000 Y97.775 E2.09244
G1 X110.000 Y102.275 E2.17564
G1 X109.575 Y102.275 E2.18350
G1 X109.750 Y101.842 F7800.000
G1 E0.18350 F2400.00000
G92 E0
G1 X90.500 Y102.275 F7800.000
G1 E2.00000 F2400.00000
G1 X90.000 Y102.275 E2.00924 F600.000
G1 X90.000 Y97.775 E2.09244
G1 X90.500 Y97.775 E2.10169
G1 X90.500 Y102.200 E2.18350
G1 X90.067 Y102.025 F7800.000
G1 Z2.450 F7800.000
G1 E0.18350 F2400.00000
G92 E0
G1 X109.500 Y102.275 F7800.000
G1 E2.00000 F2400.00000
G1 X109.500 Y97.775 E2.08320 F600.000
G1 X110.000 Y97.775 E2.09244
G1 X110.000 Y102.275 E2.17564
G1 X109.575 Y102.275 E2.18350
G1 X109.750 Y101.842 F7800.000
G1 E0.18350 F2400.00000
G92 E0
G1 X90.500 Y102.275 F7800.000
G1 E2.00000 F2400.00000
G1 X90.000 Y102.275 E2.00924 F600.000
G1 X90.000 Y97.775 E2.09244
G1 X90.500 Y97.775 E2.10169
G1 X90.500 Y102.200 E2.18350
G1 X90.067 Y102.025 F7800.000
G1 Z2.750 F7800.000
G1 E0.18350 F2400.00000
G92 E0
G1 X109.500 Y102.275 F7800.000
G1 E2.00000 F2400.00000
G1 X109.500 Y97.775 E2.08320 F600.000
G1 X110.000 Y97.775 E2.09244
G1 X110.000 Y102.275 E2.17564
G1 X109.575 Y102.275 E2.18350
G1 X109.750 Y101.842 F7800.000
G1 E0.18350 F2400.00000
G92 E0
G1 X90.500 Y102.275 F7800.000
G1 E2.00000 F2400.00000
G1 X90.000 Y102.275 E2.00924 F600.000
G1 X90.000 Y97.775 E2.09244
G1 X90.500 Y97.775 E2.10169
G1 X90.500 Y102.200 E2.18350
G1 X90.067 Y102.025 F7800.000
G1 Z3.050 F7800.000
G1 E0.18350 F2400.00000
G92 E0
G1 X109.500 Y102.275 F7800.000
G1 E2.00000 F2400.00000
G1 X109.500 Y97.775 E2.08320 F600.000
G1 X110.000 Y97.775 E2.09244
G1 X110.000 Y102.275 E2.17564
G1 X109.575 Y102.275 E2.18350
G1 X109.750 Y101.842 F7800.000
G1 E0.18350 F2400.00000
G92 E0
G1 X90.500 Y102.275 F7800.000
G1 E2.00000 F2400.00000
G1 X90.000 Y102.275 E2.00924 F600.000
G1 X90.000 Y97.775 E2.09244
G1 X90.500 Y97.775 E2.10169
G1 X90.500 Y102.200 E2.18350
G1 X90.067 Y102.025 F7800.000
G1 Z3.350 F7800.000
G1 E0.18350 F2400.00000
G92 E0
G1 X109.500 Y102.275 F7800.000
G1 E2.00000 F2400.00000
G1 X109.500 Y97.775 E2.08320 F600.000
G1 X110.000 Y97.775 E2.09244
G1 X110.000 Y102.275 E2.17564
G1 X109.575 Y102.275 E2.18350
G1 X109.750 Y101.842 F7800.000
G1 E0.18350 F2400.00000
G92 E0
G1 X90.500 Y102.275 F7800.000
G1 E2.00000 F2400.00000
G1 X90.000 Y102.275 E2.00924 F600.000
G1 X90.000 Y97.775 E2.09244
G1 X90.500 Y97.775 E2.10169
G1 X90.500 Y102.200 E2.18350
G1 X90.067 Y102.025 F7800.000
G1 Z3.650 F7800.000
G1 E0.18350 F2400.00000
G92 E0
G1 X109.500 Y102.275 F7800.000
G1 E2.00000 F2400.00000
G1 X109.500 Y97.775 E2.08320 F600.000
G1 X110.000 Y97.775 E2.09244
G1 X110.000 Y102.275 E2.17564
G1 X109.575 Y102.275 E2.18350
G1 X109.750 Y101.842 F7800.000
G1 E0.18350 F2400.00000
G92 E0
G1 X90.500 Y102.275 F7800.000
G1 E2.00000 F2400.00000
G1 X90.000 Y102.275 E2.00924 F600.000
G1 X90.000 Y97.775 E2.09244
G1 X90.500 Y97.775 E2.10169
G1 X90.500 Y102.200 E2.18350
G1 X90.067 Y102.025 F7800.000
G1 Z3.950 F7800.000
G1 E0.18350 F2400.00000
G92 E0
G1 X109.500 Y102.275 F7800.000
G1 E2.00000 F2400.00000
G1 X109.500 Y97.775 E2.08320 F600.000
G1 X110.000 Y97.775 E2.09244
G1 X110.000 Y102.275 E2.17564
G1 X109.575 Y102.275 E2.18350
G1 X109.750 Y101.842 F7800.000
G1 E0.18350 F2400.00000
G92 E0
G1 X90.500 Y102.275 F7800.000
G1 E2.00000 F2400.00000
G1 X90.000 Y102.275 E2.00924 F600.000
G1 X90.000 Y97.775 E2.09244
G1 X90.500 Y97.775 E2.10169
G1 X90.500 Y102.200 E2.18350
G1 X90.067 Y102.025 F7800.000
G1 Z4.250 F7800.000
G1 E0.18350 F2400.00000
G92 E0
G1 X109.500 Y102.275 F7800.000
G1 E2.00000 F2400.00000
G1 X109.500 Y97.775 E2.08320 F600.000
G1 X110.000 Y97.775 E2.09244
G1 X110.000 Y102.275 E2.17564
G1 X109.575 Y102.275 E2.18350
G1 X109.750 Y101.842 F7800.000
G1 E0.18350 F2400.00000
G92 E0
G1 X90.500 Y102.275 F7800.000
G1 E2.00000 F2400.00000
G1 X90.000 Y102.275 E2.00924 F600.000
G1 X90.000 Y97.775 E2.09244
G1 X90.500 Y97.775 E2.10169
G1 X90.500 Y102.200 E2.18350
G1 X90.067 Y102.025 F7800.000
G1 Z4.550 F7800.000
G1 E0.18350 F2400.00000
G92 E0
G1 X109.500 Y102.275 F7800.000
G1 E2.00000 F2400.00000
G1 X109.500 Y97.775 E2.08320 F600.000
G1 X110.000 Y97.775 E2.09244
G1 X110.000 Y102.275 E2.17564
G1 X109.575 Y102.275 E2.18350
G1 X109.750 Y101.842 F7800.000
G1 E0.18350 F2400.00000
G92 E0
G1 X90.500 Y102.275 F7800.000
G1 E2.00000 F2400.00000
G1 X90.000 Y102.275 E2.00924 F600.000
G1 X90.000 Y97.775 E2.09244
G1 X90.500 Y97.775 E2.10169
G1 X90.500 Y102.200 E2.18350
G1 X90.067 Y102.025 F7800.000
M106 S252.45
G1 Z4.850 F7800.000
G1 E0.18350 F2400.00000
G92 E0
G1 X108.800 Y101.075 F7800.000
G1 E2.00000 F2400.00000
M106 S255
G1 X91.200 Y101.075 E2.48891 F900.000
G1 X91.200 Y98.975 E2.54727
G1 X108.800 Y98.975 E3.03619
G1 X108.800 Y101.000 E3.09246
M106 S252.45
G1 X109.455 Y101.730 F7800.000
G1 X109.000 Y101.730 E3.10510 F3600.000
M106 S255
G1 X91.000 Y101.730 E3.60510 F3600.000
M106 S252.45
G1 X90.545 Y101.730 E3.61773 F3600.000
G1 X90.545 Y98.320 E3.71245
G1 X91.000 Y98.320 E3.72509
M106 S255
G1 X109.000 Y98.320 E4.22509 F3600.000
M106 S252.45
G1 X109.455 Y98.320 E4.23773 F3600.000
G1 X109.455 Y101.655 E4.33036
G1 X110.000 Y102.275 F7800.000
G1 X109.000 Y102.275 E4.34885 F1800.000
M106 S255
G1 X91.000 Y102.275 E4.84885 F3600.000
M106 S252.45
G1 X90.000 Y102.275 E4.86734 F1800.000
G1 X90.000 Y97.775 E4.95054
G1 X91.000 Y97.775 E4.96903
M106 S255
G1 X109.000 Y97.775 E5.46903 F3600.000
M106 S252.45
G1 X110.000 Y97.775 E5.48751 F1800.000
G1 X110.000 Y102.200 E5.56932
G1 X109.567 Y102.025 F7800.000
G1 E3.56932 F2400.00000
G92 E0
G1 X108.160 Y100.708 F7800.000
G1 E2.00000 F2400.00000
M106 S255
G1 X108.433 Y100.435 E2.01154 F3600.000
G1 X108.433 Y99.631 E2.03555
G1 X107.356 Y100.708 E2.08105
G1 X106.552 Y100.708 E2.10505
G1 X107.918 Y99.342 E2.16275
G1 X107.114 Y99.342 E2.18676
G1 X105.748 Y100.708 E2.24446
G1 X104.944 Y100.708 E2.26846
G1 X106.310 Y99.342 E2.32616
G1 X105.506 Y99.342 E2.35017
G1 X104.140 Y100.708 E2.40786
G1 X103.336 Y100.708 E2.43187
G1 X104.703 Y99.342 E2.48957
G1 X103.899 Y99.342 E2.51358
G1 X102.532 Y100.708 E2.57127
G1 X101.729 Y100.708 E2.59528
G1 X103.095 Y99.342 E2.65298
G1 X102.291 Y99.342 E2.67698
G1 X100.925 Y100.708 E2.73468
G1 X100.121 Y100.708 E2.75869
G1 X101.487 Y99.342 E2.81639
G1 X100.683 Y99.342 E2.84039
G1 X99.317 Y100.708 E2.89809
G1 X98.513 Y100.708 E2.92210
G1 X99.879 Y99.342 E2.97979
G1 X99.075 Y99.342 E3.00380
G1 X97.709 Y100.708 E3.06150
G1 X96.905 Y100.708 E3.08550
G1 X98.271 Y99.342 E3.14320
G1 X97.468 Y99.342 E3.16721
G1 X96.101 Y100.708 E3.22491
G1 X95.297 Y100.708 E3.24891
G1 X96.664 Y99.342 E3.30661
G1 X95.860 Y99.342 E3.33062
G1 X94.494 Y100.708 E3.38831
G1 X93.690 Y100.708 E3.41232
G1 X95.056 Y99.342 E3.47002
G1 X94.252 Y99.342 E3.49403
G1 X92.886 Y100.708 E3.55172
G1 X92.082 Y100.708 E3.57573
G1 X93.448 Y99.342 E3.63343
G1 X92.644 Y99.342 E3.65743
G1 X91.567 Y100.419 E3.70293
G1 X91.567 Y99.615 E3.72694
G1 X91.840 Y99.342 E3.73848
M106 S252.45
M106 S247.35
G1 Z5.150 F7800.000
G1 X108.800 Y101.075 F7800.000
G1 X91.200 Y101.075 E4.22739 F900.000
G1 X91.200 Y98.975 E4.28575
G1 X108.800 Y98.975 E4.77467
G1 X108.800 Y101.000 E4.83094
G1 X109.455 Y101.730 F7800.000
G1 X90.545 Y101.730 E5.35622 F3600.000
G1 X90.545 Y98.320 E5.45093
G1 X109.455 Y98.320 E5.97621
G1 X109.455 Y101.655 E6.06884
G1 X110.000 Y102.275 F7800.000
G1 X90.000 Y102.275 E6.43861 F1800.000
G1 X90.000 Y97.775 E6.52181
G1 X110.000 Y97.775 E6.89157
G1 X110.000 Y102.200 E6.97338
G1 X109.567 Y102.025 F7800.000
G1 X108.403 Y99.690 F7800.000
G1 X108.085 Y99.372 E6.98647 F1200.000
G1 X107.114 Y99.372 E7.01476
G1 X108.392 Y100.649 E7.06740
G1 X107.449 Y100.678 E7.09487
G1 X106.143 Y99.372 E7.14868
G1 X105.173 Y99.372 E7.17697
G1 X106.479 Y100.678 E7.23079
G1 X105.508 Y100.678 E7.25908
G1 X104.202 Y99.372 E7.31290
G1 X103.231 Y99.372 E7.34119
G1 X104.537 Y100.678 E7.39500
G1 X103.566 Y100.678 E7.42329
G1 X102.260 Y99.372 E7.47711
G1 X101.289 Y99.372 E7.50540
G1 X102.595 Y100.678 E7.55921
G1 X101.624 Y100.678 E7.58750
G1 X100.318 Y99.372 E7.64132
G1 X99.347 Y99.372 E7.66961
G1 X100.653 Y100.678 E7.72342
G1 X99.682 Y100.678 E7.75171
G1 X98.376 Y99.372 E7.80553
G1 X97.405 Y99.372 E7.83382
G1 X98.711 Y100.678 E7.88764
G1 X97.740 Y100.678 E7.91593
G1 X96.434 Y99.372 E7.96974
G1 X95.463 Y99.372 E7.99803
G1 X96.769 Y100.678 E8.05185
G1 X95.798 Y100.678 E8.08014
G1 X94.492 Y99.372 E8.13395
G1 X93.521 Y99.372 E8.16224
G1 X94.827 Y100.678 E8.21606
G1 X93.857 Y100.678 E8.24435
G1 X92.551 Y99.372 E8.29817
G1 X91.608 Y99.401 E8.32563
G1 X92.886 Y100.678 E8.37827
G1 X91.915 Y100.678 E8.40656
G1 X91.597 Y100.360 E8.41965
G1 Z5.450 F7800.000
G1 E6.41965 F2400.00000
G92 E0
G1 X108.800 Y101.075 F7800.000
G1 E2.00000 F2400.00000
G1 X91.200 Y101.075 E2.48891 F900.000
G1 X91.200 Y98.975 E2.54727
G1 X108.800 Y98.975 E3.03619
G1 X108.800 Y101.000 E3.09246
G1 X109.455 Y101.730 F7800.000
G1 X90.545 Y101.730 E3.61773 F3600.000
G1 X90.545 Y98.320 E3.71245
G1 X109.455 Y98.320 E4.23773
G1 X109.455 Y101.655 E4.33036
G1 X110.000 Y102.275 F7800.000
G1 X90.000 Y102.275 E4.70013 F1800.000
G1 X90.000 Y97.775 E4.78333
G1 X110.000 Y97.775 E5.15309
G1 X110.000 Y102.200 E5.23490
G1 X109.567 Y102.025 F7800.000
G1 E3.23490 F2400.00000
G92 E0
G1 X108.085 Y100.678 F7800.000
G1 E2.00000 F2400.00000
G1 X108.403 Y100.360 E2.01309 F1200.000
G1 X108.392 Y99.401 E2.04105
G1 X107.114 Y100.678 E2.09369
G1 X106.143 Y100.678 E2.12198
G1 X107.449 Y99.372 E2.17579
G1 X106.478 Y99.372 E2.20408
G1 X105.173 Y100.678 E2.25790
G1 X104.202 Y100.678 E2.28619
G1 X105.508 Y99.372 E2.34000
G1 X104.537 Y99.372 E2.36829
G1 X103.231 Y100.678 E2.42211
G1 X102.260 Y100.678 E2.45040
G1 X103.566 Y99.372 E2.50421
G1 X102.595 Y99.372 E2.53250
G1 X101.289 Y100.678 E2.58632
G1 X100.318 Y100.678 E2.61461
G1 X101.624 Y99.372 E2.66843
G1 X100.653 Y99.372 E2.69672
G1 X99.347 Y100.678 E2.75053
G1 X98.376 Y100.678 E2.77882
G1 X99.682 Y99.372 E2.83264
G1 X98.711 Y99.372 E2.86093
G1 X97.405 Y100.678 E2.91474
G1 X96.434 Y100.678 E2.94303
G1 X97.740 Y99.372 E2.99685
G1 X96.769 Y99.372 E3.02514
G1 X95.463 Y100.678 E3.07895
G1 X94.492 Y100.678 E3.10724
G1 X95.798 Y99.372 E3.16106
G1 X94.827 Y99.372 E3.18935
G1 X93.521 Y100.678 E3.24316
G1 X92.551 Y100.678 E3.27145
G1 X93.857 Y99.372 E3.32527
G1 X92.886 Y99.372 E3.35356
G1 X91.608 Y100.649 E3.40619
G1 X91.597 Y99.690 E3.43416
G1 X91.915 Y99.372 E3.44725
M106 S255
G1 Z5.750 F7800.000
G1 E1.44725 F2400.00000
G92 E0
G1 X101.610 Y101.075 F7800.000
G1 E2.00000 F2400.00000
G1 X98.390 Y101.075 E2.08943 F612.891
G1 X98.225 Y100.790 E2.09858
G1 X98.100 Y100.404 E2.10986
G1 X98.058 Y100.000 E2.12114
G1 X98.100 Y99.596 E2.13242
G1 X98.225 Y99.210 E2.14371
G1 X98.390 Y98.925 E2.15286
G1 X101.610 Y98.925 E2.24229
G1 X101.775 Y99.210 E2.25144
G1 X101.900 Y99.596 E2.26272
G1 X101.942 Y100.000 E2.27400
G1 X101.900 Y100.404 E2.28528
G1 X101.775 Y100.790 E2.29656
G1 X101.647 Y101.010 E2.30363
G1 X101.923 Y101.730 F7800.000
G1 X98.077 Y101.730 E2.41044 F612.891
G1 X97.896 Y101.529 E2.41797
G1 X97.624 Y101.058 E2.43307
G1 X97.456 Y100.541 E2.44817
G1 X97.399 Y100.000 E2.46328
G1 X97.456 Y99.459 E2.47838
G1 X97.624 Y98.942 E2.49348
G1 X97.896 Y98.471 E2.50858
G1 X98.077 Y98.270 E2.51611
G1 X101.923 Y98.270 E2.62292
G1 X102.104 Y98.471 E2.63045
G1 X102.376 Y98.942 E2.64555
G1 X102.544 Y99.459 E2.66065
G1 X102.601 Y100.000 E2.67575
G1 X102.544 Y100.541 E2.69085
G1 X102.376 Y101.058 E2.70595
