; generated by Slic3r 1.2.9 on 2015-08-04 at 18:17:02

; external perimeters extrusion width = 0.50mm
; perimeters extrusion width = 0.72mm
; infill extrusion width = 0.72mm
; solid infill extrusion width = 0.72mm
; top infill extrusion width = 0.72mm

M107
M104 S200 ; set temperature
G28 ; home all axes
G1 Z5 F5000 ; lift nozzle

M109 S200 ; wait for temperature to be reached
G21 ; set units to millimeters
G90 ; use absolute coordinates
M82 ; use absolute distances for extrusion
G92 E0
G1 Z0.350 F7800.000
G1 E-2.00000 F2400.00000
G92 E0
G1 X79.756 Y86.347 F7800.000
G1 E2.00000 F2400.00000
G1 X81.687 Y85.110 E2.07096 F1800.000
G1 X84.243 Y84.597 E2.15162
G1 X115.757 Y84.597 E3.12670
G1 X118.016 Y84.994 E3.19766
G1 X120.004 Y86.137 E3.26862 F1800.000
G1 X121.483 Y87.890 E3.33959
G1 X122.325 Y90.357 E3.42024
G1 X122.507 Y91.741 E3.46343
G1 X122.558 Y92.316 E3.48132
G1 X122.619 Y93.711 E3.52451
G1 X122.619 Y94.289 E3.54239
G1 X122.558 Y95.684 E3.58558
G1 X122.507 Y96.259 E3.60346
G1 X122.325 Y97.643 E3.64665
G1 X122.225 Y98.212 E3.66453
G1 X121.923 Y99.575 E3.70772
G1 X121.773 Y100.133 E3.72560
G1 X121.353 Y101.464 E3.76879
G1 X121.156 Y102.008 E3.78668
G1 X120.621 Y103.298 E3.82989
G1 X120.377 Y103.821 E3.84774
G1 X119.732 Y105.060 E3.89095
G1 X119.439 Y105.568 E3.90912
G1 X118.694 Y106.737 E3.95201
G1 X118.362 Y107.210 E3.96987
G1 X117.513 Y108.318 E4.01307
G1 X117.141 Y108.760 E4.03094
G1 X116.198 Y109.789 E4.07415
G1 X115.792 Y110.196 E4.09193
G1 X114.760 Y111.141 E4.13522
G1 X114.318 Y111.513 E4.15310
G1 X113.210 Y112.362 E4.19629
G1 X112.737 Y112.694 E4.21417
G1 X111.559 Y113.444 E4.25736
G1 X111.059 Y113.733 E4.27524
G1 X109.821 Y114.377 E4.31843
G1 X109.297 Y114.622 E4.33631
G1 X108.008 Y115.156 E4.37950
G1 X107.464 Y115.353 E4.39738
G1 X106.133 Y115.773 E4.44057
G1 X105.575 Y115.923 E4.45845
G1 X104.212 Y116.225 E4.50164
G1 X103.643 Y116.325 E4.51953
G1 X102.259 Y116.507 E4.56271
G1 X101.684 Y116.558 E4.58059
G1 X100.289 Y116.619 E4.62378
G1 X99.711 Y116.619 E4.64167
G1 X98.316 Y116.558 E4.68486
G1 X97.741 Y116.507 E4.70274
G1 X96.357 Y116.325 E4.74592
G1 X95.788 Y116.225 E4.76381
G1 X94.425 Y115.923 E4.80700
G1 X93.867 Y115.773 E4.82488
G1 X92.536 Y115.353 E4.86807
G1 X91.992 Y115.156 E4.88595
G1 X90.703 Y114.622 E4.92914
G1 X90.179 Y114.377 E4.94702
G1 X88.941 Y113.733 E4.99021
G1 X88.336 Y113.377 E5.01191
G1 X87.263 Y112.694 E5.05128
G1 X86.790 Y112.362 E5.06916
G1 X85.682 Y111.513 E5.11235
G1 X85.240 Y111.141 E5.13023
G1 X84.219 Y110.206 E5.17307
G1 X83.802 Y109.789 E5.19130
G1 X82.843 Y108.743 E5.23523
G1 X82.487 Y108.318 E5.25237
G1 X81.637 Y107.210 E5.29558
G1 X81.306 Y106.737 E5.31344
G1 X80.556 Y105.559 E5.35664
G1 X80.267 Y105.059 E5.37452
G1 X79.623 Y103.821 E5.41770
G1 X79.379 Y103.297 E5.43558
G1 X78.844 Y102.008 E5.47877
G1 X78.647 Y101.464 E5.49666
G1 X78.227 Y100.133 E5.53985
G1 X78.077 Y99.575 E5.55773
G1 X77.775 Y98.212 E5.60092
G1 X77.675 Y97.643 E5.61880
G1 X77.508 Y96.372 E5.65847
G1 X77.442 Y95.684 E5.67986
G1 X77.381 Y94.289 E5.72305
G1 X77.381 Y93.711 E5.74094
G1 X77.442 Y92.316 E5.78413
G1 X77.493 Y91.741 E5.80201
G1 X77.675 Y90.357 E5.84520
G1 X78.363 Y88.169 E5.91616
G1 X79.711 Y86.407 E5.98480
G1 E3.98480 F2400.00000
G92 E0
G1 X103.497 Y107.959 F7800.000
G1 E2.00000 F2400.00000
G1 X103.377 Y107.668 E2.00973 F1800.000
G1 X103.786 Y107.407 E2.02475
G1 X104.243 Y107.057 E2.04257
G1 X104.668 Y106.668 E2.06039
G1 X105.057 Y106.243 E2.07821
G1 X105.407 Y105.786 E2.09602
G1 X105.717 Y105.301 E2.11384
G1 X105.983 Y104.790 E2.13166
G1 X106.203 Y104.258 E2.14948
G1 X106.376 Y103.709 E2.16730
G1 X106.501 Y103.146 E2.18512
G1 X106.576 Y102.575 E2.20294
G1 X106.600 Y102.035 E2.21967
G1 X106.600 Y94.461 E2.45403
G1 X114.353 Y93.094 E2.69762
G1 X114.398 Y94.005 E2.72586
G1 X114.344 Y95.255 E2.76456
G1 X114.180 Y96.500 E2.80343
G1 X113.908 Y97.727 E2.84229
G1 X113.530 Y98.925 E2.88116
G1 X113.050 Y100.085 E2.92002
G1 X112.474 Y101.190 E2.95858
G1 X111.794 Y102.259 E2.99777
G1 X111.030 Y103.255 E3.03662
G1 X110.181 Y104.181 E3.07549
G1 X109.255 Y105.030 E3.11435
G1 X108.259 Y105.795 E3.15322
G1 X107.199 Y106.470 E3.19209
G1 X106.085 Y107.050 E3.23095
G1 X104.925 Y107.530 E3.26982
G1 X103.571 Y107.943 E3.31361
G1 X96.623 Y107.668 F7800.000
G1 X96.503 Y107.959 E3.32335 F1800.000
G1 X96.273 Y107.908 E3.33061
G1 X95.075 Y107.530 E3.36947
G1 X93.915 Y107.050 E3.40834
G1 X92.801 Y106.470 E3.44721
G1 X91.741 Y105.795 E3.48607
G1 X90.745 Y105.030 E3.52494
G1 X89.819 Y104.181 E3.56381
G1 X88.970 Y103.255 E3.60267
G1 X88.205 Y102.259 E3.64154
G1 X87.530 Y101.199 E3.68040
G1 X86.950 Y100.085 E3.71927
G1 X86.470 Y98.925 E3.75814
G1 X86.092 Y97.727 E3.79700
G1 X85.820 Y96.500 E3.83587
G1 X85.656 Y95.255 E3.87473
G1 X85.601 Y94.000 E3.91360
G1 X85.641 Y93.093 E3.94171
G1 X93.400 Y94.461 E4.18549
G1 X93.400 Y102.035 E4.41985
G1 X93.424 Y102.575 E4.43658
G1 X93.499 Y103.146 E4.45440
G1 X93.624 Y103.709 E4.47222
G1 X93.797 Y104.258 E4.49004
G1 X94.017 Y104.790 E4.50786
G1 X94.283 Y105.301 E4.52568
G1 X94.593 Y105.786 E4.54350
G1 X94.943 Y106.243 E4.56132
G1 X95.332 Y106.668 E4.57913
G1 X95.757 Y107.057 E4.59695
G1 X96.214 Y107.407 E4.61477
G1 X96.560 Y107.628 E4.62747
G1 E2.62747 F2400.00000
G92 E0
G1 X94.025 Y93.936 F7800.000
G1 E2.00000 F2400.00000
G1 X94.025 Y102.021 E2.25016 F1800.000
G1 X94.047 Y102.521 E2.26563
G1 X94.115 Y103.038 E2.28176
G1 X94.228 Y103.547 E2.29789
G1 X94.385 Y104.044 E2.31402
G1 X94.584 Y104.525 E2.33015
G1 X94.825 Y104.988 E2.34628
G1 X95.105 Y105.428 E2.36241
G1 X95.422 Y105.841 E2.37854
G1 X95.774 Y106.226 E2.39467
G1 X96.159 Y106.578 E2.41080
G1 X96.572 Y106.895 E2.42693
G1 X97.012 Y107.175 E2.44306
G1 X97.475 Y107.416 E2.45919
G1 X97.956 Y107.615 E2.47532
G1 X98.453 Y107.772 E2.49145
G1 X98.962 Y107.885 E2.50758
G1 X99.479 Y107.953 E2.52371
G1 X100.000 Y107.976 E2.53985
G1 X100.521 Y107.953 E2.55598
G1 X101.038 Y107.885 E2.57211
G1 X101.547 Y107.772 E2.58824
G1 X102.044 Y107.615 E2.60437
G1 X102.527 Y107.415 E2.62055
G1 X103.003 Y107.165 E2.63719
G1 X103.428 Y106.895 E2.65276
G1 X103.841 Y106.578 E2.66889
G1 X104.226 Y106.226 E2.68502
G1 X104.578 Y105.841 E2.70115
G1 X104.895 Y105.428 E2.71728
G1 X105.175 Y104.988 E2.73341
G1 X105.416 Y104.525 E2.74954
G1 X105.615 Y104.044 E2.76567
G1 X105.772 Y103.547 E2.78180
G1 X105.885 Y103.038 E2.79793
G1 X105.953 Y102.521 E2.81406
G1 X105.975 Y102.021 E2.82953
G1 X105.975 Y93.936 E3.07969
G1 X114.923 Y92.359 E3.36084
G1 X114.953 Y92.581 E3.36778
G1 X115.024 Y94.003 E3.41184
G1 X114.967 Y95.309 E3.45229
G1 X114.796 Y96.609 E3.49285
G1 X114.512 Y97.889 E3.53340
G1 X114.118 Y99.139 E3.57396
G1 X113.617 Y100.349 E3.61451
G1 X113.016 Y101.503 E3.65475
G1 X112.307 Y102.618 E3.69563
G1 X111.509 Y103.657 E3.73617
G1 X110.624 Y104.624 E3.77673
G1 X109.657 Y105.509 E3.81728
G1 X108.618 Y106.307 E3.85784
G1 X107.512 Y107.011 E3.89839
G1 X106.349 Y107.617 E3.93895
G1 X105.139 Y108.118 E3.97950
G1 X103.889 Y108.512 E4.02006
G1 X102.609 Y108.796 E4.06061
G1 X101.309 Y108.967 E4.10116
G1 X100.000 Y109.024 E4.14172
G1 X98.691 Y108.967 E4.18227
G1 X97.391 Y108.796 E4.22283
G1 X96.111 Y108.512 E4.26338
G1 X94.861 Y108.118 E4.30394
G1 X93.651 Y107.617 E4.34449
G1 X92.488 Y107.011 E4.38505
G1 X91.382 Y106.307 E4.42560
G1 X90.343 Y105.509 E4.46616
G1 X89.376 Y104.624 E4.50671
G1 X88.491 Y103.657 E4.54726
G1 X87.693 Y102.618 E4.58782
G1 X86.989 Y101.512 E4.62837
G1 X86.383 Y100.349 E4.66893
G1 X85.882 Y99.139 E4.70948
G1 X85.488 Y97.889 E4.75004
G1 X85.204 Y96.609 E4.79059
G1 X85.033 Y95.309 E4.83115
G1 X84.976 Y94.000 E4.87170
G1 X85.033 Y92.691 E4.91225
G1 X85.077 Y92.359 E4.92262
G1 X93.951 Y93.923 E5.20144
G1 X94.650 Y93.412 F7800.000
G1 X94.650 Y102.008 E5.46740 F1800.000
G1 X94.670 Y102.466 E5.48161
G1 X94.731 Y102.929 E5.49605
G1 X94.832 Y103.385 E5.51049
G1 X94.972 Y103.830 E5.52493
G1 X95.151 Y104.261 E5.53937
G1 X95.366 Y104.675 E5.55382
G1 X95.617 Y105.069 E5.56826
G1 X95.901 Y105.439 E5.58270
G1 X96.217 Y105.783 E5.59714
G1 X96.561 Y106.099 E5.61158
G1 X96.931 Y106.383 E5.62603
G1 X97.325 Y106.634 E5.64047
G1 X97.739 Y106.849 E5.65491
G1 X98.170 Y107.028 E5.66935
G1 X98.615 Y107.168 E5.68380
G1 X99.071 Y107.269 E5.69824
G1 X99.534 Y107.330 E5.71268
G1 X100.000 Y107.350 E5.72712
G1 X100.466 Y107.330 E5.74156
G1 X100.929 Y107.269 E5.75601
G1 X101.385 Y107.168 E5.77045
G1 X101.830 Y107.028 E5.78489
G1 X102.262 Y106.849 E5.79935
G1 X102.690 Y106.624 E5.81430
G1 X103.069 Y106.383 E5.82821
G1 X103.439 Y106.099 E5.84266
G1 X103.783 Y105.783 E5.85710
G1 X104.099 Y105.439 E5.87154
G1 X104.383 Y105.069 E5.88598
G1 X104.634 Y104.675 E5.90042
G1 X104.849 Y104.261 E5.91487
G1 X105.028 Y103.830 E5.92931
G1 X105.168 Y103.385 E5.94375
G1 X105.269 Y102.929 E5.95819
G1 X105.330 Y102.466 E5.97263
G1 X105.350 Y102.008 E5.98684
G1 X105.350 Y93.412 E6.25280
G1 X115.458 Y91.630 E6.57037
G1 X115.575 Y92.525 E6.59829
G1 X115.650 Y94.001 E6.64404
G1 X115.590 Y95.364 E6.68624
G1 X115.412 Y96.718 E6.72849
G1 X115.116 Y98.050 E6.77073
G1 X114.706 Y99.352 E6.81297
G1 X114.183 Y100.614 E6.85522
G1 X113.558 Y101.816 E6.89713
G1 X112.819 Y102.976 E6.93970
G1 X111.988 Y104.059 E6.98194
G1 X111.066 Y105.066 E7.02419
G1 X110.059 Y105.988 E7.06643
G1 X108.976 Y106.819 E7.10867
G1 X107.825 Y107.553 E7.15091
G1 X106.614 Y108.183 E7.19316
G1 X105.352 Y108.706 E7.23540
G1 X104.050 Y109.116 E7.27764
G1 X102.718 Y109.412 E7.31989
G1 X101.364 Y109.590 E7.36213
G1 X100.000 Y109.650 E7.40437
G1 X98.636 Y109.590 E7.44661
G1 X97.282 Y109.412 E7.48886
G1 X95.950 Y109.116 E7.53110
G1 X94.648 Y108.706 E7.57334
G1 X93.386 Y108.183 E7.61558
G1 X92.175 Y107.553 E7.65783
G1 X91.024 Y106.819 E7.70007
G1 X89.941 Y105.988 E7.74231
G1 X88.934 Y105.066 E7.78456
G1 X88.012 Y104.059 E7.82680
G1 X87.181 Y102.976 E7.86904
G1 X86.447 Y101.825 E7.91129
G1 X85.817 Y100.614 E7.95353
G1 X85.294 Y99.352 E7.99577
G1 X84.884 Y98.050 E8.03801
G1 X84.588 Y96.718 E8.08026
G1 X84.410 Y95.364 E8.12250
G1 X84.350 Y94.000 E8.16474
G1 X84.410 Y92.636 E8.20699
G1 X84.542 Y91.630 E8.23839
G1 X94.576 Y93.399 E8.55364
G1 X94.375 Y93.830 F7800.000
G1 X93.022 Y95.059 F7800.000
G1 X92.712 Y94.749 E8.56729 F1800.000
G1 X91.631 Y94.559 E8.60150
G1 X93.022 Y95.949 E8.66281
G1 X93.022 Y96.840 E8.69056
G1 X90.550 Y94.368 E8.79951
G1 X89.469 Y94.177 E8.83372
G1 X93.022 Y97.730 E8.99031
G1 X93.022 Y98.620 E9.01807
G1 X88.388 Y93.987 E9.22231
G1 X87.308 Y93.796 E9.25652
G1 X93.022 Y99.510 E9.50841
G1 X93.022 Y100.401 E9.53616
G1 X86.227 Y93.606 E9.83570
G1 X85.998 Y94.267 E9.85752
G1 X93.022 Y101.291 E10.16714
G1 X93.022 Y102.181 E10.19490
G1 X86.051 Y95.210 E10.50220
G1 X86.186 Y96.236 E10.53443
G1 X93.099 Y103.149 E10.83918
G1 X93.367 Y104.307 E10.87626
G1 X86.434 Y97.374 E11.18188
G1 X86.840 Y98.670 E11.22421
G1 X94.131 Y105.962 E11.54564
G1 X93.709 Y106.430 E11.56529
G1 X87.570 Y100.291 E11.83591
G1 X89.738 Y103.349 F7800.000
G1 X90.651 Y104.262 E11.87617 F1800.000
G1 X94.196 Y106.413 F7800.000
G1 X94.997 Y106.993 E11.90680 F1800.000
G1 X95.595 Y107.348 E11.92830
G1 X96.850 Y107.937 F7800.000
G1 X97.506 Y108.144 E11.97345 F1800.000
G1 X98.315 Y108.334 E12.02795
G1 X98.877 Y108.427 E12.06534
G1 X100.000 Y108.500 E12.13915
G1 X101.123 Y108.427 E12.21296
G1 X101.685 Y108.334 E12.25036
G1 X102.494 Y108.144 E12.30486
G1 X103.150 Y107.937 E12.35001
G1 X104.405 Y107.348 F7800.000
G1 X105.003 Y106.993 E12.37151 F1800.000
G1 X105.804 Y106.413 E12.40214
G1 X106.143 Y106.055 F7800.000
G1 X106.531 Y106.443 E12.41965 F1800.000
G1 X107.127 Y106.127 E12.44115
G1 X106.163 Y105.163 E12.48461
G1 X106.452 Y104.541 E12.50649
G1 X107.683 Y105.772 E12.56204
G1 X108.229 Y105.407 E12.58299
G1 X106.688 Y103.867 E12.65250
G1 X106.866 Y103.133 E12.67658
G1 X108.745 Y105.012 E12.76134
G1 X109.244 Y104.601 E12.78198
G1 X106.961 Y102.317 E12.88500
G1 X106.978 Y101.424 E12.91350
G1 X109.715 Y104.161 E13.03697
G1 X110.171 Y103.705 E13.05751
G1 X106.978 Y100.513 E13.20153
G1 X106.978 Y99.602 E13.23059
G1 X110.611 Y103.234 E13.39443
G1 X111.021 Y102.733 E13.41508
G1 X106.978 Y98.691 E13.59743
G1 X106.978 Y97.780 E13.62649
G1 X111.416 Y102.218 E13.82669
G1 X111.780 Y101.670 E13.84765
G1 X106.978 Y96.869 E14.06426
G1 X106.978 Y95.957 E14.09331
G1 X112.134 Y101.113 E14.32590
G1 X112.450 Y100.518 E14.34740
G1 X106.978 Y95.046 E14.59421
G1 X107.507 Y94.664 E14.61502
G1 X112.755 Y99.912 E14.85178
G1 X113.022 Y99.268 E14.87402
G1 X108.281 Y94.527 E15.08788
G1 X109.056 Y94.391 E15.11297
G1 X113.270 Y98.605 E15.30305
G1 X113.488 Y97.912 E15.32622
G1 X109.830 Y94.254 E15.49122
G1 X110.605 Y94.118 E15.51631
G1 X113.668 Y97.180 E15.65447
G1 X113.824 Y96.426 E15.67905
G1 X111.379 Y93.981 E15.78934
G1 X112.154 Y93.845 E15.81442
G1 X113.930 Y95.621 E15.89456
G1 X113.992 Y94.772 E15.92173
G1 X112.928 Y93.708 E15.96971
G1 X113.703 Y93.571 E15.99479
G1 X114.006 Y93.875 E16.00848
G1 Z0.650 F7800.000
G1 X107.985 Y106.194 F7800.000
G1 X108.455 Y107.863 E16.05664 F3600.000
G1 X108.649 Y108.550 E16.07649 F3600.000
G1 X107.208 Y108.550 E16.11652
G1 X101.764 Y108.550 E16.26774 F3600.000
G1 X101.713 Y108.217 E16.27710
G1 X102.206 Y108.062 E16.29147
G1 X102.720 Y107.849 E16.30691
G1 X103.183 Y107.614 E16.32134
G1 X103.700 Y107.284 E16.33837
G1 X104.147 Y106.942 E16.35400
G1 X104.561 Y106.561 E16.36964
G1 X104.942 Y106.147 E16.38527
G1 X105.284 Y105.700 E16.40090
G1 X105.587 Y105.225 E16.41653
G1 X105.847 Y104.726 E16.43217
G1 X106.062 Y104.206 E16.44780
G1 X106.231 Y103.670 E16.46343
G1 X106.353 Y103.120 E16.47906
G1 X106.426 Y102.562 E16.49470
G1 X106.450 Y102.032 E16.50945
G1 X106.450 Y94.335 E16.72325
G1 X114.502 Y92.915 E16.95037
G1 X114.549 Y94.000 E16.98055
G1 X114.494 Y95.268 E17.01580
G1 X114.328 Y96.526 E17.05106
G1 X114.053 Y97.766 E17.08632
G1 X113.672 Y98.976 E17.12157
G1 X113.186 Y100.149 E17.15683
G1 X112.600 Y101.275 E17.19209
G1 X111.918 Y102.345 E17.22734
G1 X111.145 Y103.352 E17.26260
G1 X110.288 Y104.288 E17.29786
G1 X109.352 Y105.145 E17.33311
G1 X108.045 Y106.148 E17.37888
G1 E15.37888 F2400.00000
G92 E0
G1 X92.015 Y106.194 F7800.000
G1 E2.00000 F2400.00000
G1 X90.648 Y105.145 E2.04785 F3600.000
G1 X89.712 Y104.288 E2.08310
G1 X88.855 Y103.352 E2.11836
G1 X88.082 Y102.345 E2.15362
G1 X87.400 Y101.275 E2.18887
G1 X86.814 Y100.149 E2.22413
G1 X86.328 Y98.976 E2.25939
G1 X85.947 Y97.766 E2.29464
G1 X85.672 Y96.526 E2.32990
G1 X85.506 Y95.268 E2.36516
G1 X85.451 Y94.000 E2.40041
G1 X85.498 Y92.915 E2.43058
G1 X93.550 Y94.335 E2.65770
G1 X93.550 Y102.032 E2.87151
G1 X93.574 Y102.562 E2.88626
G1 X93.647 Y103.120 E2.90189
G1 X93.769 Y103.670 E2.91753
G1 X93.938 Y104.206 E2.93316
G1 X94.153 Y104.726 E2.94879
G1 X94.413 Y105.225 E2.96442
G1 X94.716 Y105.700 E2.98006
G1 X95.058 Y106.147 E2.99569
G1 X95.439 Y106.561 E3.01132
G1 X95.853 Y106.942 E3.02695
G1 X96.300 Y107.284 E3.04259
G1 X96.775 Y107.587 E3.05822
G1 X97.274 Y107.847 E3.07385
G1 X97.794 Y108.062 E3.08948
G1 X98.287 Y108.217 E3.10386
G1 X98.236 Y108.550 E3.11322
G1 X92.792 Y108.550 E3.26444
G1 X91.351 Y108.550 E3.30446 F3600.000
G1 X91.545 Y107.863 E3.32431
G1 X91.994 Y106.266 E3.37039 F3600.000
G1 X91.264 Y106.443 F7800.000
G1 X90.227 Y105.647 E3.40671 F3600.000
G1 X89.249 Y104.751 E3.44356
G1 X88.353 Y103.773 E3.48040
G1 X87.545 Y102.721 E3.51725
G1 X86.833 Y101.602 E3.55409
G1 X86.220 Y100.426 E3.59093
G1 X85.713 Y99.200 E3.62778
G1 X85.314 Y97.935 E3.66462
G1 X85.027 Y96.640 E3.70147
G1 X84.854 Y95.325 E3.73831
G1 X84.796 Y94.000 E3.77516
G1 X84.854 Y92.675 E3.81200
G1 X84.923 Y92.149 E3.82674
G1 X94.205 Y93.786 E4.08855
G1 X94.205 Y102.017 E4.31721
G1 X94.226 Y102.505 E4.33077
G1 X94.292 Y103.006 E4.34482
G1 X94.402 Y103.500 E4.35886
G1 X94.554 Y103.982 E4.37291
G1 X94.747 Y104.449 E4.38695
G1 X94.981 Y104.898 E4.40100
G1 X95.252 Y105.324 E4.41504
G1 X95.560 Y105.725 E4.42909
G1 X95.902 Y106.098 E4.44313
G1 X96.275 Y106.440 E4.45718
G1 X96.676 Y106.748 E4.47122
G1 X97.102 Y107.019 E4.48527
G1 X97.551 Y107.253 E4.49931
G1 X98.018 Y107.446 E4.51336
G1 X98.500 Y107.598 E4.52740
G1 X98.994 Y107.708 E4.54145
G1 X99.495 Y107.774 E4.55549
G1 X100.000 Y107.796 E4.56954
G1 X100.505 Y107.774 E4.58358
