; generated by Slic3r 1.2.9 on 2015-08-04 at 18:17:17

; external perimeters extrusion width = 0.50mm
; perimeters extrusion width = 0.72mm
; infill extrusion width = 0.72mm
; solid infill extrusion width = 0.72mm
; top infill extrusion width = 0.72mm

M107
M104 S200 ; set temperature
G28 ; home all axes
G1 Z5 F5000 ; lift nozzle

M109 S200 ; wait for temperature to be reached
G21 ; set units to millimeters
G90 ; use absolute coordinates
M82 ; use absolute distances for extrusion
G92 E0
G1 Z0.350 F7800.000
G1 E-2.00000 F2400.00000
G92 E0
G1 X61.785 Y61.784 F7800.000
G1 E2.00000 F2400.00000
G1 X62.310 Y61.285 E2.02243 F1800.000
G1 X62.753 Y60.914 E2.04031
G1 X63.457 Y60.392 E2.06743
G1 X93.940 Y40.083 E3.20078
G1 X94.441 Y39.793 E3.21868
G1 X95.351 Y39.348 E3.25001
G1 X95.754 Y39.181 E3.26351
G1 X96.715 Y38.852 E3.29494
G1 X97.698 Y38.608 E3.32628
G1 X98.699 Y38.451 E3.35762
G1 X99.276 Y38.400 E3.37555
G1 X100.289 Y38.381 E3.40689
G1 X100.724 Y38.400 E3.42039 F1800.000
G1 X101.734 Y38.508 E3.45181
G1 X102.302 Y38.608 E3.46966
G1 X103.285 Y38.852 E3.50099
G1 X103.701 Y38.983 E3.51450
G1 X104.650 Y39.348 E3.54594
G1 X105.559 Y39.793 E3.57726
G1 X106.060 Y40.083 E3.59517
G1 X136.543 Y60.392 E4.72851
G1 X137.247 Y60.914 E4.75564
G1 X138.012 Y61.580 E4.78701
G1 X138.715 Y62.311 E4.81838
G1 X139.352 Y63.099 E4.84974
G1 X139.917 Y63.940 E4.88110
G1 X140.207 Y64.441 E4.89900
G1 X150.457 Y84.924 E5.60770
G1 X150.819 Y85.754 E5.63570
G1 X151.148 Y86.715 E5.66713
G1 X151.298 Y87.272 E5.68500
G1 X151.492 Y88.266 E5.71632
G1 X151.600 Y89.276 E5.74774
G1 X151.625 Y90.000 E5.77017
G1 X151.625 Y130.000 E7.00782
G1 X151.600 Y130.724 E7.03025
G1 X151.549 Y131.302 E7.04818
G1 X151.392 Y132.302 E7.07950
G1 X151.298 Y132.727 E7.09300
G1 X151.017 Y133.701 E7.12436
G1 X150.819 Y134.246 E7.14230
G1 X150.457 Y135.076 E7.17030
G1 X140.206 Y155.559 E7.87901
G1 X139.917 Y156.060 E7.89690
G1 X139.351 Y156.901 E7.92827
G1 X139.086 Y157.247 E7.94177
G1 X138.420 Y158.011 E7.97314
G1 X137.690 Y158.714 E8.00450
G1 X137.247 Y159.086 E8.02238
G1 X136.428 Y159.683 E8.05374
G1 X136.060 Y159.917 E8.06724
G1 X135.559 Y160.207 E8.08514
G1 X134.649 Y160.652 E8.11647
G1 X134.246 Y160.819 E8.12997
G1 X133.285 Y161.148 E8.16140
G1 X132.728 Y161.298 E8.17927
G1 X131.734 Y161.492 E8.21059
G1 X130.724 Y161.600 E8.24201
G1 X130.289 Y161.619 E8.25551
G1 X69.711 Y161.619 E10.12984
G1 X68.698 Y161.549 E10.16126
G1 X68.265 Y161.492 E10.17478
G1 X67.273 Y161.298 E10.20608
G1 X66.299 Y161.017 E10.23744
G1 X65.754 Y160.819 E10.25538
G1 X64.828 Y160.408 E10.28672
G1 X63.940 Y159.917 E10.31810
G1 X63.572 Y159.683 E10.33161
G1 X62.753 Y159.086 E10.36296
G1 X62.310 Y158.714 E10.38085
G1 X61.580 Y158.011 E10.41221
G1 X61.285 Y157.690 E10.42571
G1 X60.648 Y156.901 E10.45708
G1 X60.083 Y156.060 E10.48845
G1 X59.794 Y155.559 E10.50634
G1 X59.543 Y155.076 E10.52318
G1 X49.543 Y135.076 E11.21504
G1 X49.181 Y134.246 E11.24305
G1 X48.983 Y133.701 E11.26099
G1 X48.702 Y132.728 E11.29234
G1 X48.608 Y132.302 E11.30584
G1 X48.451 Y131.302 E11.33716
G1 X48.400 Y130.724 E11.35509
G1 X48.375 Y130.000 E11.37752
G1 X48.375 Y90.000 E12.61517
G1 X48.400 Y89.275 E12.63761
G1 X48.451 Y88.698 E12.65553
G1 X48.508 Y88.266 E12.66903
G1 X48.702 Y87.272 E12.70035
G1 X48.983 Y86.299 E12.73170
G1 X49.181 Y85.754 E12.74965
G1 X49.543 Y84.924 E12.77765
G1 X59.794 Y64.441 E13.48636
G1 X60.083 Y63.940 E13.50425
G1 X60.648 Y63.099 E13.53561
G1 X61.285 Y62.310 E13.56698
G1 X61.731 Y61.837 E13.58710
G1 E11.58710 F2400.00000
G92 E0
G1 X101.191 Y146.334 F7800.000
G1 E2.00000 F2400.00000
G1 X102.266 Y146.882 E2.03731 F1800.000
G1 X103.118 Y147.734 E2.07462
G1 X103.666 Y148.809 E2.11194
G1 X103.854 Y150.000 E2.14925
G1 X103.666 Y151.191 E2.18656
G1 X103.118 Y152.265 E2.22387
G1 X102.266 Y153.118 E2.26119
G1 X101.191 Y153.666 E2.29850
G1 X100.000 Y153.854 E2.33581
G1 X98.809 Y153.666 E2.37313
G1 X97.734 Y153.118 E2.41044
G1 X96.882 Y152.265 E2.44775
G1 X96.334 Y151.191 E2.48506
G1 X96.146 Y150.000 E2.52238
G1 X96.334 Y148.809 E2.55969
G1 X96.882 Y147.734 E2.59700
G1 X97.734 Y146.882 E2.63431
G1 X98.809 Y146.334 E2.67163
G1 X99.851 Y146.169 E2.70426
G1 X100.000 Y146.146 E2.70894 F1800.000
G1 X101.117 Y146.323 E2.74393
G1 X101.580 Y146.020 F7800.000
G1 X106.334 Y148.809 F7800.000
G1 X106.882 Y147.734 E2.78124 F1800.000
G1 X107.734 Y146.882 E2.81856
G1 X108.809 Y146.334 E2.85587
G1 X109.851 Y146.169 E2.88850
G1 X110.000 Y146.146 E2.89318 F1800.000
G1 X111.191 Y146.334 E2.93049
G1 X112.265 Y146.882 E2.96780
G1 X113.118 Y147.734 E3.00512
G1 X113.666 Y148.809 E3.04243
G1 X113.854 Y150.000 E3.07974
G1 X113.666 Y151.191 E3.11706
G1 X113.118 Y152.265 E3.15437
G1 X112.265 Y153.118 E3.19168
G1 X111.191 Y153.666 E3.22899
G1 X110.000 Y153.854 E3.26631
G1 X108.809 Y153.666 E3.30362
G1 X107.734 Y153.118 E3.34093
G1 X106.882 Y152.265 E3.37824
G1 X106.334 Y151.191 E3.41555
G1 X106.146 Y150.000 E3.45287
G1 X106.323 Y148.883 E3.48786
G1 X106.020 Y148.420 F7800.000
G1 E1.48786 F2400.00000
G92 E0
G1 X116.146 Y150.000 F7800.000
G1 E2.00000 F2400.00000
G1 X116.334 Y148.809 E2.03731 F1800.000
G1 X116.882 Y147.734 E2.07463
G1 X117.734 Y146.882 E2.11194
G1 X118.809 Y146.334 E2.14925
G1 X119.851 Y146.169 E2.18188
G1 X120.000 Y146.146 E2.18656 F1800.000
G1 X121.191 Y146.334 E2.22388
G1 X122.265 Y146.882 E2.26119
G1 X123.118 Y147.734 E2.29850
G1 X123.666 Y148.809 E2.33581
G1 X123.854 Y150.000 E2.37313
G1 X123.666 Y151.191 E2.41044
G1 X123.118 Y152.265 E2.44775
G1 X122.265 Y153.118 E2.48507
G1 X121.191 Y153.666 E2.52238
G1 X120.000 Y153.854 E2.55969
G1 X118.809 Y153.666 E2.59700
G1 X117.734 Y153.118 E2.63432
G1 X116.882 Y152.265 E2.67163
G1 X116.334 Y151.191 E2.70894
G1 X116.157 Y150.074 E2.74393
G1 X115.726 Y149.728 F7800.000
G1 E0.74393 F2400.00000
G92 E0
G1 X126.146 Y150.000 F7800.000
G1 E2.00000 F2400.00000
G1 X126.334 Y148.809 E2.03731 F1800.000
G1 X126.882 Y147.734 E2.07463
G1 X127.734 Y146.882 E2.11194
G1 X128.809 Y146.334 E2.14925
G1 X129.851 Y146.169 E2.18188
G1 X130.000 Y146.146 E2.18656 F1800.000
G1 X131.191 Y146.334 E2.22388
G1 X132.265 Y146.882 E2.26119
G1 X133.118 Y147.734 E2.29850
G1 X133.666 Y148.809 E2.33581
G1 X133.854 Y150.000 E2.37313
G1 X133.666 Y151.191 E2.41044
G1 X133.118 Y152.265 E2.44775
G1 X132.265 Y153.118 E2.48507
G1 X131.191 Y153.666 E2.52238
G1 X130.000 Y153.854 E2.55969
G1 X128.809 Y153.666 E2.59700
G1 X127.734 Y153.118 E2.63432
G1 X126.882 Y152.265 E2.67163
G1 X126.334 Y151.191 E2.70894
G1 X126.157 Y150.074 E2.74393
G1 X125.726 Y149.728 F7800.000
G1 E0.74393 F2400.00000
G92 E0
G1 X137.734 Y133.118 F7800.000
G1 E2.00000 F2400.00000
G1 X136.882 Y132.265 E2.03731 F1800.000
G1 X136.334 Y131.191 E2.07462
G1 X136.146 Y130.000 E2.11194
G1 X136.334 Y128.809 E2.14925
G1 X136.882 Y127.734 E2.18656
G1 X137.734 Y126.882 E2.22388
G1 X138.809 Y126.334 E2.26119
G1 X139.851 Y126.169 E2.29382
G1 X140.000 Y126.146 E2.29850 F1800.000
G1 X141.191 Y126.334 E2.33582
G1 X142.265 Y126.882 E2.37312
G1 X143.118 Y127.734 E2.41044
G1 X143.666 Y128.809 E2.44775
G1 X143.854 Y130.000 E2.48506
G1 X143.666 Y131.191 E2.52238
G1 X143.118 Y132.265 E2.55969
G1 X142.265 Y133.118 E2.59700
G1 X141.191 Y133.666 E2.63431
G1 X140.000 Y133.854 E2.67163
G1 X138.809 Y133.666 E2.70894
G1 X137.801 Y133.152 E2.74393
G1 X137.268 Y133.297 F7800.000
G1 E0.74393 F2400.00000
G92 E0
G1 X139.221 Y123.731 F7800.000
G1 E2.00000 F2400.00000
G1 X138.809 Y123.666 E2.01291 F1800.000
G1 X137.734 Y123.118 E2.05023
G1 X136.882 Y122.265 E2.08754
G1 X136.334 Y121.191 E2.12485
G1 X136.146 Y120.000 E2.16216
G1 X136.334 Y118.809 E2.19948
G1 X136.882 Y117.734 E2.23679
G1 X137.734 Y116.882 E2.27410
G1 X138.809 Y116.334 E2.31141
G1 X139.851 Y116.169 E2.34405
G1 X140.000 Y116.146 E2.34873 F1800.000
G1 X141.191 Y116.334 E2.38604
G1 X142.265 Y116.882 E2.42335
G1 X143.118 Y117.734 E2.46067
G1 X143.666 Y118.809 E2.49798
G1 X143.854 Y120.000 E2.53529
G1 X143.666 Y121.191 E2.57260
G1 X143.118 Y122.265 E2.60991
G1 X142.265 Y123.118 E2.64723
G1 X141.191 Y123.666 E2.68454
G1 X140.000 Y123.854 E2.72185
G1 X139.295 Y123.743 E2.74393
G1 X138.958 Y124.055 F7800.000
G1 E0.74393 F2400.00000
G92 E0
G1 X140.000 Y113.854 F7800.000
G1 E2.00000 F2400.00000
G1 X138.809 Y113.666 E2.03731 F1800.000
G1 X137.734 Y113.118 E2.07463
G1 X136.882 Y112.266 E2.11194
G1 X136.334 Y111.191 E2.14925
G1 X136.146 Y110.000 E2.18656
G1 X136.334 Y108.809 E2.22388
G1 X136.882 Y107.734 E2.26119
G1 X137.734 Y106.882 E2.29850
G1 X138.809 Y106.334 E2.33581
G1 X139.851 Y106.169 E2.36845
G1 X140.000 Y106.146 E2.37313 F1800.000
G1 X141.191 Y106.334 E2.41044
G1 X142.265 Y106.882 E2.44775
G1 X143.118 Y107.734 E2.48506
G1 X143.666 Y108.809 E2.52238
G1 X143.854 Y110.000 E2.55969
G1 X143.666 Y111.191 E2.59700
G1 X143.118 Y112.266 E2.63431
G1 X142.265 Y113.118 E2.67163
G1 X141.191 Y113.666 E2.70894
G1 X140.074 Y113.843 E2.74393
G1 X139.728 Y114.274 F7800.000
G1 E0.74393 F2400.00000
G92 E0
G1 X140.000 Y103.854 F7800.000
G1 E2.00000 F2400.00000
G1 X138.809 Y103.666 E2.03731 F1800.000
G1 X137.734 Y103.118 E2.07463
G1 X136.882 Y102.266 E2.11194
G1 X136.334 Y101.191 E2.14925
G1 X136.146 Y100.000 E2.18656
G1 X136.334 Y98.809 E2.22388
G1 X136.882 Y97.735 E2.26119
G1 X137.734 Y96.882 E2.29850
G1 X138.809 Y96.334 E2.33581
G1 X139.851 Y96.169 E2.36845
G1 X140.000 Y96.146 E2.37313 F1800.000
G1 X141.191 Y96.334 E2.41044
G1 X142.265 Y96.882 E2.44775
G1 X143.118 Y97.735 E2.48507
G1 X143.666 Y98.809 E2.52238
G1 X143.854 Y100.000 E2.55969
G1 X143.666 Y101.191 E2.59700
G1 X143.118 Y102.266 E2.63431
G1 X142.265 Y103.118 E2.67163
G1 X141.191 Y103.666 E2.70894
G1 X140.074 Y103.843 E2.74393
G1 X139.728 Y104.274 F7800.000
G1 E0.74393 F2400.00000
G92 E0
G1 X140.000 Y93.854 F7800.000
G1 E2.00000 F2400.00000
G1 X138.809 Y93.666 E2.03731 F1800.000
G1 X137.734 Y93.118 E2.07463
G1 X136.882 Y92.266 E2.11194
G1 X136.334 Y91.191 E2.14925
G1 X136.146 Y90.000 E2.18656
G1 X136.334 Y88.809 E2.22388
G1 X136.882 Y87.735 E2.26119
G1 X137.734 Y86.882 E2.29850
G1 X138.809 Y86.334 E2.33581
G1 X139.851 Y86.169 E2.36845
G1 X140.000 Y86.146 E2.37313 F1800.000
G1 X141.191 Y86.334 E2.41044
G1 X142.265 Y86.882 E2.44775
G1 X143.118 Y87.735 E2.48507
G1 X143.666 Y88.809 E2.52238
G1 X143.854 Y90.000 E2.55969
G1 X143.666 Y91.191 E2.59700
G1 X143.118 Y92.266 E2.63432
G1 X142.265 Y93.118 E2.67163
G1 X141.191 Y93.666 E2.70894
G1 X140.074 Y93.843 E2.74393
G1 X139.728 Y94.274 F7800.000
G1 E0.74393 F2400.00000
G92 E0
G1 X131.191 Y73.666 F7800.000
G1 E2.00000 F2400.00000
G1 X130.000 Y73.854 E2.03731 F1800.000
G1 X128.809 Y73.666 E2.07463
G1 X127.734 Y73.118 E2.11194
G1 X126.882 Y72.266 E2.14925
G1 X126.334 Y71.191 E2.18656
G1 X126.146 Y70.000 E2.22388
G1 X126.334 Y68.809 E2.26119
G1 X126.882 Y67.735 E2.29850
G1 X127.734 Y66.882 E2.33581
G1 X128.809 Y66.334 E2.37313
G1 X129.851 Y66.169 E2.40576
G1 X130.000 Y66.146 E2.41044 F1800.000
G1 X131.191 Y66.334 E2.44775
G1 X132.265 Y66.882 E2.48506
G1 X133.118 Y67.735 E2.52238
G1 X133.666 Y68.809 E2.55969
G1 X133.854 Y70.000 E2.59700
G1 X133.666 Y71.191 E2.63432
G1 X133.118 Y72.266 E2.67163
G1 X132.265 Y73.118 E2.70894
G1 X131.258 Y73.632 E2.74393
G1 X131.062 Y74.149 F7800.000
G1 E0.74393 F2400.00000
G92 E0
G1 X103.118 Y52.266 F7800.000
G1 E2.00000 F2400.00000
G1 X102.266 Y53.118 E2.03731 F1800.000
G1 X101.191 Y53.666 E2.07462
G1 X100.000 Y53.854 E2.11194
G1 X98.809 Y53.666 E2.14925
G1 X97.734 Y53.118 E2.18656
G1 X96.882 Y52.266 E2.22387
G1 X96.334 Y51.191 E2.26119
G1 X96.146 Y50.000 E2.29850
G1 X96.334 Y48.809 E2.33581
G1 X96.882 Y47.735 E2.37312
G1 X97.734 Y46.882 E2.41044
G1 X98.809 Y46.334 E2.44775
G1 X99.851 Y46.169 E2.48038
G1 X100.000 Y46.146 E2.48506 F1800.000
G1 X101.191 Y46.334 E2.52237
G1 X102.266 Y46.882 E2.55969
G1 X103.118 Y47.735 E2.59700
G1 X103.666 Y48.809 E2.63431
G1 X103.854 Y50.000 E2.67162
G1 X103.666 Y51.191 E2.70894
G1 X103.152 Y52.199 E2.74393
G1 X103.297 Y52.732 F7800.000
G1 E0.74393 F2400.00000
G92 E0
G1 X100.000 Y135.513 F7800.000
G1 E2.00000 F2400.00000
G1 X101.387 Y135.733 E2.04344 F1800.000
G1 X102.637 Y136.370 E2.08687
G1 X103.630 Y137.363 E2.13031
G1 X104.267 Y138.613 E2.17375
G1 X104.487 Y140.000 E2.21719
G1 X104.267 Y141.387 E2.26063
G1 X103.630 Y142.637 E2.30406
G1 X102.637 Y143.630 E2.34750
G1 X101.387 Y144.267 E2.39094
G1 X100.000 Y144.487 E2.43437
G1 X98.613 Y144.267 E2.47781
G1 X97.363 Y143.630 E2.52125
G1 X96.370 Y142.637 E2.56469
G1 X95.733 Y141.387 E2.60812
G1 X95.513 Y140.000 E2.65156
G1 X95.733 Y138.613 E2.69500
G1 X96.370 Y137.363 E2.73843
G1 X97.363 Y136.370 E2.78187
G1 X98.613 Y135.733 E2.82531
G1 X99.753 Y135.552 E2.86100
G1 X99.926 Y135.525 E2.86642 F1800.000
G1 X100.000 Y136.146 F7800.000
G1 X101.191 Y136.334 E2.90374 F1800.000
G1 X102.266 Y136.882 E2.94105
G1 X103.118 Y137.734 E2.97836
G1 X103.666 Y138.809 E3.01567
G1 X103.854 Y140.000 E3.05299
G1 X103.666 Y141.191 E3.09030
G1 X103.118 Y142.265 E3.12761
G1 X102.266 Y143.118 E3.16493
G1 X101.191 Y143.666 E3.20224
G1 X100.000 Y143.854 E3.23955
G1 X98.809 Y143.666 E3.27686
G1 X97.734 Y143.118 E3.31417
G1 X96.882 Y142.265 E3.35149
G1 X96.334 Y141.191 E3.38880
G1 X96.146 Y140.000 E3.42611
G1 X96.334 Y138.809 E3.46343
G1 X96.882 Y137.734 E3.50074
G1 X97.734 Y136.882 E3.53805
G1 X98.809 Y136.334 E3.57536
G1 X99.851 Y136.169 E3.60799
G1 X99.926 Y136.157 E3.61035 F1800.000
G1 X100.272 Y135.726 F7800.000
G1 X98.675 Y135.000 F7800.000
G1 X96.991 Y135.858 E3.66883 F1800.000
G1 X95.858 Y136.991 E3.71840
G1 X95.000 Y138.675 E3.77688
G1 X94.142 Y136.991 E3.83536
G1 X93.009 Y135.858 E3.88492
G1 X91.325 Y135.000 E3.94340
G1 X93.009 Y134.142 E4.00188
G1 X94.142 Y133.009 E4.05145
G1 X95.000 Y131.325 E4.10992
G1 X95.858 Y133.009 E4.16840
G1 X96.991 Y134.142 E4.21796
G1 X98.608 Y134.966 E4.27412
G1 X93.714 Y137.528 F7800.000
G1 X94.267 Y138.613 E4.31183 F1800.000
G1 X94.487 Y140.000 E4.35527
G1 X94.267 Y141.387 E4.39871
G1 X93.630 Y142.637 E4.44214
G1 X92.637 Y143.630 E4.48558
G1 X91.387 Y144.267 E4.52902
G1 X90.000 Y144.487 E4.57246
G1 X88.613 Y144.267 E4.61589
G1 X87.363 Y143.630 E4.65933
G1 X86.370 Y142.637 E4.70277
G1 X85.733 Y141.387 E4.74620
G1 X85.513 Y140.000 E4.78964
G1 X85.733 Y138.613 E4.83308
G1 X86.370 Y137.363 E4.87652
G1 X87.363 Y136.370 E4.91996
G1 X88.613 Y135.733 E4.96339
G1 X89.753 Y135.552 E4.99909
G1 X90.000 Y135.513 E5.00683 F1800.000
G1 X91.387 Y135.733 E5.05027
G1 X92.637 Y136.370 E5.09370
G1 X93.630 Y137.363 E5.13714
G1 X93.680 Y137.461 E5.14055
G1 X93.157 Y137.811 F7800.000
G1 X93.666 Y138.809 E5.17519 F1800.000
G1 X93.854 Y140.000 E5.21251
G1 X93.666 Y141.191 E5.24982
G1 X93.118 Y142.265 E5.28713
G1 X92.266 Y143.118 E5.32445
G1 X91.191 Y143.666 E5.36176
G1 X90.000 Y143.854 E5.39907
G1 X88.809 Y143.666 E5.43638
G1 X87.735 Y143.118 E5.47369
G1 X86.882 Y142.265 E5.51101
G1 X86.334 Y141.191 E5.54832
G1 X86.146 Y140.000 E5.58563
G1 X86.334 Y138.809 E5.62295
G1 X86.882 Y137.734 E5.66026
G1 X87.735 Y136.882 E5.69757
G1 X88.809 Y136.334 E5.73488
G1 X89.851 Y136.169 E5.76752
G1 X90.000 Y136.146 E5.77220 F1800.000
G1 X91.191 Y136.334 E5.80951
G1 X92.266 Y136.882 E5.84682
G1 X93.123 Y137.744 E5.88446
G1 X93.657 Y137.788 F7800.000
G1 X88.675 Y135.000 F7800.000
G1 X86.991 Y135.858 E5.94294 F1800.000
G1 X85.858 Y136.991 E5.99250
G1 X85.000 Y138.675 E6.05099
G1 X84.142 Y136.991 E6.10946
G1 X83.009 Y135.858 E6.15903
G1 X81.325 Y135.000 E6.21751
G1 X83.009 Y134.142 E6.27599
G1 X84.142 Y133.009 E6.32556
G1 X85.000 Y131.325 E6.38403
G1 X85.858 Y133.009 E6.44251
G1 X86.991 Y134.142 E6.49207
G1 X88.608 Y134.966 E6.54823
G1 X83.714 Y137.527 F7800.000
G1 X84.267 Y138.613 E6.58594 F1800.000
G1 X84.487 Y140.000 E6.62938
G1 X84.267 Y141.387 E6.67282
G1 X83.630 Y142.637 E6.71625
G1 X82.637 Y143.630 E6.75969
G1 X81.387 Y144.267 E6.80313
G1 X80.000 Y144.487 E6.84657
G1 X78.613 Y144.267 E6.89001
G1 X77.363 Y143.630 E6.93344
G1 X76.370 Y142.637 E6.97688
G1 X75.733 Y141.387 E7.02032
G1 X75.513 Y140.000 E7.06375
G1 X75.733 Y138.613 E7.10719
G1 X76.370 Y137.363 E7.15063
G1 X77.363 Y136.370 E7.19407
G1 X78.613 Y135.733 E7.23750
G1 X79.753 Y135.552 E7.27320
G1 X80.000 Y135.513 E7.28094 F1800.000
G1 X81.387 Y135.733 E7.32438
G1 X82.637 Y136.370 E7.36782
