; generated by Slic3r 1.2.9 on 2015-08-04 at 18:17:00

; external perimeters extrusion width = 0.50mm
; perimeters extrusion width = 0.72mm
; infill extrusion width = 0.72mm
; solid infill extrusion width = 0.72mm
; top infill extrusion width = 0.72mm

M107
M104 S200 ; set temperature
G28 ; home all axes
G1 Z5 F5000 ; lift nozzle

M109 S200 ; wait for temperature to be reached
G21 ; set units to millimeters
G90 ; use absolute coordinates
M82 ; use absolute distances for extrusion
G92 E0
G1 Z0.350 F7800.000
G1 E-2.00000 F2400.00000
G92 E0
G1 X74.113 Y74.113 F7800.000
G1 E2.00000 F2400.00000
G1 X75.083 Y73.161 E2.04203 F1800.000
G1 X76.817 Y71.650 E2.11321
G1 X78.306 Y70.495 E2.17152
G1 X80.202 Y69.191 E2.24272
G1 X82.175 Y68.009 E2.31390
G1 X82.540 Y67.808 E2.32678
G1 X84.596 Y66.775 E2.39796
G1 X86.325 Y66.027 E2.45628
G1 X88.485 Y65.235 E2.52746
G1 X90.691 Y64.581 E2.59865
G1 X91.094 Y64.477 E2.61153
G1 X93.342 Y63.988 E2.68271
G1 X95.204 Y63.693 E2.74103
G1 X97.493 Y63.464 E2.81220
G1 X99.792 Y63.378 E2.88339
G1 X100.499 Y63.388 E2.90526
G1 X102.507 Y63.464 E2.96746 F1800.000
G1 X104.384 Y63.641 E3.02577
G1 X106.658 Y63.988 E3.09695
G1 X107.067 Y64.066 E3.10983
G1 X109.309 Y64.581 E3.18102
G1 X111.515 Y65.235 E3.25220
G1 X113.288 Y65.873 E3.31052
G1 X115.404 Y66.775 E3.38170
G1 X115.781 Y66.952 E3.39458
G1 X117.825 Y68.009 E3.46577
G1 X119.447 Y68.968 E3.52408
G1 X121.357 Y70.250 E3.59526
G1 X121.694 Y70.495 E3.60814
G1 X123.504 Y71.915 E3.67932
G1 X124.917 Y73.161 E3.73763
G1 X126.348 Y74.574 E3.79983
G1 X126.839 Y75.083 E3.82170
G1 X128.085 Y76.496 E3.88002
G1 X129.505 Y78.306 E3.95119
G1 X129.750 Y78.643 E3.96408
G1 X131.032 Y80.553 E4.03526
G1 X131.991 Y82.175 E4.09357
G1 X132.192 Y82.540 E4.10645
G1 X133.225 Y84.596 E4.17764
G1 X133.973 Y86.325 E4.23595
G1 X134.765 Y88.485 E4.30714
G1 X135.419 Y90.691 E4.37832
G1 X135.523 Y91.094 E4.39120
G1 X136.012 Y93.342 E4.46239
G1 X136.307 Y95.204 E4.52070
G1 X136.536 Y97.493 E4.59188
G1 X136.562 Y97.908 E4.60476
G1 X136.622 Y100.208 E4.67595
G1 X136.536 Y102.507 E4.74714
G1 X136.359 Y104.384 E4.80545
G1 X136.012 Y106.658 E4.87663
G1 X135.523 Y108.906 E4.94781
G1 X135.419 Y109.309 E4.96069
G1 X134.765 Y111.515 E5.03188
G1 X133.973 Y113.675 E5.10306
G1 X133.225 Y115.404 E5.16138
G1 X132.192 Y117.460 E5.23256
G1 X131.991 Y117.825 E5.24544
G1 X130.809 Y119.798 E5.31662
G1 X129.505 Y121.694 E5.38782
G1 X128.350 Y123.183 E5.44613
G1 X126.839 Y124.917 E5.51731
G1 X126.554 Y125.221 E5.53019
G1 X124.917 Y126.839 E5.60138
G1 X123.504 Y128.085 E5.65969
G1 X121.694 Y129.505 E5.73087
G1 X121.357 Y129.750 E5.74375
G1 X119.447 Y131.032 E5.81493
G1 X117.460 Y132.192 E5.88612
G1 X115.404 Y133.225 E5.95731
G1 X113.675 Y133.973 E6.01562
G1 X111.515 Y134.765 E6.08680
G1 X111.119 Y134.894 E6.09968
G1 X108.906 Y135.523 E6.17087
G1 X107.067 Y135.934 E6.22919
G1 X104.796 Y136.307 E6.30037
G1 X102.507 Y136.536 E6.37155
G1 X102.092 Y136.562 E6.38443
G1 X100.208 Y136.622 E6.44274
G1 X97.908 Y136.562 E6.51393
G1 X95.616 Y136.359 E6.58512
G1 X93.342 Y136.012 E6.65630
G1 X92.934 Y135.934 E6.66917
G1 X91.094 Y135.523 E6.72749
G1 X88.881 Y134.894 E6.79868
G1 X88.485 Y134.765 E6.81156
G1 X86.325 Y133.973 E6.88274
G1 X84.219 Y133.048 E6.95393
G1 X82.175 Y131.991 E7.02511
G1 X80.553 Y131.032 E7.08343
G1 X78.643 Y129.750 E7.15461
G1 X78.306 Y129.505 E7.16749
G1 X76.496 Y128.085 E7.23867
G1 X75.083 Y126.839 E7.29698
G1 X73.446 Y125.221 E7.36817
G1 X73.161 Y124.917 E7.38105
G1 X71.650 Y123.183 E7.45223
G1 X70.495 Y121.694 E7.51054
G1 X69.191 Y119.798 E7.58174
G1 X68.009 Y117.825 E7.65292
G1 X67.808 Y117.460 E7.66580
G1 X66.775 Y115.404 E7.73698
G1 X66.027 Y113.675 E7.79530
G1 X65.235 Y111.515 E7.86648
G1 X64.662 Y109.588 E7.92867
G1 X64.477 Y108.906 E7.95054
G1 X64.066 Y107.067 E8.00886
G1 X63.693 Y104.796 E8.08004
G1 X63.464 Y102.507 E8.15122
G1 X63.438 Y102.092 E8.16410
G1 X63.378 Y100.208 E8.22242
G1 X63.428 Y98.199 E8.28461
G1 X63.464 Y97.493 E8.30648
G1 X63.641 Y95.616 E8.36479
G1 X63.988 Y93.342 E8.43597
G1 X64.066 Y92.933 E8.44885
G1 X64.581 Y90.691 E8.52004
G1 X65.106 Y88.881 E8.57835
G1 X65.873 Y86.712 E8.64954
G1 X66.775 Y84.596 E8.72072
G1 X66.952 Y84.219 E8.73360
G1 X68.009 Y82.175 E8.80479
G1 X68.968 Y80.553 E8.86310
G1 X70.250 Y78.643 E8.93428
G1 X70.495 Y78.306 E8.94717
G1 X71.915 Y76.496 E9.01834
G1 X73.161 Y75.083 E9.07666
G1 X74.060 Y74.166 E9.11637
G1 E7.11637 F2400.00000
G92 E0
G1 X126.940 Y106.153 F7800.000
G1 E2.00000 F2400.00000
G1 X126.250 Y108.529 E2.07656 F1800.000
G1 X125.662 Y110.160 E2.13021
G1 X124.974 Y111.752 E2.18386
G1 X124.187 Y113.297 E2.23751
G1 X123.304 Y114.789 E2.29116
G1 X122.329 Y116.223 E2.34481
G1 X121.267 Y117.593 E2.39846
G1 X120.120 Y118.894 E2.45211
G1 X118.894 Y120.120 E2.50576
G1 X117.593 Y121.267 E2.55941
G1 X116.223 Y122.329 E2.61306
G1 X114.789 Y123.304 E2.66670
G1 X113.297 Y124.187 E2.72036
G1 X111.752 Y124.974 E2.77400
G1 X110.160 Y125.662 E2.82765
G1 X108.529 Y126.250 E2.88130
G1 X106.864 Y126.733 E2.93495
G1 X105.172 Y127.112 E2.98860
G1 X103.459 Y127.383 E3.04225
G1 X101.733 Y127.546 E3.09590
G1 X100.000 Y127.601 E3.14955
G1 X98.267 Y127.546 E3.20320
G1 X96.541 Y127.383 E3.25685
G1 X94.828 Y127.112 E3.31050
G1 X91.834 Y126.442 E3.40543
G1 X92.033 Y124.191 E3.47535
G1 X90.899 Y124.042 E3.51076
G1 X89.868 Y123.813 E3.54343
G1 X88.861 Y123.496 E3.57609
G1 X87.886 Y123.092 E3.60876
G1 X86.949 Y122.604 E3.64142
G1 X86.059 Y122.037 E3.67409
G1 X85.221 Y121.395 E3.70675
G1 X84.443 Y120.681 E3.73942
G1 X83.730 Y119.903 E3.77208
G1 X83.005 Y118.958 E3.80891
G1 X81.239 Y120.253 E3.87666
G1 X79.880 Y118.894 E3.93615
G1 X78.733 Y117.593 E3.98980
G1 X77.671 Y116.223 E4.04344
G1 X76.696 Y114.789 E4.09709
G1 X75.813 Y113.297 E4.15074
G1 X75.026 Y111.752 E4.20439
G1 X74.338 Y110.160 E4.25804
G1 X73.750 Y108.529 E4.31169
G1 X73.267 Y106.864 E4.36534
G1 X72.888 Y105.170 E4.41906
G1 X72.610 Y103.386 E4.47491
G1 X72.454 Y101.733 E4.52629
G1 X72.399 Y100.000 E4.57993
G1 X72.454 Y98.267 E4.63358
G1 X72.617 Y96.541 E4.68723
G1 X72.888 Y94.828 E4.74088
G1 X73.267 Y93.136 E4.79453
G1 X73.750 Y91.471 E4.84818
G1 X74.338 Y89.840 E4.90183
G1 X75.026 Y88.248 E4.95548
G1 X75.813 Y86.703 E5.00913
G1 X76.696 Y85.211 E5.06278
G1 X77.671 Y83.777 E5.11643
G1 X78.733 Y82.407 E5.17008
G1 X79.880 Y81.106 E5.22373
G1 X81.239 Y79.747 E5.28321
G1 X83.005 Y81.042 E5.35096
G1 X83.730 Y80.097 E5.38779
G1 X84.443 Y79.319 E5.42046
G1 X85.221 Y78.605 E5.45312
G1 X86.059 Y77.963 E5.48579
G1 X86.949 Y77.396 E5.51845
G1 X87.886 Y76.908 E5.55112
G1 X88.861 Y76.504 E5.58378
G1 X89.868 Y76.187 E5.61645
G1 X90.899 Y75.958 E5.64911
G1 X92.033 Y75.809 E5.68452
G1 X91.834 Y73.558 E5.75445
G1 X94.828 Y72.888 E5.84937
G1 X96.541 Y72.617 E5.90302
G1 X98.267 Y72.454 E5.95667
G1 X99.926 Y72.402 E6.00805
G1 X101.731 Y72.454 E6.06390
G1 X103.459 Y72.617 E6.11762
G1 X105.172 Y72.888 E6.17127
G1 X106.864 Y73.267 E6.22492
G1 X108.529 Y73.750 E6.27857
G1 X110.160 Y74.338 E6.33222
G1 X111.752 Y75.026 E6.38587
G1 X113.297 Y75.813 E6.43951
G1 X114.789 Y76.696 E6.49317
G1 X116.223 Y77.671 E6.54681
G1 X117.595 Y78.735 E6.60053
G1 X118.946 Y79.932 E6.65638
G1 X120.120 Y81.106 E6.70776
G1 X121.267 Y82.407 E6.76141
G1 X122.329 Y83.777 E6.81505
G1 X123.304 Y85.211 E6.86870
G1 X124.187 Y86.703 E6.92235
G1 X124.974 Y88.248 E6.97600
G1 X125.662 Y89.840 E7.02965
G1 X126.250 Y91.471 E7.08330
G1 X126.940 Y93.847 E7.15987
G1 X124.917 Y94.763 E7.22859
G1 X125.372 Y95.861 E7.26537
G1 X125.689 Y96.868 E7.29803
G1 X125.917 Y97.899 E7.33070
G1 X126.055 Y98.945 E7.36336
G1 X126.101 Y100.000 E7.39603
G1 X126.055 Y101.055 E7.42869
G1 X125.917 Y102.101 E7.46136
G1 X125.689 Y103.132 E7.49402
G1 X125.372 Y104.139 E7.52669
G1 X124.917 Y105.237 E7.56347
G1 X126.872 Y106.122 E7.62987
G1 X126.189 Y106.499 F7800.000
G1 X125.655 Y108.336 E7.68906 F1800.000
G1 X125.081 Y109.930 E7.74150
G1 X124.408 Y111.486 E7.79393
G1 X123.639 Y112.995 E7.84637
G1 X122.776 Y114.454 E7.89880
G1 X121.823 Y115.856 E7.95123
G1 X120.785 Y117.195 E8.00367
G1 X119.664 Y118.466 E8.05610
G1 X118.466 Y119.664 E8.10854
G1 X117.195 Y120.785 E8.16097
G1 X115.856 Y121.823 E8.21340
G1 X114.454 Y122.776 E8.26584
G1 X112.995 Y123.639 E8.31827
G1 X111.486 Y124.408 E8.37071
G1 X109.930 Y125.081 E8.42314
G1 X108.336 Y125.655 E8.47558
G1 X106.709 Y126.128 E8.52801
G1 X105.055 Y126.498 E8.58044
G1 X103.381 Y126.763 E8.63288
G1 X101.694 Y126.922 E8.68531
G1 X100.000 Y126.975 E8.73775
G1 X98.306 Y126.922 E8.79018
G1 X96.619 Y126.763 E8.84261
G1 X94.945 Y126.498 E8.89505
G1 X92.505 Y125.952 E8.97242
G1 X92.663 Y124.163 E9.02799
G1 X94.048 Y124.103 E9.07089
G1 X95.088 Y123.966 E9.10334
G1 X96.112 Y123.739 E9.13580
G1 X97.112 Y123.423 E9.16826
G1 X98.082 Y123.022 E9.20072
G1 X99.012 Y122.538 E9.23317
G1 X99.897 Y121.974 E9.26563
G1 X100.729 Y121.335 E9.29808
G1 X101.502 Y120.627 E9.33054
G1 X102.211 Y119.853 E9.36300
G1 X102.850 Y119.021 E9.39545
G1 X103.413 Y118.136 E9.42791
G1 X103.898 Y117.206 E9.46037
G1 X104.299 Y116.237 E9.49282
G1 X104.614 Y115.236 E9.52528
G1 X104.841 Y114.212 E9.55774
G1 X104.978 Y113.172 E9.59019
G1 X105.024 Y112.124 E9.62265
G1 X104.978 Y111.076 E9.65511
G1 X104.560 Y107.898 E9.75430
G1 X107.103 Y109.850 E9.85350
G1 X107.988 Y110.413 E9.88595
G1 X108.918 Y110.898 E9.91841
G1 X109.887 Y111.299 E9.95087
G1 X110.888 Y111.614 E9.98332
G1 X111.912 Y111.842 E10.01578
G1 X112.952 Y111.978 E10.04824
G1 X114.000 Y112.024 E10.08069
G1 X115.048 Y111.978 E10.11315
G1 X116.088 Y111.842 E10.14560
G1 X117.112 Y111.614 E10.17806
G1 X118.113 Y111.299 E10.21052
G1 X119.082 Y110.898 E10.24297
G1 X120.012 Y110.413 E10.27543
G1 X120.897 Y109.850 E10.30789
G1 X121.729 Y109.211 E10.34034
G1 X122.502 Y108.502 E10.37280
G1 X123.209 Y107.731 E10.40518
G1 X123.888 Y106.837 E10.43991
G1 X124.570 Y105.766 E10.47919
G1 X126.121 Y106.468 E10.53185
G1 X125.438 Y106.845 F7800.000
G1 X125.061 Y108.143 E10.57367 F1800.000
G1 X124.500 Y109.700 E10.62489
G1 X123.842 Y111.219 E10.67611
G1 X123.091 Y112.694 E10.72733
G1 X122.248 Y114.119 E10.77855
G1 X121.318 Y115.488 E10.82976
G1 X120.303 Y116.796 E10.88098
G1 X119.208 Y118.038 E10.93220
G1 X118.038 Y119.208 E10.98342
G1 X116.796 Y120.303 E11.03464
G1 X115.488 Y121.318 E11.08586
G1 X114.119 Y122.248 E11.13708
G1 X112.694 Y123.091 E11.18830
G1 X111.219 Y123.842 E11.23951
G1 X109.700 Y124.500 E11.29073
G1 X108.143 Y125.061 E11.34195
G1 X106.553 Y125.522 E11.39317
G1 X104.938 Y125.883 E11.44439
G1 X103.303 Y126.142 E11.49561
G1 X101.655 Y126.298 E11.54683
G1 X100.000 Y126.350 E11.59805
G1 X98.345 Y126.298 E11.64927
G1 X96.697 Y126.142 E11.70049
G1 X95.062 Y125.883 E11.75170
G1 X93.175 Y125.462 E11.81153
G1 X93.237 Y124.764 E11.83321
G1 X94.103 Y124.726 E11.86001
G1 X95.197 Y124.582 E11.89416
G1 X96.274 Y124.343 E11.92830
G1 X97.326 Y124.011 E11.96245
G1 X98.346 Y123.589 E11.99659
G1 X99.325 Y123.079 E12.03074
G1 X100.256 Y122.486 E12.06488
G1 X101.131 Y121.815 E12.09903
G1 X101.945 Y121.069 E12.13317
G1 X102.690 Y120.255 E12.16732
G1 X103.362 Y119.380 E12.20146
G1 X103.955 Y118.449 E12.23561
G1 X104.464 Y117.470 E12.26975
G1 X104.887 Y116.451 E12.30390
G1 X105.219 Y115.398 E12.33804
G1 X105.457 Y114.321 E12.37219
G1 X105.602 Y113.227 E12.40633
G1 X105.650 Y112.124 E12.44048
G1 X105.602 Y111.022 E12.47462
G1 X105.376 Y109.312 E12.52798
G1 X106.744 Y110.362 E12.58134
G1 X107.675 Y110.955 E12.61548
G1 X108.654 Y111.464 E12.64963
G1 X109.674 Y111.887 E12.68377
G1 X110.726 Y112.219 E12.71792
G1 X111.803 Y112.457 E12.75206
G1 X112.898 Y112.602 E12.78621
G1 X114.000 Y112.650 E12.82035
G1 X115.102 Y112.602 E12.85449
G1 X116.197 Y112.457 E12.88864
G1 X117.274 Y112.219 E12.92278
G1 X118.326 Y111.887 E12.95693
G1 X119.346 Y111.464 E12.99107
G1 X120.325 Y110.955 E13.02522
G1 X121.256 Y110.362 E13.05936
G1 X122.131 Y109.690 E13.09351
G1 X122.945 Y108.945 E13.12766
G1 X123.690 Y108.132 E13.16177
G1 X124.401 Y107.194 E13.19819
G1 X124.806 Y106.559 E13.22150
G1 X125.369 Y106.814 E13.24063
G1 X125.911 Y107.007 F7800.000
G1 X123.870 Y105.846 F7800.000
G1 X123.400 Y106.582 E13.26765 F1800.000
G1 X122.791 Y107.377 E13.29863
G1 X122.115 Y108.115 E13.32961
G1 X121.377 Y108.791 E13.36058
G1 X120.582 Y109.400 E13.39156
G1 X119.738 Y109.938 E13.42253
G1 X118.850 Y110.401 E13.45351
G1 X117.925 Y110.784 E13.48449
G1 X116.970 Y111.085 E13.51546
G1 X115.993 Y111.301 E13.54644
G1 X115.000 Y111.432 E13.57742
G1 X114.000 Y111.476 E13.60839
G1 X113.000 Y111.432 E13.63937
G1 X112.007 Y111.301 E13.67034
G1 X111.030 Y111.085 E13.70132
G1 X110.075 Y110.784 E13.73230
G1 X109.150 Y110.401 E13.76327
G1 X108.262 Y109.938 E13.79425
G1 X107.418 Y109.400 E13.82523
G1 X106.623 Y108.791 E13.85620
G1 X105.885 Y108.115 E13.88718
G1 X105.209 Y107.377 E13.91816
G1 X104.600 Y106.582 E13.94913
G1 X104.062 Y105.738 E13.98011
G1 X103.599 Y104.850 E14.01109
G1 X103.216 Y103.925 E14.04206
G1 X102.878 Y102.853 E14.07684
G1 X103.296 Y102.308 E14.09809
G1 X103.485 Y102.012 E14.10895
G1 X103.647 Y101.701 E14.11981
G1 X103.781 Y101.376 E14.13068
G1 X103.887 Y101.042 E14.14154
G1 X103.963 Y100.699 E14.15240
G1 X104.009 Y100.351 E14.16326
G1 X104.024 Y100.000 E14.17413
G1 X104.009 Y99.649 E14.18499
G1 X103.963 Y99.301 E14.19585
G1 X103.887 Y98.958 E14.20671
G1 X103.781 Y98.624 E14.21758
G1 X103.647 Y98.299 E14.22844
G1 X103.485 Y97.988 E14.23930
G1 X103.296 Y97.692 E14.25016
G1 X102.878 Y97.147 E14.27141
G1 X103.216 Y96.075 E14.30619
G1 X103.599 Y95.150 E14.33716
G1 X104.062 Y94.262 E14.36814
G1 X104.601 Y93.415 E14.39922
G1 X105.265 Y92.562 E14.43267
G1 X105.885 Y91.885 E14.46106
G1 X106.623 Y91.209 E14.49204
G1 X107.418 Y90.600 E14.52302
G1 X108.262 Y90.062 E14.55399
G1 X109.150 Y89.599 E14.58497
G1 X110.075 Y89.216 E14.61594
G1 X111.030 Y88.915 E14.64692
G1 X112.007 Y88.699 E14.67790
G1 X113.000 Y88.568 E14.70888
G1 X113.917 Y88.528 E14.73726 F1800.000
G1 X114.997 Y88.567 E14.77071
G1 X115.993 Y88.699 E14.80179
G1 X116.970 Y88.915 E14.83277
G1 X117.925 Y89.216 E14.86375
G1 X118.850 Y89.599 E14.89472
G1 X119.738 Y90.062 E14.92570
G1 X120.582 Y90.600 E14.95668
G1 X121.377 Y91.209 E14.98765
G1 X122.115 Y91.885 E15.01863
G1 X122.791 Y92.623 E15.04961
G1 X123.400 Y93.418 E15.08058
G1 X123.938 Y94.262 E15.11156
G1 X124.401 Y95.150 E15.14254
G1 X124.784 Y96.075 E15.17351
G1 X125.085 Y97.030 E15.20449
G1 X125.301 Y98.007 E15.23547
G1 X125.432 Y99.000 E15.26644
G1 X125.476 Y100.000 E15.29742
G1 X125.432 Y101.000 E15.32839
G1 X125.301 Y101.993 E15.35937
G1 X125.085 Y102.970 E15.39035
G1 X124.784 Y103.925 E15.42132
G1 X124.399 Y104.853 E15.45241
G1 X123.908 Y105.781 E15.48490
G1 X123.343 Y105.510 F7800.000
G1 X122.888 Y106.223 E15.51108 F1800.000
G1 X122.312 Y106.974 E15.54037
G1 X121.672 Y107.672 E15.56966
G1 X120.974 Y108.312 E15.59894
G1 X120.224 Y108.888 E15.62823
G1 X119.425 Y109.397 E15.65752
G1 X118.586 Y109.834 E15.68681
G1 X117.711 Y110.196 E15.71610
G1 X116.808 Y110.481 E15.74538
G1 X115.884 Y110.686 E15.77467
G1 X114.946 Y110.809 E15.80396
G1 X114.000 Y110.850 E15.83325
G1 X113.054 Y110.809 E15.86254
G1 X112.116 Y110.686 E15.89182
G1 X111.192 Y110.481 E15.92111
G1 X110.289 Y110.196 E15.95040
G1 X109.414 Y109.834 E15.97969
G1 X108.575 Y109.397 E16.00898
G1 X107.777 Y108.888 E16.03827
G1 X107.026 Y108.312 E16.06755
G1 X106.328 Y107.672 E16.09684
G1 X105.688 Y106.974 E16.12613
G1 X105.112 Y106.223 E16.15542
G1 X104.603 Y105.425 E16.18471
G1 X104.166 Y104.586 E16.21399
G1 X103.804 Y103.711 E16.24328
G1 X103.572 Y102.975 E16.26715
G1 X103.809 Y102.667 E16.27918
G1 X104.027 Y102.325 E16.29173
G1 X104.214 Y101.965 E16.30428
G1 X104.369 Y101.590 E16.31683
G1 X104.491 Y101.203 E16.32938
G1 X104.579 Y100.807 E16.34193
G1 X104.632 Y100.405 E16.35448
G1 X104.650 Y100.000 E16.36703
G1 X104.632 Y99.595 E16.37958
G1 X104.579 Y99.193 E16.39213
G1 X104.491 Y98.797 E16.40469
G1 X104.369 Y98.410 E16.41724
G1 X104.214 Y98.035 E16.42979
G1 X104.027 Y97.675 E16.44234
G1 X103.809 Y97.333 E16.45489
G1 X103.572 Y97.025 E16.46692
G1 X103.804 Y96.289 E16.49078
G1 X104.166 Y95.414 E16.52007
G1 X104.603 Y94.575 E16.54936
G1 X105.113 Y93.775 E16.57869
G1 X105.743 Y92.966 E16.61045
G1 X106.328 Y92.328 E16.63722
