; generated by Slic3r 1.37.2.1-prusa3d-win64 on 2018-05-05 at 14:29:40

; 

; external perimeters extrusion width = 0.42mm
; perimeters extrusion width = 0.45mm
; infill extrusion width = 0.45mm
; solid infill extrusion width = 0.45mm
; top infill extrusion width = 0.42mm
; first layer extrusion width = 0.42mm

M107 ; disable fan
M115 U3.1.0 ; tell printer latest fw version
M83  ; extruder relative mode
M104 S215 ; set extruder temp
M140 S55 ; set bed temp
M190 S55 ; wait for bed temp
M109 S215 ; wait for extruder temp
G28 W ; home all without mesh bed level
G80 ; mesh bed leveling
G1 Y-3.0 F1000.0 ; go outside pritn area
G1 X60.0 E9.0  F1000.0 ; intro line
G1 X100.0 E12.5  F1000.0 ; intro line
G92 E0.0
M900 K30
G21 ; set units to millimeters
G90 ; use absolute coordinates
M83 ; use relative distances for extrusion
;BEFORE_LAYER_CHANGE
;0.2


G1 E-0.80000 F2100.00000 ; retract
G1 Z0.600 F7200.000 ; lift Z
;AFTER_LAYER_CHANGE
;0.2
G1 X31.504 Y24.457 F7200.000 ; move to first skirt point
G1 Z0.200 F7200.000 ; restore layer Z
G1 E0.80000 F2100.00000 ; unretract
M204 S1000 ; adjust acceleration
G1 F1800
G1 X32.621 Y23.017 E0.05715 ; skirt
G1 X34.277 Y21.138 E0.07852 ; skirt
G1 X35.858 Y19.548 E0.07031 ; skirt
G1 X38.206 Y17.474 E0.09823 ; skirt
G1 X40.019 Y16.075 E0.07179 ; skirt
G1 X42.057 Y14.689 E0.07730 ; skirt
G1 X44.562 Y13.223 E0.09099 ; skirt
G1 X46.562 Y12.210 E0.07030 ; skirt
G1 X48.832 Y11.228 E0.07754 ; skirt
G1 X51.559 Y10.260 E0.09074 ; skirt
G1 X53.722 Y9.638 E0.07055 ; skirt
G1 X56.159 Y9.094 E0.07829 ; skirt
G1 X58.640 Y8.700 E0.07878 ; skirt
G1 X60.872 Y8.483 E0.07029 ; skirt
G1 X63.740 Y8.378 E0.09001 ; skirt
G1 X66.236 Y8.455 E0.07829 ; skirt
G1 X68.477 Y8.661 E0.07056 ; skirt
G1 X71.337 Y9.100 E0.09074 ; skirt
G1 X73.751 Y9.640 E0.07754 ; skirt
G1 X75.944 Y10.271 E0.07155 ; skirt
G1 X78.861 Y11.322 E0.09723 ; skirt
G1 X80.924 Y12.221 E0.07055 ; skirt
G1 X82.967 Y13.256 E0.07180 ; skirt
G1 X85.634 Y14.838 E0.09723 ; skirt
G1 X87.491 Y16.108 E0.07054 ; skirt
G1 X89.470 Y17.644 E0.07855 ; skirt
G1 X91.349 Y19.299 E0.07852 ; skirt
G1 X92.939 Y20.881 E0.07031 ; skirt
G1 X95.013 Y23.229 E0.09823 ; skirt
G1 X96.412 Y25.041 E0.07179 ; skirt
G1 X97.794 Y27.073 E0.07705 ; skirt
G1 X99.260 Y29.577 E0.09098 ; skirt
G1 X100.277 Y31.585 E0.07056 ; skirt
G1 X101.256 Y33.847 E0.07729 ; skirt
G1 X102.227 Y36.582 E0.09099 ; skirt
G1 X102.849 Y38.745 E0.07055 ; skirt
G1 X103.393 Y41.182 E0.07829 ; skirt
G1 X103.827 Y44.018 E0.08997 ; skirt
G1 X104.032 Y46.251 E0.07032 ; skirt
G1 X104.109 Y48.755 E0.07854 ; skirt
G1 X104.032 Y51.259 E0.07854 ; skirt
G1 X103.826 Y53.500 E0.07055 ; skirt
G1 X103.387 Y56.360 E0.09074 ; skirt
G1 X102.847 Y58.773 E0.07754 ; skirt
G1 X102.216 Y60.966 E0.07155 ; skirt
G1 X101.165 Y63.884 E0.09723 ; skirt
G1 X100.266 Y65.947 E0.07055 ; skirt
G1 X99.231 Y67.989 E0.07180 ; skirt
G1 X97.649 Y70.656 E0.09723 ; skirt
G1 X96.379 Y72.514 E0.07054 ; skirt
G1 X94.843 Y74.492 E0.07854 ; skirt
G1 X93.188 Y76.372 E0.07852 ; skirt
G1 X91.606 Y77.962 E0.07031 ; skirt
G1 X89.258 Y80.036 E0.09823 ; skirt
G1 X87.446 Y81.435 E0.07179 ; skirt
G1 X85.407 Y82.821 E0.07730 ; skirt
G1 X82.903 Y84.287 E0.09099 ; skirt
G1 X80.902 Y85.299 E0.07030 ; skirt
G1 X78.633 Y86.282 E0.07754 ; skirt
G1 X75.905 Y87.249 E0.09074 ; skirt
G1 X73.742 Y87.871 E0.07055 ; skirt
G1 X71.305 Y88.415 E0.07829 ; skirt
G1 X68.469 Y88.849 E0.08997 ; skirt
G1 X66.236 Y89.054 E0.07032 ; skirt
G1 X63.732 Y89.132 E0.07854 ; skirt
G1 X61.228 Y89.054 E0.07853 ; skirt
G1 X58.987 Y88.848 E0.07056 ; skirt
G1 X56.127 Y88.409 E0.09074 ; skirt
G1 X53.714 Y87.869 E0.07754 ; skirt
G1 X51.521 Y87.238 E0.07155 ; skirt
G1 X48.603 Y86.187 E0.09723 ; skirt
G1 X46.540 Y85.289 E0.07055 ; skirt
G1 X44.498 Y84.254 E0.07180 ; skirt
G1 X41.831 Y82.671 E0.09723 ; skirt
G1 X39.973 Y81.402 E0.07054 ; skirt
G1 X37.995 Y79.866 E0.07854 ; skirt
G1 X36.115 Y78.210 E0.07852 ; skirt
G1 X34.525 Y76.629 E0.07031 ; skirt
G1 X32.451 Y74.281 E0.09823 ; skirt
G1 X31.052 Y72.468 E0.07179 ; skirt
G1 X29.670 Y70.436 E0.07705 ; skirt
G1 X28.204 Y67.932 E0.09099 ; skirt
G1 X27.188 Y65.925 E0.07055 ; skirt
G1 X26.208 Y63.663 E0.07729 ; skirt
G1 X25.238 Y60.928 E0.09099 ; skirt
G1 X24.616 Y58.765 E0.07055 ; skirt
G1 X24.072 Y56.328 E0.07829 ; skirt
G1 X23.638 Y53.492 E0.08997 ; skirt
G1 X23.433 Y51.258 E0.07032 ; skirt
G1 X23.355 Y48.754 E0.07854 ; skirt
G1 X23.433 Y46.251 E0.07853 ; skirt
G1 X23.639 Y44.010 E0.07056 ; skirt
G1 X24.078 Y41.150 E0.09074 ; skirt
G1 X24.618 Y38.736 E0.07754 ; skirt
G1 X25.249 Y36.543 E0.07155 ; skirt
G1 X26.300 Y33.626 E0.09723 ; skirt
G1 X27.198 Y31.563 E0.07055 ; skirt
G1 X28.233 Y29.520 E0.07180 ; skirt
G1 X29.816 Y26.853 E0.09723 ; skirt
G1 X31.085 Y24.996 E0.07054 ; skirt
G1 X31.467 Y24.504 E0.01952 ; skirt
G1 F5760
G1 X32.621 Y23.017 E-0.65204 ; wipe and retract
G1 F5760
G1 X32.827 Y22.783 E-0.10796 ; wipe and retract
G1 E-0.04000 F2100.00000 ; retract
G1 Z0.800 F7200.000 ; lift Z
G1 X32.958 Y25.665 F7200.000 ; move to first brim point
G1 Z0.200 F7200.000 ; restore layer Z
G1 E0.80000 F2100.00000 ; unretract
G1 F1800
G1 X34.083 Y24.220 E0.05742 ; brim
G1 X35.590 Y22.505 E0.07159 ; brim
G1 X37.494 Y20.601 E0.08443 ; brim
G1 X39.257 Y19.056 E0.07350 ; brim
G1 X41.117 Y17.616 E0.07374 ; brim
G1 X43.052 Y16.299 E0.07338 ; brim
G1 X45.074 Y15.096 E0.07376 ; brim
G1 X47.210 Y13.998 E0.07531 ; brim
G1 X49.424 Y13.029 E0.07578 ; brim
G1 X51.708 Y12.197 E0.07621 ; brim
G1 X54.015 Y11.518 E0.07542 ; brim
G1 X56.372 Y10.981 E0.07579 ; brim
G1 X58.784 Y10.590 E0.07662 ; brim
G1 X61.179 Y10.355 E0.07544 ; brim
G1 X63.581 Y10.271 E0.07537 ; brim
G1 X66.010 Y10.338 E0.07618 ; brim
G1 X68.405 Y10.555 E0.07542 ; brim
G1 X70.796 Y10.924 E0.07585 ; brim
G1 X73.377 Y11.499 E0.08291 ; brim
G1 X75.594 Y12.144 E0.07239 ; brim
G1 X77.778 Y12.925 E0.07271 ; brim
G1 X80.237 Y13.989 E0.08401 ; brim
G1 X82.323 Y15.059 E0.07351 ; brim
G1 X84.347 Y16.258 E0.07376 ; brim
G1 X86.284 Y17.571 E0.07338 ; brim
G1 X88.147 Y19.007 E0.07377 ; brim
G1 X89.965 Y20.596 E0.07570 ; brim
G1 X91.552 Y22.171 E0.07010 ; brim
G1 X93.277 Y24.094 E0.08100 ; brim
G1 X94.776 Y26.010 E0.07629 ; brim
G1 X96.144 Y28.006 E0.07586 ; brim
G1 X97.402 Y30.116 E0.07703 ; brim
G1 X98.496 Y32.246 E0.07506 ; brim
G1 X99.458 Y34.448 E0.07537 ; brim
G1 X100.302 Y36.769 E0.07741 ; brim
G1 X100.977 Y39.066 E0.07507 ; brim
G1 X101.507 Y41.398 E0.07499 ; brim
G1 X101.905 Y43.873 E0.07859 ; brim
G1 X102.134 Y46.232 E0.07431 ; brim
G1 X102.216 Y48.607 E0.07452 ; brim
G1 X102.146 Y51.086 E0.07775 ; brim
G1 X101.928 Y53.458 E0.07469 ; brim
G1 X101.562 Y55.822 E0.07500 ; brim
G1 X100.990 Y58.394 E0.08261 ; brim
G1 X100.329 Y60.659 E0.07399 ; brim
G1 X99.525 Y62.894 E0.07447 ; brim
G1 X98.559 Y65.128 E0.07632 ; brim
G1 X97.491 Y67.232 E0.07399 ; brim
G1 X96.188 Y69.434 E0.08020 ; brim
G1 X94.850 Y71.398 E0.07453 ; brim
G1 X93.429 Y73.232 E0.07274 ; brim
G1 X91.739 Y75.149 E0.08014 ; brim
G1 X90.106 Y76.781 E0.07237 ; brim
G1 X88.373 Y78.316 E0.07260 ; brim
G1 X86.238 Y79.973 E0.08473 ; brim
G1 X84.358 Y81.245 E0.07116 ; brim
G1 X82.397 Y82.410 E0.07152 ; brim
G1 X79.988 Y83.637 E0.08477 ; brim
G1 X77.891 Y84.540 E0.07159 ; brim
G1 X75.737 Y85.319 E0.07182 ; brim
G1 X73.435 Y85.996 E0.07523 ; brim
G1 X71.090 Y86.529 E0.07541 ; brim
G1 X68.628 Y86.926 E0.07820 ; brim
G1 X66.257 Y87.156 E0.07469 ; brim
G1 X63.880 Y87.239 E0.07456 ; brim
G1 X61.401 Y87.168 E0.07777 ; brim
G1 X59.029 Y86.950 E0.07469 ; brim
G1 X56.665 Y86.585 E0.07500 ; brim
G1 X54.105 Y86.015 E0.08222 ; brim
G1 X51.749 Y85.326 E0.07697 ; brim
G1 X49.538 Y84.526 E0.07375 ; brim
G1 X47.369 Y83.587 E0.07411 ; brim
G1 X45.244 Y82.507 E0.07472 ; brim
G1 X43.064 Y81.218 E0.07943 ; brim
G1 X41.108 Y79.886 E0.07419 ; brim
G1 X39.246 Y78.444 E0.07384 ; brim
G1 X37.346 Y76.769 E0.07940 ; brim
G1 X35.650 Y75.068 E0.07532 ; brim
G1 X34.111 Y73.324 E0.07293 ; brim
G1 X32.637 Y71.429 E0.07528 ; brim
G1 X31.280 Y69.441 E0.07547 ; brim
G1 X30.049 Y67.369 E0.07556 ; brim
G1 X28.957 Y65.239 E0.07506 ; brim
G1 X28.005 Y63.059 E0.07458 ; brim
G1 X27.158 Y60.728 E0.07776 ; brim
G1 X26.487 Y58.443 E0.07469 ; brim
G1 X25.958 Y56.111 E0.07497 ; brim
G1 X25.557 Y53.624 E0.07899 ; brim
G1 X25.330 Y51.265 E0.07431 ; brim
G1 X25.248 Y48.902 E0.07413 ; brim
G1 X25.319 Y46.424 E0.07774 ; brim
G1 X25.536 Y44.052 E0.07469 ; brim
G1 X25.902 Y41.688 E0.07500 ; brim
G1 X26.483 Y39.083 E0.08369 ; brim
G1 X27.123 Y36.890 E0.07160 ; brim
G1 X27.898 Y34.721 E0.07223 ; brim
G1 X28.960 Y32.263 E0.08395 ; brim
G1 X30.005 Y30.220 E0.07196 ; brim
G1 X31.170 Y28.243 E0.07193 ; brim
G1 X32.674 Y26.030 E0.08391 ; brim
G1 X32.921 Y25.712 E0.01261 ; brim
G1 X33.219 Y25.944 F7200.000 ; move to first brim point
G1 F1800
G1 X34.370 Y24.465 E0.05878 ; brim
G1 X35.869 Y22.758 E0.07122 ; brim
G1 X37.748 Y20.881 E0.08328 ; brim
G1 X39.502 Y19.343 E0.07313 ; brim
G1 X41.344 Y17.918 E0.07302 ; brim
G1 X43.259 Y16.614 E0.07266 ; brim
G1 X45.261 Y15.423 E0.07304 ; brim
G1 X47.377 Y14.336 E0.07457 ; brim
G1 X49.569 Y13.377 E0.07504 ; brim
G1 X51.831 Y12.554 E0.07546 ; brim
G1 X54.116 Y11.881 E0.07468 ; brim
G1 X56.450 Y11.350 E0.07505 ; brim
G1 X58.839 Y10.963 E0.07588 ; brim
G1 X61.210 Y10.731 E0.07469 ; brim
G1 X63.588 Y10.648 E0.07463 ; brim
G1 X65.993 Y10.715 E0.07543 ; brim
G1 X68.365 Y10.930 E0.07468 ; brim
G1 X70.733 Y11.296 E0.07511 ; brim
G1 X73.278 Y11.863 E0.08176 ; brim
G1 X75.483 Y12.505 E0.07202 ; brim
G1 X77.645 Y13.278 E0.07198 ; brim
G1 X80.070 Y14.328 E0.08286 ; brim
G1 X82.136 Y15.386 E0.07277 ; brim
G1 X84.140 Y16.573 E0.07303 ; brim
G1 X86.068 Y17.879 E0.07302 ; brim
G1 X87.912 Y19.302 E0.07304 ; brim
G1 X89.712 Y20.876 E0.07497 ; brim
G1 X91.283 Y22.434 E0.06937 ; brim
G1 X92.991 Y24.341 E0.08028 ; brim
G1 X94.476 Y26.238 E0.07552 ; brim
G1 X95.830 Y28.214 E0.07511 ; brim
G1 X97.075 Y30.304 E0.07628 ; brim
G1 X98.157 Y32.413 E0.07432 ; brim
G1 X99.111 Y34.594 E0.07463 ; brim
G1 X99.946 Y36.892 E0.07666 ; brim
G1 X100.613 Y39.166 E0.07433 ; brim
G1 X101.138 Y41.476 E0.07425 ; brim
G1 X101.532 Y43.927 E0.07783 ; brim
G1 X101.758 Y46.262 E0.07357 ; brim
G1 X101.839 Y48.614 E0.07378 ; brim
G1 X101.769 Y51.069 E0.07700 ; brim
G1 X101.553 Y53.417 E0.07395 ; brim
G1 X101.190 Y55.758 E0.07426 ; brim
G1 X100.623 Y58.306 E0.08183 ; brim
G1 X99.969 Y60.548 E0.07324 ; brim
G1 X99.172 Y62.761 E0.07374 ; brim
G1 X98.221 Y64.963 E0.07522 ; brim
G1 X97.163 Y67.045 E0.07323 ; brim
G1 X95.867 Y69.237 E0.07982 ; brim
G1 X94.548 Y71.172 E0.07342 ; brim
G1 X93.142 Y72.987 E0.07200 ; brim
G1 X91.460 Y74.895 E0.07976 ; brim
G1 X89.844 Y76.510 E0.07163 ; brim
G1 X88.128 Y78.030 E0.07188 ; brim
G1 X86.021 Y79.664 E0.08359 ; brim
G1 X84.161 Y80.923 E0.07044 ; brim
G1 X82.210 Y82.083 E0.07116 ; brim
G1 X79.834 Y83.293 E0.08362 ; brim
G1 X77.747 Y84.191 E0.07122 ; brim
G1 X75.614 Y84.962 E0.07111 ; brim
G1 X73.335 Y85.632 E0.07450 ; brim
G1 X71.013 Y86.160 E0.07467 ; brim
G1 X68.574 Y86.553 E0.07744 ; brim
G1 X66.227 Y86.780 E0.07395 ; brim
G1 X63.873 Y86.862 E0.07383 ; brim
G1 X61.418 Y86.791 E0.07702 ; brim
G1 X59.070 Y86.576 E0.07394 ; brim
G1 X56.729 Y86.213 E0.07426 ; brim
G1 X54.193 Y85.649 E0.08145 ; brim
G1 X51.872 Y84.969 E0.07584 ; brim
G1 X49.682 Y84.177 E0.07302 ; brim
G1 X47.534 Y83.248 E0.07338 ; brim
G1 X45.431 Y82.179 E0.07397 ; brim
G1 X43.261 Y80.896 E0.07905 ; brim
G1 X41.334 Y79.584 E0.07309 ; brim
G1 X39.491 Y78.157 E0.07310 ; brim
G1 X37.600 Y76.490 E0.07902 ; brim
G1 X35.929 Y74.815 E0.07421 ; brim
G1 X34.405 Y73.088 E0.07220 ; brim
G1 X32.945 Y71.212 E0.07454 ; brim
G1 X31.595 Y69.233 E0.07509 ; brim
G1 X30.377 Y67.182 E0.07482 ; brim
G1 X29.295 Y65.072 E0.07432 ; brim
G1 X28.353 Y62.914 E0.07384 ; brim
G1 X27.515 Y60.605 E0.07701 ; brim
G1 X26.851 Y58.342 E0.07395 ; brim
G1 X26.327 Y56.034 E0.07423 ; brim
G1 X25.931 Y53.570 E0.07823 ; brim
G1 X25.706 Y51.234 E0.07357 ; brim
G1 X25.625 Y48.895 E0.07340 ; brim
G1 X25.695 Y46.440 E0.07699 ; brim
G1 X25.911 Y44.092 E0.07394 ; brim
G1 X26.274 Y41.752 E0.07426 ; brim
G1 X26.850 Y39.171 E0.08292 ; brim
G1 X27.483 Y37.001 E0.07085 ; brim
G1 X28.251 Y34.854 E0.07151 ; brim
G1 X29.304 Y32.419 E0.08318 ; brim
G1 X30.339 Y30.397 E0.07121 ; brim
G1 X31.491 Y28.440 E0.07121 ; brim
G1 X32.975 Y26.257 E0.08277 ; brim
G1 X33.182 Y25.991 E0.01054 ; brim
G1 X33.479 Y26.223 F7200.000 ; move to first brim point
G1 F1800
G1 X34.657 Y24.709 E0.06013 ; brim
G1 X36.148 Y23.012 E0.07085 ; brim
G1 X38.001 Y21.160 E0.08212 ; brim
G1 X39.737 Y19.638 E0.07240 ; brim
G1 X41.560 Y18.227 E0.07230 ; brim
G1 X43.457 Y16.935 E0.07194 ; brim
G1 X45.449 Y15.750 E0.07267 ; brim
G1 X47.544 Y14.674 E0.07384 ; brim
G1 X49.715 Y13.725 E0.07430 ; brim
G1 X51.954 Y12.910 E0.07472 ; brim
G1 X54.216 Y12.244 E0.07394 ; brim
G1 X56.528 Y11.719 E0.07431 ; brim
G1 X58.893 Y11.336 E0.07513 ; brim
G1 X61.240 Y11.107 E0.07395 ; brim
G1 X63.596 Y11.025 E0.07389 ; brim
G1 X65.977 Y11.092 E0.07469 ; brim
G1 X68.325 Y11.305 E0.07394 ; brim
G1 X70.669 Y11.668 E0.07436 ; brim
G1 X73.178 Y12.226 E0.08061 ; brim
G1 X75.362 Y12.862 E0.07130 ; brim
G1 X77.512 Y13.631 E0.07161 ; brim
G1 X79.904 Y14.666 E0.08171 ; brim
G1 X81.948 Y15.714 E0.07204 ; brim
G1 X83.943 Y16.894 E0.07267 ; brim
G1 X85.851 Y18.188 E0.07229 ; brim
G1 X87.677 Y19.597 E0.07231 ; brim
G1 X89.459 Y21.156 E0.07424 ; brim
G1 X91.013 Y22.698 E0.06865 ; brim
G1 X92.706 Y24.588 E0.07956 ; brim
G1 X94.175 Y26.466 E0.07474 ; brim
G1 X95.515 Y28.422 E0.07437 ; brim
G1 X96.748 Y30.492 E0.07553 ; brim
G1 X97.819 Y32.580 E0.07357 ; brim
G1 X98.763 Y34.739 E0.07389 ; brim
G1 X99.589 Y37.015 E0.07591 ; brim
G1 X100.250 Y39.267 E0.07359 ; brim
G1 X100.769 Y41.553 E0.07351 ; brim
G1 X101.159 Y43.981 E0.07708 ; brim
G1 X101.382 Y46.293 E0.07283 ; brim
G1 X101.462 Y48.621 E0.07305 ; brim
G1 X101.392 Y51.052 E0.07626 ; brim
G1 X101.178 Y53.377 E0.07320 ; brim
G1 X100.819 Y55.694 E0.07352 ; brim
G1 X100.256 Y58.218 E0.08106 ; brim
G1 X99.608 Y60.436 E0.07248 ; brim
G1 X98.819 Y62.627 E0.07302 ; brim
G1 X97.882 Y64.797 E0.07412 ; brim
G1 X96.835 Y66.859 E0.07248 ; brim
G1 X95.546 Y69.040 E0.07944 ; brim
G1 X94.247 Y70.945 E0.07231 ; brim
G1 X92.855 Y72.742 E0.07125 ; brim
G1 X91.181 Y74.642 E0.07939 ; brim
G1 X89.581 Y76.239 E0.07089 ; brim
G1 X87.882 Y77.743 E0.07115 ; brim
G1 X85.805 Y79.355 E0.08244 ; brim
G1 X83.954 Y80.608 E0.07007 ; brim
G1 X82.023 Y81.755 E0.07044 ; brim
G1 X79.679 Y82.949 E0.08247 ; brim
G1 X77.603 Y83.842 E0.07085 ; brim
G1 X75.492 Y84.605 E0.07040 ; brim
G1 X73.234 Y85.269 E0.07378 ; brim
G1 X70.935 Y85.791 E0.07392 ; brim
G1 X68.520 Y86.180 E0.07669 ; brim
G1 X66.196 Y86.404 E0.07320 ; brim
G1 X63.866 Y86.485 E0.07309 ; brim
G1 X61.435 Y86.415 E0.07627 ; brim
G1 X59.110 Y86.201 E0.07320 ; brim
G1 X56.793 Y85.841 E0.07351 ; brim
G1 X54.281 Y85.282 E0.08068 ; brim
G1 X51.995 Y84.613 E0.07470 ; brim
G1 X49.816 Y83.825 E0.07265 ; brim
G1 X47.689 Y82.904 E0.07265 ; brim
G1 X45.618 Y81.852 E0.07286 ; brim
G1 X43.458 Y80.575 E0.07867 ; brim
G1 X41.560 Y79.283 E0.07198 ; brim
G1 X39.735 Y77.870 E0.07235 ; brim
G1 X37.854 Y76.212 E0.07864 ; brim
G1 X36.208 Y74.561 E0.07310 ; brim
G1 X34.699 Y72.851 E0.07148 ; brim
G1 X33.253 Y70.994 E0.07380 ; brim
G1 X31.916 Y69.036 E0.07435 ; brim
G1 X30.704 Y66.994 E0.07445 ; brim
G1 X29.634 Y64.906 E0.07358 ; brim
G1 X28.701 Y62.769 E0.07310 ; brim
G1 X27.871 Y60.482 E0.07626 ; brim
G1 X27.214 Y58.242 E0.07320 ; brim
G1 X26.696 Y55.956 E0.07349 ; brim
G1 X26.304 Y53.516 E0.07748 ; brim
G1 X26.082 Y51.204 E0.07282 ; brim
G1 X26.002 Y48.888 E0.07266 ; brim
G1 X26.072 Y46.457 E0.07625 ; brim
G1 X26.286 Y44.133 E0.07320 ; brim
G1 X26.646 Y41.816 E0.07352 ; brim
G1 X27.214 Y39.270 E0.08176 ; brim
G1 X27.843 Y37.112 E0.07049 ; brim
G1 X28.604 Y34.987 E0.07079 ; brim
G1 X29.643 Y32.585 E0.08204 ; brim
G1 X30.666 Y30.583 E0.07049 ; brim
G1 X31.813 Y28.637 E0.07084 ; brim
G1 X33.276 Y26.483 E0.08163 ; brim
G1 X33.442 Y26.270 E0.00847 ; brim
G1 X33.740 Y26.502 F7200.000 ; move to first brim point
G1 F1800
G1 X34.951 Y24.945 E0.06184 ; brim
G1 X36.428 Y23.265 E0.07013 ; brim
